ncols 287
nrows 273
xllcorner 414832.632369
yllcorner 6189108.715862
cellsize 9.996932
NODATA_value -9999
66 79 66 66 79 79 79 66 66 66 79 66 66 66 66 66 79 66 66 66 66 66 66 66 66 66 66 66 66 66 66 66 66 66 66 66 66 66 66 66 66 66 66 66 66 66 66 66 66 66 66 66 66 66 66 66 66 79 79 79 79 79 66 66 66 79 79 79 79 79 79 79 79 79 79 79 79 -9999 -9999 -9999 -9999 66 66 66 66 66 66 66 66 66 66 66 66 66 66 66 79 79 79 79 79 79 79 66 66 66 66 66 79 67 67 67 66 66 67 67 81 81 81 81 81 81 81 81 81 81 81 81 81 81 81 81 81 81 81 81 81 81 81 81 81 81 81 81 81 81 81 81 81 81 81 -9999 -9999 79 79 79 79 79 79 79 79 79 79 79 79 79 79 -9999 -9999 -9999 -9999 -9999 79 79 79 79 79 79 66 79 79 79 79 79 79 79 79 79 79 79 79 79 -9999 -9999 -9999 -9999 -9999 79 79 79 81 81 81 81 81 81 81 81 81 81 81 81 81 81 81 81 81 81 81 81 81 81 81 81 81 66 66 66 66 66 66 66 83 83 89 89 89 89 79 79 81 81 81 81 81 81 66 66 81 81 81 81 66 66 81 81 81 81 81 81 81 81 66 66 66 66 66 66 66 66 66 66 66 66 66 66 66 66 66 66 66 66 81 81 81 81 66
66 79 66 66 66 79 79 66 66 79 66 66 66 66 66 66 79 66 66 66 66 79 66 66 66 66 66 66 66 66 66 66 66 66 66 66 66 66 66 66 66 66 66 66 66 66 66 66 66 66 66 66 66 66 66 79 79 79 79 79 79 79 66 66 66 79 79 79 79 79 79 79 79 79 79 -9999 -9999 -9999 -9999 79 66 66 66 66 66 66 66 66 66 66 66 66 66 66 79 79 79 79 79 79 79 66 66 66 66 66 79 79 79 67 67 67 67 66 66 66 66 81 81 81 81 81 81 81 81 81 81 81 81 81 81 81 81 81 81 81 81 81 81 81 81 81 81 81 81 81 81 81 66 81 81 79 -9999 79 79 79 79 79 79 79 79 79 79 79 79 79 79 79 -9999 79 79 79 79 79 79 79 79 79 79 79 79 79 79 -9999 -9999 79 79 79 79 79 79 79 79 79 -9999 -9999 -9999 -9999 -9999 79 79 67 79 81 81 81 81 81 81 81 81 81 81 81 81 81 81 81 81 81 81 81 81 81 81 81 66 66 66 66 66 66 66 83 83 89 79 79 79 66 66 81 66 66 66 66 66 66 81 81 66 66 66 66 66 81 81 81 81 81 81 81 66 66 66 66 66 66 66 66 66 66 66 66 66 66 66 66 66 66 66 81 81 81 81 81 81
66 79 66 66 66 79 79 66 66 66 66 66 66 66 66 66 66 66 66 66 66 66 66 66 66 66 66 66 66 66 66 66 66 66 66 66 66 66 66 66 66 66 66 66 66 66 66 66 66 66 66 66 66 66 66 79 79 79 79 79 79 79 79 79 79 79 79 79 79 79 79 79 79 -9999 -9999 -9999 -9999 66 66 66 66 66 66 83 83 83 66 66 66 66 66 66 79 79 79 79 79 79 79 79 66 66 66 66 66 79 79 66 79 79 79 79 67 66 66 66 66 81 81 81 81 81 81 81 81 81 81 81 81 81 81 81 81 81 81 81 81 81 81 81 81 81 81 81 81 81 81 81 81 81 81 81 -9999 -9999 79 -9999 -9999 -9999 -9999 -9999 -9999 -9999 -9999 -9999 -9999 -9999 -9999 -9999 -9999 -9999 -9999 79 79 79 79 79 79 79 79 79 79 -9999 -9999 -9999 -9999 -9999 -9999 -9999 -9999 79 79 79 79 79 79 79 79 -9999 -9999 -9999 -9999 -9999 79 79 79 81 81 81 81 81 81 81 81 81 81 81 81 81 81 81 81 81 81 81 81 81 66 66 66 66 66 66 66 66 66 79 79 79 66 66 66 66 66 66 66 66 66 66 66 66 66 66 66 66 66 66 81 81 81 81 81 66 66 66 66 66 66 66 66 66 66 66 66 66 66 66 66 66 66 66 66 81 81 81 81 81 81
66 79 66 66 79 79 79 66 66 66 66 66 66 66 66 79 66 79 66 66 66 66 66 66 66 79 66 66 66 66 66 66 66 66 66 66 66 66 66 66 66 66 66 66 66 66 66 66 66 66 66 66 66 66 66 79 79 79 79 79 79 79 79 67 67 79 79 79 79 79 79 79 -9999 -9999 -9999 79 67 66 66 66 66 89 83 83 83 83 83 66 66 66 66 79 79 79 79 79 79 79 79 66 66 66 66 66 66 67 67 66 79 79 66 66 79 66 66 66 81 81 81 81 81 81 81 81 81 81 81 81 81 81 81 81 81 81 81 81 81 81 81 81 81 81 81 81 81 81 81 81 81 81 81 -9999 -9999 -9999 -9999 -9999 -9999 -9999 -9999 -9999 -9999 -9999 -9999 -9999 -9999 -9999 -9999 -9999 -9999 -9999 -9999 -9999 -9999 -9999 79 79 79 79 79 86 -9999 86 -9999 -9999 -9999 -9999 -9999 -9999 -9999 -9999 -9999 79 79 79 79 79 79 79 79 -9999 -9999 -9999 -9999 -9999 -9999 79 79 81 81 81 81 81 81 81 81 81 81 81 81 81 81 81 81 81 81 81 66 66 66 66 66 66 66 66 66 66 66 66 66 66 66 66 66 66 66 66 66 66 66 66 66 66 67 79 66 66 81 81 81 66 66 66 66 66 66 66 66 66 66 66 66 66 66 66 66 66 66 66 66 66 66 81 81 81 81 81 79
66 66 79 79 79 -9999 79 66 66 79 66 79 79 66 66 79 66 66 79 79 66 66 66 66 66 66 66 66 66 66 66 66 66 66 66 66 66 66 66 66 66 66 66 66 66 66 66 66 66 66 66 66 66 66 66 79 79 79 79 79 79 79 79 79 79 79 79 79 79 79 -9999 -9999 -9999 79 67 66 79 66 66 66 83 83 83 83 89 83 66 66 66 67 79 79 79 79 79 79 79 66 66 66 66 79 67 79 67 79 66 66 79 67 66 66 66 81 81 81 81 81 81 81 81 81 81 81 81 81 81 81 81 81 81 81 81 81 81 81 81 81 81 81 81 81 81 81 81 81 81 81 81 81 -9999 -9999 -9999 -9999 79 79 67 -9999 -9999 -9999 -9999 -9999 -9999 -9999 -9999 -9999 -9999 -9999 -9999 -9999 -9999 -9999 -9999 -9999 -9999 -9999 -9999 -9999 -9999 -9999 -9999 -9999 -9999 -9999 -9999 -9999 -9999 -9999 -9999 -9999 -9999 -9999 -9999 -9999 79 79 79 79 79 79 79 79 -9999 -9999 -9999 -9999 -9999 -9999 79 81 81 81 81 81 81 81 81 81 81 81 81 81 81 81 81 81 66 66 66 66 66 66 66 66 66 66 66 66 66 66 66 66 66 66 66 66 66 66 66 66 66 66 66 79 66 66 66 81 81 66 66 66 66 66 66 66 66 66 66 66 66 66 66 66 66 66 66 66 66 66 66 66 81 81 81 79 67
66 79 79 79 79 -9999 66 79 67 67 67 79 79 66 66 79 66 66 66 66 66 66 66 66 66 66 66 66 79 66 66 66 66 66 66 66 66 66 66 66 66 66 66 66 66 66 66 66 66 66 66 66 66 66 66 79 79 79 79 79 79 79 79 79 79 79 79 79 -9999 -9999 -9999 -9999 66 66 79 79 79 66 66 83 83 83 83 83 89 66 79 79 79 79 79 79 79 79 79 66 66 66 66 79 79 79 67 66 66 66 66 66 66 66 66 81 81 81 81 81 81 81 66 81 81 81 81 81 81 81 81 81 81 81 81 81 81 81 81 81 81 81 81 81 81 81 81 81 81 81 81 81 66 81 -9999 -9999 -9999 -9999 79 79 -9999 -9999 -9999 -9999 -9999 -9999 -9999 -9999 -9999 -9999 -9999 -9999 -9999 -9999 -9999 -9999 -9999 -9999 -9999 -9999 79 79 -9999 -9999 -9999 -9999 -9999 -9999 -9999 -9999 -9999 -9999 -9999 -9999 -9999 -9999 -9999 -9999 -9999 79 79 79 67 66 66 66 66 66 79 -9999 -9999 -9999 -9999 -9999 -9999 79 81 81 81 81 81 81 81 81 81 81 81 81 81 81 66 66 66 66 66 66 66 66 66 66 66 66 66 66 66 66 66 66 66 66 66 66 66 66 66 66 66 79 66 66 66 66 66 66 66 66 66 66 66 66 66 66 66 66 66 66 66 66 66 66 66 66 66 66 66 66 66 66 66 79 67
66 79 79 79 79 79 79 67 -9999 -9999 -9999 66 66 79 79 79 79 66 66 66 79 79 79 66 66 66 66 66 79 66 66 66 66 66 66 66 66 66 66 66 66 66 66 66 66 66 66 66 66 66 66 66 66 66 66 79 79 79 79 79 79 79 79 79 79 79 79 -9999 -9999 -9999 79 79 66 66 67 79 79 66 83 83 83 83 83 66 66 79 79 79 79 79 79 79 79 79 66 66 66 67 67 79 67 66 66 66 66 66 66 66 66 66 81 81 81 81 81 81 81 81 66 81 81 81 81 81 81 81 81 81 81 81 81 81 81 81 81 81 81 81 81 81 81 81 81 81 81 81 81 81 81 81 -9999 -9999 -9999 -9999 79 79 -9999 -9999 -9999 -9999 -9999 -9999 -9999 -9999 -9999 -9999 -9999 -9999 -9999 -9999 -9999 -9999 -9999 -9999 -9999 -9999 -9999 79 79 -9999 -9999 -9999 -9999 -9999 -9999 -9999 -9999 -9999 -9999 -9999 -9999 -9999 -9999 -9999 -9999 79 79 79 66 66 66 66 66 66 66 66 66 66 -9999 -9999 -9999 -9999 -9999 -9999 -9999 79 81 81 81 81 81 81 81 81 81 81 81 66 66 66 66 66 66 66 66 66 66 79 66 66 66 66 66 66 66 66 66 66 66 66 66 79 79 66 66 66 66 66 66 66 66 66 66 66 66 66 66 66 66 66 66 66 66 66 66 66 66 66 66 66 66 66 66 66 66 66 67
66 66 79 -9999 -9999 66 -9999 -9999 -9999 -9999 79 79 79 79 79 79 79 79 66 66 79 79 79 66 66 66 66 66 66 66 66 66 66 66 66 66 66 66 66 66 66 66 66 66 66 66 66 66 66 66 66 66 66 66 66 79 79 79 79 79 79 79 79 79 79 -9999 -9999 -9999 -9999 79 79 79 66 66 79 79 66 83 83 83 83 83 66 66 66 79 79 79 79 67 79 79 79 66 66 66 79 79 -9999 66 66 66 66 66 66 66 66 79 81 81 81 81 81 81 81 81 81 81 81 66 81 81 81 81 81 81 81 81 81 81 81 81 81 81 81 81 81 81 81 81 81 81 81 81 81 81 81 81 81 -9999 -9999 -9999 -9999 -9999 -9999 79 79 -9999 -9999 -9999 -9999 -9999 -9999 -9999 -9999 -9999 -9999 -9999 -9999 -9999 -9999 -9999 -9999 -9999 -9999 -9999 -9999 -9999 79 -9999 -9999 -9999 -9999 -9999 -9999 -9999 -9999 79 79 -9999 -9999 -9999 -9999 -9999 -9999 -9999 79 79 79 66 66 66 66 66 66 66 66 66 66 66 66 79 -9999 -9999 -9999 -9999 -9999 -9999 79 79 81 81 81 81 81 81 81 66 66 66 66 66 66 79 66 66 66 66 66 66 66 66 66 79 66 66 66 66 66 66 66 66 66 66 66 66 66 66 66 66 66 66 66 66 66 66 66 66 66 66 66 66 66 66 66 66 66 66 66 66 66 66 66 66 66 66 67
-9999 -9999 -9999 -9999 -9999 -9999 79 -9999 -9999 66 66 66 79 79 79 79 79 79 79 66 66 79 79 79 66 66 66 66 66 66 66 66 66 66 66 66 66 66 66 66 66 66 66 66 66 66 66 66 66 66 66 66 66 66 66 79 79 79 79 79 79 79 79 79 -9999 -9999 -9999 79 79 79 79 79 79 66 66 79 83 83 83 83 83 66 66 66 79 79 79 79 79 79 79 79 79 66 66 66 66 66 66 66 66 66 66 66 66 67 81 81 81 81 81 81 81 81 81 81 81 81 81 81 81 81 81 81 81 81 81 81 81 81 81 81 81 81 81 81 81 81 81 81 81 81 81 81 81 81 81 81 81 81 81 79 -9999 79 -9999 79 79 -9999 -9999 -9999 -9999 -9999 -9999 -9999 -9999 -9999 -9999 -9999 -9999 -9999 -9999 -9999 -9999 -9999 -9999 -9999 -9999 -9999 -9999 79 -9999 -9999 -9999 -9999 -9999 -9999 -9999 79 79 -9999 -9999 -9999 86 -9999 -9999 -9999 79 79 79 79 79 66 66 66 66 66 66 66 66 66 66 66 66 66 79 -9999 -9999 -9999 -9999 -9999 -9999 -9999 79 79 79 81 81 81 66 66 66 66 66 66 66 66 79 66 66 66 66 66 66 66 66 66 66 66 66 66 66 66 66 66 66 66 66 66 66 66 66 66 66 66 66 66 66 66 66 66 66 66 66 66 66 66 66 66 66 66 66 66 66 66 66 66 -9999
-9999 81 81 79 79 -9999 79 -9999 -9999 66 66 66 79 79 79 79 79 79 79 66 66 66 66 79 66 66 66 66 66 66 66 66 66 66 66 66 66 66 66 66 66 66 66 66 66 66 66 66 66 66 66 66 66 66 66 79 79 79 79 79 79 79 79 -9999 -9999 -9999 66 66 79 79 79 79 79 66 66 89 83 83 83 83 83 66 66 79 79 79 79 79 79 79 79 67 67 66 66 66 79 66 -9999 66 66 66 66 66 66 81 81 81 81 81 81 81 81 81 81 81 81 81 81 81 81 81 81 81 81 81 81 81 81 81 81 81 81 81 81 81 81 81 81 81 81 81 81 81 81 81 81 81 81 81 81 81 -9999 79 -9999 79 66 -9999 -9999 -9999 -9999 -9999 -9999 -9999 -9999 -9999 -9999 -9999 -9999 -9999 -9999 -9999 -9999 -9999 -9999 -9999 -9999 79 -9999 79 79 -9999 -9999 -9999 -9999 -9999 -9999 -9999 -9999 -9999 -9999 -9999 -9999 79 79 79 79 79 79 79 79 66 66 66 66 66 66 66 66 66 66 66 66 66 79 67 67 79 79 -9999 -9999 -9999 -9999 -9999 -9999 -9999 -9999 -9999 79 79 79 79 79 79 66 66 66 66 66 66 66 66 66 66 66 66 66 66 66 66 66 66 66 66 66 66 66 66 66 66 66 66 66 66 66 66 66 66 66 66 66 66 66 66 66 66 66 66 66 66 66 -9999 -9999 -9999 -9999 -9999 -9999
81 81 81 66 66 79 -9999 -9999 -9999 -9999 79 79 79 79 79 79 79 79 79 79 79 66 66 66 66 66 66 66 66 66 79 66 66 66 66 66 66 66 66 66 66 66 66 66 66 66 66 66 66 66 66 66 66 66 79 79 79 79 79 79 79 -9999 -9999 -9999 -9999 66 66 79 79 79 79 79 79 79 66 89 83 83 83 83 83 79 79 79 79 79 79 79 79 79 67 66 66 66 66 66 79 -9999 -9999 66 66 66 81 81 81 81 81 81 81 81 81 81 81 81 81 81 81 81 81 81 66 66 81 81 81 81 81 81 81 81 81 81 81 81 81 81 81 81 81 81 81 81 81 81 81 81 81 81 81 81 81 81 -9999 66 -9999 79 66 79 -9999 -9999 -9999 -9999 -9999 -9999 -9999 -9999 -9999 -9999 -9999 -9999 -9999 -9999 -9999 -9999 -9999 -9999 -9999 66 -9999 -9999 79 79 79 -9999 -9999 -9999 -9999 -9999 -9999 79 -9999 -9999 79 79 79 66 66 79 79 79 66 66 66 66 66 66 66 66 66 66 66 66 66 66 79 67 67 67 66 66 66 66 66 79 -9999 -9999 -9999 -9999 -9999 -9999 -9999 -9999 -9999 79 66 66 66 66 66 66 66 79 66 66 66 66 66 66 66 66 66 66 66 66 66 66 66 66 66 66 66 66 66 66 66 66 66 66 66 66 67 67 67 67 67 -9999 -9999 -9999 -9999 -9999 -9999 -9999 -9999 -9999 -9999 -9999 -9999
81 81 81 66 -9999 -9999 -9999 -9999 -9999 -9999 79 66 66 66 66 66 79 79 79 79 79 79 79 79 66 66 66 66 66 66 79 66 79 79 66 66 66 66 66 66 66 66 66 66 66 66 66 66 66 66 66 66 66 79 79 79 79 79 79 79 -9999 -9999 -9999 79 79 66 66 79 79 79 79 79 79 79 66 83 83 83 83 89 89 89 79 79 79 79 79 79 66 66 66 66 66 67 66 66 79 79 79 79 66 66 81 81 81 81 81 81 81 81 81 81 81 81 81 81 81 81 81 81 66 66 81 81 -9999 -9999 -9999 -9999 81 81 81 81 81 81 81 81 81 81 79 -9999 -9999 -9999 -9999 -9999 -9999 -9999 -9999 -9999 -9999 -9999 -9999 -9999 -9999 66 -9999 -9999 66 79 -9999 -9999 -9999 -9999 -9999 -9999 -9999 79 79 79 -9999 -9999 79 79 79 67 67 -9999 79 66 79 -9999 -9999 79 79 79 -9999 -9999 -9999 -9999 -9999 -9999 79 79 -9999 -9999 79 79 79 79 79 79 79 66 66 66 66 66 66 66 66 66 66 66 66 66 81 79 79 79 66 66 66 66 66 66 66 66 66 66 79 79 -9999 -9999 -9999 -9999 -9999 -9999 -9999 -9999 -9999 -9999 -9999 79 79 79 79 66 66 66 66 66 66 66 66 66 66 66 66 66 66 66 66 66 66 66 79 79 79 -9999 -9999 -9999 -9999 -9999 -9999 -9999 -9999 -9999 -9999 -9999 -9999 -9999 -9999 -9999 -9999 -9999 66 66 66
81 81 81 81 -9999 -9999 -9999 -9999 -9999 -9999 79 66 66 66 66 66 79 66 79 79 79 79 79 79 79 66 66 66 66 66 66 66 79 79 66 66 66 66 66 66 66 66 66 66 66 66 66 66 66 66 66 66 79 79 79 79 79 79 79 -9999 -9999 -9999 79 67 79 79 79 79 79 79 79 79 79 79 66 66 83 83 89 89 89 89 89 79 79 67 66 66 66 66 66 79 79 79 66 66 66 81 81 81 79 81 81 81 81 81 81 81 81 81 81 81 81 81 81 81 81 81 81 81 -9999 -9999 -9999 -9999 -9999 67 67 -9999 -9999 -9999 -9999 -9999 -9999 -9999 -9999 -9999 -9999 -9999 -9999 -9999 66 66 66 66 66 66 66 66 66 66 66 67 -9999 -9999 79 -9999 66 79 -9999 -9999 -9999 -9999 -9999 -9999 79 -9999 79 79 67 67 -9999 66 -9999 -9999 -9999 79 79 79 79 79 -9999 -9999 79 -9999 -9999 -9999 -9999 -9999 -9999 79 79 -9999 -9999 -9999 79 79 79 79 79 79 79 79 79 79 81 81 81 81 81 66 66 81 81 81 81 81 81 67 66 66 66 66 66 66 66 66 66 66 66 66 66 66 66 66 66 79 79 -9999 -9999 -9999 -9999 -9999 -9999 -9999 -9999 -9999 -9999 -9999 -9999 -9999 -9999 -9999 -9999 -9999 -9999 -9999 -9999 -9999 -9999 -9999 -9999 -9999 -9999 -9999 -9999 -9999 -9999 -9999 -9999 -9999 -9999 -9999 -9999 -9999 -9999 -9999 -9999 79 66 66 66 66 66 66 66 66 66
81 81 81 81 -9999 -9999 -9999 -9999 -9999 79 79 79 79 79 79 79 79 66 66 79 67 79 66 79 79 79 79 66 66 66 66 79 79 66 66 66 66 66 66 66 66 66 66 66 66 66 66 66 66 66 66 79 79 79 79 79 79 79 -9999 -9999 -9999 79 79 79 79 66 66 79 79 79 79 79 79 79 79 66 79 79 89 89 89 89 89 89 66 66 67 66 67 66 66 66 66 66 66 81 81 81 81 81 81 81 81 81 81 81 81 81 81 81 81 81 81 81 81 81 -9999 -9999 -9999 -9999 -9999 66 67 66 66 66 67 67 67 79 -9999 67 79 79 66 66 66 66 66 66 66 66 66 66 66 66 66 66 79 66 67 -9999 -9999 -9999 79 -9999 79 79 -9999 -9999 -9999 -9999 -9999 -9999 -9999 79 79 79 79 79 -9999 -9999 79 -9999 79 -9999 79 67 66 79 79 -9999 -9999 79 -9999 -9999 -9999 -9999 79 -9999 -9999 -9999 -9999 79 79 79 79 79 79 79 79 79 79 79 79 81 81 81 81 81 81 81 81 81 81 81 81 81 66 66 66 66 66 66 66 66 66 66 66 66 66 66 66 66 66 66 66 66 66 66 79 79 79 79 66 79 79 79 79 -9999 -9999 -9999 -9999 -9999 -9999 -9999 -9999 -9999 -9999 -9999 -9999 -9999 -9999 -9999 -9999 -9999 -9999 79 66 66 79 66 66 66 66 66 66 66 66 66 66 66 66 66 66 79 79
81 81 81 81 66 79 79 -9999 66 66 79 79 79 79 79 79 79 79 79 81 79 66 66 79 79 79 79 79 66 66 66 66 79 66 66 66 79 79 66 66 66 66 66 66 66 66 66 66 66 66 79 79 79 79 79 79 -9999 -9999 -9999 -9999 67 67 79 79 79 66 66 79 79 79 79 79 79 79 79 79 79 79 79 89 89 89 83 83 66 66 66 66 79 66 66 66 81 81 81 81 81 81 81 81 81 79 81 81 81 81 81 81 81 81 81 81 -9999 -9999 -9999 -9999 -9999 79 66 79 79 79 67 66 66 79 79 -9999 67 67 -9999 67 -9999 -9999 66 66 66 66 66 66 66 66 66 66 66 79 79 79 79 -9999 -9999 -9999 -9999 -9999 66 -9999 66 66 79 -9999 -9999 -9999 -9999 67 67 79 79 79 79 79 -9999 -9999 79 79 -9999 -9999 -9999 -9999 79 -9999 79 79 -9999 -9999 79 79 79 79 -9999 -9999 -9999 79 79 79 79 79 79 79 79 -9999 79 79 79 79 86 79 81 81 81 81 81 81 81 81 81 81 81 81 66 66 66 66 66 66 66 66 66 66 66 66 66 66 66 66 66 66 66 66 66 66 79 79 79 79 66 66 66 66 66 66 66 66 66 66 66 66 66 66 66 66 66 66 66 66 66 66 66 66 66 66 66 66 66 66 66 66 66 66 66 66 66 66 66 66 66 -9999 -9999
81 81 81 81 66 66 66 66 66 66 79 79 79 79 66 79 79 79 66 81 81 81 81 66 81 81 81 79 66 66 66 66 79 66 66 79 79 79 79 66 66 66 66 66 66 66 66 66 79 79 79 79 79 79 79 -9999 -9999 -9999 66 66 79 79 79 67 67 66 66 79 79 79 79 79 79 79 79 79 79 79 79 79 79 83 83 83 66 66 66 66 81 81 81 81 81 81 81 81 81 81 81 81 81 79 81 81 81 81 81 81 -9999 -9999 -9999 -9999 -9999 66 -9999 67 -9999 79 79 79 79 79 79 66 66 79 67 -9999 -9999 -9999 79 79 67 -9999 66 66 66 66 66 66 66 66 66 66 66 79 79 79 79 79 79 -9999 -9999 -9999 66 -9999 66 66 79 79 66 79 79 79 79 79 79 79 79 67 -9999 -9999 -9999 -9999 -9999 -9999 -9999 -9999 -9999 -9999 -9999 79 79 -9999 79 66 -9999 -9999 -9999 79 79 79 79 79 79 79 79 79 79 79 79 79 79 79 86 86 81 81 81 81 81 81 81 81 81 81 81 81 81 66 66 66 66 66 66 66 66 66 66 66 66 66 66 66 67 66 66 66 66 66 79 79 79 79 66 66 66 66 66 66 66 66 66 66 66 66 66 66 66 66 66 66 66 66 66 66 66 66 66 66 66 66 66 66 66 66 66 66 66 66 -9999 -9999 -9999 -9999 -9999 -9999 -9999
81 81 81 81 81 66 66 81 81 81 79 79 79 79 66 79 79 79 66 81 81 81 81 81 81 81 81 81 81 81 81 81 81 66 81 81 79 79 79 66 66 66 66 66 66 66 66 79 79 79 79 79 79 79 -9999 -9999 -9999 66 66 66 66 66 66 66 66 66 66 66 79 79 79 79 79 79 79 79 79 79 79 79 66 66 83 83 66 66 81 81 81 81 81 81 81 81 81 81 81 81 81 81 81 81 81 81 -9999 -9999 -9999 -9999 -9999 66 79 -9999 -9999 79 -9999 -9999 -9999 79 79 67 79 79 67 66 79 -9999 -9999 -9999 -9999 -9999 -9999 -9999 -9999 -9999 -9999 66 66 66 66 66 66 66 79 66 79 79 66 66 66 66 66 66 67 -9999 66 -9999 66 66 79 79 79 79 79 79 79 79 79 79 -9999 79 -9999 -9999 -9999 -9999 -9999 -9999 -9999 -9999 -9999 -9999 -9999 79 79 -9999 -9999 -9999 -9999 79 79 79 79 79 79 79 79 -9999 79 79 79 79 79 79 79 79 -9999 -9999 -9999 81 81 81 81 81 81 81 81 81 81 81 81 66 66 66 66 66 66 66 66 66 66 66 66 66 79 66 66 67 66 66 66 66 79 79 79 79 79 79 79 79 79 66 79 66 66 66 66 66 66 66 66 66 66 66 66 66 66 66 66 66 66 66 66 66 66 66 66 66 66 66 79 -9999 -9999 -9999 -9999 -9999 -9999 -9999 -9999
81 81 81 81 81 81 81 81 81 81 79 79 79 79 79 79 79 79 66 81 81 81 81 81 81 81 81 81 81 81 81 81 81 81 81 81 81 81 81 66 66 66 66 66 66 66 79 79 79 79 79 79 79 -9999 -9999 -9999 66 66 66 66 -9999 -9999 -9999 -9999 79 -9999 66 66 79 79 79 79 79 79 79 79 79 79 79 79 66 66 66 66 66 66 81 81 81 81 81 81 81 81 81 81 81 81 81 81 81 -9999 -9999 -9999 -9999 66 79 79 -9999 -9999 79 79 67 79 -9999 -9999 -9999 -9999 79 67 79 79 66 66 67 67 79 67 -9999 -9999 67 79 79 79 -9999 66 66 79 66 66 66 66 66 66 67 67 66 -9999 -9999 66 66 66 66 -9999 66 -9999 79 66 79 79 79 79 79 79 79 79 79 -9999 -9999 79 -9999 -9999 -9999 -9999 -9999 -9999 -9999 -9999 -9999 -9999 -9999 -9999 -9999 79 -9999 -9999 -9999 79 79 79 79 79 79 79 79 -9999 79 79 79 79 79 79 79 79 79 -9999 -9999 -9999 81 81 81 81 81 81 81 81 81 81 81 81 66 66 66 66 66 66 66 66 66 66 66 66 66 67 66 67 67 66 66 66 66 79 79 79 79 79 79 79 79 66 79 79 66 66 66 66 66 66 66 66 66 66 66 66 66 66 66 66 66 66 66 66 66 66 66 66 66 -9999 -9999 -9999 -9999 -9999 -9999 -9999 -9999 -9999 -9999
81 81 81 81 81 81 81 81 81 81 79 79 79 79 79 79 79 79 66 81 81 81 81 81 81 81 81 81 81 81 81 81 81 81 81 81 81 81 81 81 81 81 66 66 79 79 79 79 79 79 79 79 -9999 -9999 -9999 66 66 66 66 -9999 -9999 66 66 66 -9999 66 66 66 79 79 79 79 79 79 79 79 66 79 79 79 66 66 66 66 66 66 81 81 81 81 81 81 81 81 81 81 81 81 81 -9999 -9999 -9999 79 79 79 79 -9999 67 79 67 -9999 -9999 -9999 -9999 -9999 -9999 -9999 -9999 79 66 66 79 66 66 67 67 67 -9999 -9999 -9999 -9999 79 79 79 -9999 66 66 66 66 66 66 79 79 67 -9999 -9999 66 66 -9999 66 66 66 66 -9999 66 -9999 79 66 79 79 79 79 79 79 79 79 79 -9999 -9999 -9999 -9999 -9999 -9999 -9999 -9999 -9999 -9999 -9999 -9999 -9999 -9999 79 -9999 -9999 -9999 -9999 -9999 79 79 79 79 79 79 79 79 79 79 79 79 79 79 79 79 79 79 -9999 -9999 -9999 81 81 81 81 81 81 81 81 81 81 81 81 81 66 66 66 66 66 66 66 66 66 66 66 66 66 66 67 67 66 66 66 66 79 79 79 79 79 79 79 79 66 66 66 66 66 66 66 66 66 66 66 67 66 66 66 66 66 66 66 66 66 66 66 66 66 66 66 66 66 -9999 -9999 -9999 -9999 -9999 -9999 -9999 -9999 -9999
81 81 81 81 81 81 81 81 81 81 79 79 79 79 79 79 79 79 66 81 81 81 81 81 81 81 81 81 81 81 81 81 81 81 81 81 81 81 81 81 81 81 81 66 79 79 79 79 79 79 79 -9999 -9999 -9999 66 66 66 66 66 66 -9999 66 66 66 79 67 79 66 79 79 79 79 79 79 79 79 66 66 79 79 66 66 66 66 66 66 81 81 81 81 81 81 81 81 81 81 -9999 -9999 -9999 -9999 -9999 79 -9999 79 66 66 -9999 -9999 -9999 -9999 -9999 67 67 79 -9999 -9999 -9999 79 79 79 79 79 66 66 66 67 67 -9999 -9999 67 -9999 67 67 67 -9999 66 66 66 66 66 66 -9999 -9999 67 79 79 66 66 -9999 66 66 66 66 -9999 -9999 -9999 -9999 66 79 79 79 79 79 79 79 79 -9999 -9999 -9999 -9999 -9999 -9999 -9999 -9999 -9999 -9999 -9999 -9999 -9999 -9999 -9999 -9999 -9999 -9999 -9999 79 -9999 -9999 79 79 79 79 79 79 79 79 79 79 79 79 79 79 79 79 79 79 79 79 79 81 81 81 81 81 81 81 81 81 81 81 81 66 66 66 66 66 66 66 66 66 66 66 66 66 66 67 66 66 66 66 66 66 79 79 79 79 79 79 79 66 66 66 66 66 66 66 66 66 66 66 66 66 66 66 66 66 66 66 66 66 66 66 66 66 66 66 66 66 -9999 -9999 -9999 -9999 -9999 -9999 -9999 -9999 -9999
-9999 81 81 81 81 81 81 81 81 81 79 79 66 66 79 79 79 79 79 81 81 81 81 81 81 81 81 81 81 81 81 81 81 81 81 81 81 81 81 81 81 81 81 81 81 79 79 79 79 -9999 -9999 -9999 -9999 66 66 66 66 66 66 66 -9999 66 66 79 79 79 79 79 79 79 79 79 79 79 79 66 66 66 79 79 66 66 66 66 66 66 81 81 81 81 81 81 81 81 81 -9999 -9999 -9999 67 66 -9999 79 -9999 66 66 67 -9999 -9999 -9999 -9999 -9999 -9999 -9999 79 -9999 -9999 -9999 67 67 67 79 66 66 66 66 66 79 67 -9999 -9999 66 67 -9999 -9999 -9999 66 66 66 66 66 66 79 67 -9999 79 67 67 66 79 -9999 -9999 -9999 66 66 -9999 79 -9999 79 79 79 -9999 -9999 -9999 -9999 -9999 -9999 -9999 79 -9999 -9999 -9999 -9999 -9999 -9999 -9999 -9999 -9999 -9999 -9999 -9999 -9999 -9999 -9999 -9999 -9999 79 79 -9999 -9999 79 79 79 79 79 79 79 79 79 79 79 79 79 79 79 79 79 79 79 79 81 81 81 81 81 81 81 81 81 81 81 81 81 66 66 66 66 66 66 66 66 66 66 66 66 66 67 66 66 66 66 66 66 66 66 66 66 66 66 66 66 66 66 66 66 66 66 66 66 66 67 67 66 66 66 66 66 66 66 67 66 67 66 66 66 66 66 66 66 -9999 -9999 -9999 -9999 -9999 -9999 -9999 -9999 -9999
-9999 81 81 81 81 81 81 81 81 81 79 79 66 66 79 79 79 79 79 81 81 81 81 81 81 81 81 81 81 81 81 81 81 81 81 81 81 81 81 81 81 81 81 81 81 81 -9999 -9999 -9999 -9999 -9999 66 66 66 66 66 66 66 66 66 -9999 66 66 79 79 79 79 79 79 79 79 79 66 66 66 66 66 66 79 66 66 66 66 66 66 66 66 81 81 81 81 81 81 -9999 -9999 -9999 66 79 79 79 66 -9999 -9999 66 66 79 79 67 -9999 -9999 67 67 67 67 -9999 -9999 -9999 -9999 -9999 79 79 66 66 66 66 66 66 67 67 -9999 -9999 67 67 -9999 -9999 -9999 66 66 66 66 79 79 79 -9999 -9999 -9999 79 67 79 66 79 67 66 66 -9999 66 -9999 79 67 79 -9999 -9999 -9999 -9999 -9999 -9999 79 79 -9999 -9999 79 -9999 -9999 -9999 79 79 -9999 -9999 -9999 -9999 -9999 -9999 -9999 -9999 -9999 -9999 79 79 -9999 -9999 79 79 79 79 79 79 79 79 79 79 79 79 79 79 79 -9999 -9999 -9999 79 79 81 81 81 81 81 81 81 81 81 81 81 81 66 66 66 66 66 66 66 66 66 66 66 66 66 66 66 66 66 66 66 66 66 66 66 66 66 66 66 66 66 66 66 66 66 66 66 66 66 66 66 66 66 66 66 66 66 66 66 66 66 66 66 66 66 66 66 66 -9999 -9999 -9999 -9999 -9999 -9999 -9999 -9999 -9999
-9999 81 81 81 81 81 81 81 81 81 79 79 66 79 79 79 79 79 79 79 81 81 81 81 81 81 81 81 81 81 81 81 81 81 81 81 81 81 81 81 -9999 -9999 -9999 -9999 -9999 -9999 -9999 -9999 -9999 -9999 79 66 66 66 66 66 66 66 66 66 -9999 79 79 79 79 79 79 79 79 79 79 79 66 66 66 66 66 66 66 66 66 66 66 66 66 66 66 81 81 81 81 -9999 -9999 -9999 79 79 66 79 79 79 79 79 79 79 66 67 -9999 79 -9999 67 67 67 67 79 -9999 -9999 -9999 79 79 79 67 66 66 66 66 66 79 67 -9999 -9999 67 67 66 -9999 -9999 -9999 79 67 66 66 79 -9999 79 -9999 79 -9999 79 67 67 79 79 79 66 66 -9999 66 -9999 79 67 79 -9999 -9999 -9999 -9999 -9999 -9999 79 79 79 79 79 79 79 79 79 79 -9999 -9999 -9999 -9999 -9999 -9999 -9999 -9999 -9999 -9999 -9999 79 -9999 -9999 79 79 79 79 79 79 79 79 79 79 79 79 79 79 -9999 -9999 -9999 -9999 79 81 81 81 81 81 81 81 81 81 81 81 81 81 81 66 66 66 66 66 66 66 66 66 66 66 66 66 66 66 66 66 66 66 66 66 66 66 66 66 66 66 66 66 66 66 66 66 66 66 66 66 66 66 66 66 66 66 66 66 66 66 66 66 66 66 66 66 66 66 -9999 -9999 -9999 -9999 -9999 -9999 -9999 -9999 -9999
-9999 81 81 81 81 81 81 81 81 81 79 79 79 79 79 79 79 79 79 79 81 81 81 81 81 81 81 81 81 81 81 81 81 -9999 -9999 -9999 -9999 -9999 -9999 -9999 -9999 79 79 79 79 79 -9999 -9999 -9999 66 66 66 66 66 66 66 66 66 66 66 -9999 79 79 79 79 79 79 79 67 66 66 66 66 79 67 66 66 66 66 66 66 66 66 66 66 66 66 66 81 -9999 -9999 -9999 79 79 67 -9999 67 79 79 79 79 79 79 -9999 66 79 -9999 -9999 -9999 -9999 -9999 -9999 79 79 -9999 79 -9999 67 -9999 79 79 66 66 66 66 66 79 79 -9999 -9999 67 79 67 -9999 67 -9999 -9999 -9999 79 79 79 -9999 -9999 -9999 79 67 66 66 66 79 79 79 66 66 -9999 66 -9999 79 79 79 79 -9999 -9999 79 79 79 79 79 79 79 79 79 79 79 79 -9999 -9999 -9999 -9999 -9999 -9999 -9999 -9999 -9999 -9999 -9999 -9999 -9999 79 -9999 -9999 79 79 79 79 79 79 79 79 79 79 79 79 -9999 -9999 -9999 -9999 -9999 -9999 79 81 81 81 81 81 81 81 81 81 81 81 81 81 66 66 66 66 66 66 66 66 66 66 66 66 66 66 66 66 66 66 66 66 66 66 66 66 66 66 66 66 66 66 66 66 66 66 66 67 67 66 66 66 66 66 66 66 66 66 66 67 66 66 66 66 66 66 66 -9999 -9999 -9999 -9999 -9999 -9999 -9999 -9999 -9999
-9999 81 81 81 81 81 81 81 81 81 79 79 79 66 79 79 66 79 79 79 81 81 81 81 81 81 81 81 -9999 -9999 -9999 -9999 -9999 -9999 66 66 66 66 66 79 79 79 79 79 79 -9999 -9999 -9999 66 66 66 66 66 66 66 66 66 66 66 -9999 -9999 79 79 79 79 79 79 67 66 66 66 66 66 66 66 66 66 66 66 66 66 66 66 66 66 66 66 -9999 -9999 -9999 79 67 67 -9999 -9999 -9999 66 66 79 67 67 67 66 66 66 79 67 67 67 -9999 79 79 79 79 -9999 -9999 -9999 -9999 -9999 67 79 66 66 66 66 66 66 66 66 -9999 -9999 66 66 66 67 -9999 -9999 -9999 67 67 67 67 -9999 -9999 -9999 -9999 66 66 66 67 67 67 66 66 -9999 66 -9999 79 79 79 79 79 79 79 79 79 79 79 79 79 79 79 79 -9999 -9999 -9999 79 -9999 -9999 -9999 -9999 -9999 -9999 -9999 -9999 -9999 -9999 -9999 -9999 79 -9999 -9999 79 79 79 79 79 79 79 79 79 79 -9999 -9999 -9999 -9999 -9999 -9999 -9999 79 81 81 81 81 81 81 81 81 81 81 81 81 81 81 66 66 66 66 66 66 66 66 66 66 66 66 66 66 79 66 66 66 66 66 66 66 66 66 66 66 66 66 66 66 66 66 66 79 66 66 66 67 67 67 67 67 66 66 66 66 67 -9999 66 66 66 66 66 66 66 66 -9999 -9999 -9999 -9999 -9999 -9999 -9999
-9999 81 81 81 81 81 81 81 81 81 79 79 79 79 79 79 79 66 79 79 79 81 -9999 -9999 -9999 -9999 -9999 -9999 -9999 66 66 66 79 66 66 66 66 66 79 79 79 79 79 79 -9999 -9999 -9999 66 66 66 66 66 66 66 79 66 66 66 -9999 -9999 79 79 79 79 79 79 79 66 66 66 66 66 66 66 66 66 66 66 66 66 66 66 66 66 66 -9999 -9999 -9999 66 67 -9999 -9999 67 67 79 -9999 -9999 -9999 79 79 -9999 67 79 67 -9999 79 67 67 -9999 -9999 -9999 -9999 -9999 -9999 -9999 79 67 -9999 67 -9999 67 79 66 66 66 66 66 66 66 66 -9999 -9999 -9999 -9999 -9999 -9999 -9999 79 79 67 -9999 67 -9999 79 -9999 79 79 -9999 79 -9999 67 67 -9999 67 -9999 79 -9999 79 79 79 79 79 79 79 79 79 79 79 79 79 79 79 -9999 -9999 79 79 79 -9999 -9999 -9999 -9999 -9999 -9999 -9999 -9999 -9999 -9999 -9999 -9999 -9999 -9999 -9999 -9999 79 79 79 79 79 79 79 79 -9999 -9999 -9999 -9999 -9999 -9999 -9999 -9999 -9999 79 81 81 81 81 81 81 81 81 81 81 81 81 81 66 66 66 66 66 66 66 66 66 66 66 66 66 66 66 66 66 66 66 66 66 66 66 66 66 66 66 66 66 66 66 66 66 79 66 66 66 66 66 66 66 66 66 66 66 66 67 -9999 -9999 66 66 66 66 66 66 66 -9999 -9999 -9999 -9999 -9999 -9999 -9999
-9999 81 81 81 81 81 81 81 81 81 81 79 79 79 79 79 79 -9999 -9999 -9999 -9999 -9999 -9999 66 66 66 66 66 79 66 66 79 79 66 66 66 79 79 79 79 79 79 -9999 -9999 -9999 66 66 66 66 66 66 66 66 66 79 66 66 66 -9999 79 79 79 79 79 79 79 79 66 66 66 66 66 66 66 66 79 79 79 66 66 79 79 79 66 -9999 -9999 79 67 -9999 -9999 67 67 67 79 79 -9999 -9999 -9999 -9999 66 -9999 79 79 67 -9999 67 79 66 -9999 -9999 -9999 -9999 67 66 79 -9999 -9999 -9999 -9999 79 -9999 79 66 66 66 66 66 66 66 79 67 67 67 67 67 -9999 -9999 66 67 79 -9999 -9999 -9999 -9999 67 79 79 67 67 -9999 67 79 -9999 66 -9999 -9999 -9999 66 66 66 66 79 79 79 79 79 79 79 79 79 -9999 -9999 -9999 -9999 79 79 79 79 -9999 -9999 -9999 -9999 -9999 -9999 79 -9999 -9999 -9999 -9999 -9999 79 79 -9999 79 79 79 79 79 79 79 79 -9999 -9999 -9999 -9999 -9999 -9999 -9999 -9999 79 79 81 81 81 81 81 81 81 81 81 81 81 81 81 81 66 66 66 66 66 66 66 66 66 66 66 66 66 66 66 66 66 66 66 66 66 66 66 66 66 66 66 66 66 66 66 66 66 66 66 66 66 66 66 66 66 66 66 66 66 66 66 -9999 -9999 67 66 66 66 66 66 79 -9999 -9999 -9999 -9999 -9999 -9999
-9999 -9999 81 81 81 81 81 81 81 81 81 79 -9999 -9999 -9999 -9999 -9999 -9999 79 79 79 66 66 66 66 79 79 79 79 79 79 66 79 79 79 79 79 79 79 79 79 -9999 -9999 -9999 66 66 66 66 66 66 66 79 66 66 66 66 66 79 -9999 79 79 79 79 79 79 79 66 66 66 66 66 79 79 79 79 79 79 79 66 66 79 79 -9999 -9999 -9999 66 -9999 67 79 -9999 -9999 79 79 79 79 66 -9999 67 -9999 67 -9999 79 79 -9999 79 -9999 -9999 -9999 -9999 67 -9999 -9999 -9999 -9999 66 67 67 -9999 -9999 -9999 79 67 66 66 66 66 66 67 66 66 -9999 -9999 79 -9999 -9999 -9999 -9999 -9999 67 67 -9999 -9999 -9999 -9999 67 -9999 -9999 -9999 67 -9999 66 79 79 79 79 -9999 -9999 66 66 66 66 66 66 66 66 79 79 79 79 -9999 -9999 -9999 67 79 79 79 79 79 79 -9999 -9999 -9999 79 79 79 66 -9999 -9999 -9999 -9999 79 79 -9999 -9999 79 79 79 79 79 79 -9999 -9999 -9999 -9999 -9999 -9999 -9999 -9999 -9999 -9999 79 79 81 81 81 81 81 81 81 81 81 81 81 81 81 66 66 66 66 66 66 66 66 66 66 66 66 66 66 66 66 66 66 66 66 66 66 66 66 66 66 66 66 66 66 66 66 66 66 66 66 66 66 66 66 66 66 66 66 66 66 66 66 -9999 -9999 66 66 66 66 66 -9999 -9999 -9999 -9999 -9999 -9999 -9999
79 -9999 81 81 81 81 81 81 -9999 -9999 -9999 -9999 -9999 79 66 66 79 79 79 81 81 66 79 66 66 79 79 66 79 79 79 66 66 66 66 79 79 79 79 79 -9999 -9999 -9999 79 66 66 66 66 66 66 66 79 79 66 66 79 79 -9999 -9999 79 79 79 79 79 79 66 66 66 66 66 79 79 79 79 79 79 79 79 66 66 79 -9999 -9999 67 66 66 79 67 79 -9999 -9999 -9999 79 79 79 66 79 -9999 -9999 -9999 -9999 79 79 79 79 -9999 -9999 67 79 -9999 -9999 -9999 -9999 -9999 79 79 79 -9999 -9999 -9999 -9999 -9999 -9999 66 66 66 66 66 66 66 67 67 67 67 67 -9999 67 -9999 67 79 -9999 79 -9999 66 -9999 67 -9999 -9999 67 -9999 79 67 -9999 67 -9999 -9999 -9999 66 66 66 66 66 79 66 66 79 79 66 -9999 -9999 -9999 -9999 -9999 79 79 79 79 79 79 -9999 79 79 79 79 79 79 -9999 -9999 -9999 -9999 -9999 79 79 -9999 -9999 79 79 79 79 79 -9999 -9999 -9999 -9999 -9999 -9999 -9999 -9999 -9999 -9999 -9999 67 81 81 81 81 81 81 81 81 81 81 79 66 66 66 66 66 66 66 66 66 66 66 66 66 66 66 66 66 66 66 66 66 66 66 66 66 66 66 66 66 66 66 66 66 66 66 66 66 66 66 66 66 66 66 66 66 66 66 66 66 66 66 -9999 -9999 67 66 67 -9999 -9999 -9999 79 -9999 -9999 -9999 -9999
79 -9999 -9999 -9999 -9999 -9999 -9999 -9999 -9999 81 66 66 79 66 66 81 81 81 81 81 81 66 66 66 66 66 66 66 66 66 79 79 66 79 79 79 79 79 79 -9999 -9999 -9999 79 79 79 66 66 66 66 66 66 66 79 79 79 79 79 -9999 79 79 79 79 79 66 66 66 66 66 66 66 79 79 79 66 66 79 79 79 79 -9999 -9999 -9999 66 -9999 66 67 67 67 -9999 -9999 -9999 -9999 -9999 79 -9999 -9999 -9999 67 -9999 -9999 67 79 -9999 -9999 -9999 -9999 -9999 79 -9999 67 67 -9999 -9999 -9999 -9999 79 79 79 67 67 -9999 66 66 66 66 66 66 66 66 66 67 67 67 67 -9999 -9999 67 -9999 66 79 67 67 -9999 67 67 -9999 -9999 -9999 -9999 -9999 -9999 67 -9999 67 -9999 79 -9999 66 66 66 79 79 79 79 79 79 66 -9999 -9999 -9999 -9999 -9999 -9999 -9999 66 79 79 79 79 79 79 79 79 79 79 79 79 79 79 -9999 -9999 79 79 79 -9999 -9999 79 79 79 79 79 -9999 -9999 -9999 -9999 -9999 -9999 -9999 -9999 -9999 -9999 -9999 79 81 81 81 81 81 81 79 66 66 66 66 66 66 66 66 66 66 66 66 66 66 66 66 66 66 66 66 66 66 66 66 66 66 66 66 66 66 66 66 66 66 66 66 66 66 66 66 66 66 66 66 67 66 66 66 66 66 66 66 66 66 66 -9999 -9999 -9999 -9999 -9999 -9999 -9999 79 -9999 -9999 -9999 -9999
-9999 79 -9999 -9999 81 81 81 81 81 81 81 81 81 81 81 81 81 81 81 81 81 81 66 66 66 66 66 66 66 66 66 66 79 79 79 79 79 79 -9999 -9999 -9999 66 67 79 79 79 79 79 66 66 66 66 79 79 79 79 79 -9999 79 79 79 79 66 66 66 66 66 79 66 66 79 66 66 66 66 66 79 79 -9999 -9999 66 79 79 67 -9999 67 -9999 -9999 -9999 -9999 67 -9999 -9999 79 79 67 -9999 79 -9999 -9999 -9999 79 -9999 -9999 67 -9999 -9999 79 79 79 -9999 -9999 -9999 67 67 67 67 67 -9999 -9999 -9999 66 -9999 79 66 66 66 66 66 66 67 79 67 67 -9999 -9999 67 -9999 67 79 -9999 -9999 -9999 -9999 79 79 -9999 -9999 -9999 -9999 67 67 -9999 -9999 -9999 79 -9999 66 66 66 66 79 79 79 79 79 -9999 -9999 -9999 -9999 -9999 -9999 -9999 -9999 -9999 -9999 67 79 79 79 79 79 79 -9999 79 79 79 79 79 79 -9999 -9999 -9999 79 79 -9999 -9999 79 79 79 79 79 -9999 -9999 -9999 -9999 -9999 -9999 -9999 -9999 -9999 -9999 79 81 81 81 81 66 66 66 66 66 66 66 81 81 81 66 66 66 66 66 66 66 66 66 66 66 66 66 66 66 66 66 66 66 66 66 66 66 66 66 66 66 66 66 66 66 79 66 66 66 66 67 66 66 66 66 66 66 66 66 66 66 66 79 -9999 -9999 -9999 -9999 -9999 -9999 -9999 -9999 -9999 -9999 -9999
-9999 79 81 81 81 81 81 81 81 81 81 81 81 81 81 81 81 81 81 81 81 81 67 79 66 66 66 66 66 66 79 79 79 79 79 79 79 -9999 -9999 -9999 79 79 67 67 79 79 79 79 79 66 66 66 79 79 79 79 -9999 -9999 79 79 66 66 66 66 66 79 79 79 79 66 66 66 66 66 66 66 -9999 -9999 -9999 67 66 -9999 -9999 67 67 79 -9999 79 -9999 -9999 67 67 79 79 66 67 -9999 67 67 79 -9999 -9999 -9999 -9999 -9999 67 79 79 79 79 79 -9999 -9999 -9999 67 -9999 79 79 79 67 -9999 -9999 67 -9999 79 66 66 66 66 66 66 66 67 67 -9999 -9999 -9999 67 67 79 -9999 -9999 -9999 -9999 67 79 79 79 -9999 79 79 67 -9999 -9999 79 79 -9999 79 66 66 66 79 79 79 79 66 -9999 -9999 -9999 -9999 -9999 -9999 -9999 -9999 -9999 -9999 -9999 79 66 79 -9999 -9999 -9999 -9999 -9999 79 79 79 79 79 -9999 -9999 -9999 -9999 79 79 -9999 -9999 79 79 79 79 79 -9999 -9999 -9999 79 -9999 -9999 -9999 -9999 -9999 -9999 79 79 79 67 67 66 66 66 81 81 81 81 81 81 81 66 66 66 66 66 66 66 66 66 66 66 66 66 66 66 66 66 66 66 66 66 66 66 66 66 66 66 66 66 66 66 66 66 66 66 66 66 66 66 66 66 66 66 66 66 66 -9999 -9999 -9999 -9999 -9999 -9999 -9999 -9999 -9999 -9999 -9999 -9999 -9999
-9999 66 66 81 81 81 81 81 81 81 72 72 72 72 72 72 72 81 81 81 81 81 79 79 66 66 66 66 66 79 79 79 79 79 79 -9999 -9999 -9999 79 79 79 79 79 67 67 79 79 79 79 79 79 79 79 79 79 79 79 -9999 66 66 66 66 66 79 79 79 79 79 79 66 66 66 66 66 66 -9999 -9999 79 79 67 67 67 67 67 66 79 79 79 -9999 -9999 -9999 67 79 67 67 67 -9999 79 79 -9999 -9999 -9999 -9999 79 -9999 67 67 66 79 79 67 67 -9999 -9999 -9999 -9999 79 67 67 67 -9999 -9999 -9999 67 67 79 66 66 66 66 66 66 79 -9999 -9999 -9999 -9999 -9999 -9999 -9999 -9999 -9999 -9999 67 67 79 79 -9999 -9999 -9999 -9999 -9999 -9999 -9999 -9999 -9999 -9999 -9999 66 66 66 79 79 79 79 66 -9999 -9999 -9999 -9999 -9999 -9999 -9999 -9999 -9999 -9999 -9999 -9999 79 -9999 -9999 -9999 -9999 -9999 -9999 -9999 79 79 79 79 -9999 -9999 -9999 -9999 -9999 -9999 -9999 -9999 -9999 79 79 79 79 -9999 -9999 79 79 -9999 79 -9999 -9999 -9999 -9999 79 79 67 67 81 81 81 81 81 81 81 81 81 81 81 81 66 83 83 66 66 66 66 66 66 66 66 66 66 66 66 66 66 66 66 66 66 66 66 66 66 66 66 66 66 66 66 66 66 66 66 66 66 66 66 66 66 66 66 66 -9999 -9999 79 79 -9999 -9999 79 -9999 -9999 -9999 -9999 -9999 66 -9999
-9999 79 79 81 81 81 81 72 72 72 72 72 72 72 72 72 72 72 72 72 81 81 66 79 66 66 66 66 79 79 81 81 81 81 -9999 -9999 -9999 79 66 66 66 66 79 79 79 79 79 79 79 79 79 79 79 79 79 79 79 -9999 -9999 66 66 66 79 79 79 79 79 79 79 66 66 66 66 -9999 -9999 -9999 67 79 66 -9999 79 66 79 79 79 67 -9999 -9999 -9999 -9999 -9999 67 67 -9999 67 79 79 -9999 -9999 -9999 -9999 -9999 -9999 67 -9999 79 79 66 79 79 66 66 -9999 -9999 -9999 67 67 79 79 79 -9999 -9999 -9999 -9999 -9999 79 66 66 66 66 66 79 79 -9999 -9999 -9999 79 79 -9999 -9999 -9999 -9999 -9999 -9999 -9999 -9999 -9999 -9999 79 -9999 79 67 67 -9999 79 79 79 -9999 66 66 66 79 -9999 -9999 66 66 -9999 -9999 -9999 -9999 -9999 -9999 -9999 -9999 -9999 -9999 -9999 79 -9999 -9999 -9999 -9999 -9999 -9999 -9999 -9999 -9999 79 79 -9999 -9999 -9999 -9999 -9999 -9999 -9999 79 -9999 -9999 79 79 79 -9999 -9999 79 67 79 -9999 79 -9999 -9999 -9999 -9999 -9999 79 81 81 81 81 81 81 81 81 81 81 81 81 81 81 66 83 83 83 83 66 66 66 66 66 66 66 66 66 66 66 66 66 66 66 66 66 66 66 66 66 66 66 66 66 66 66 66 66 66 66 66 66 66 66 66 66 66 -9999 -9999 79 79 79 79 -9999 -9999 -9999 -9999 -9999 -9999 -9999 -9999 -9999
-9999 79 66 81 81 72 72 72 72 72 72 72 72 72 72 72 72 72 72 72 72 72 66 66 66 66 66 66 81 81 81 81 81 -9999 -9999 -9999 79 81 66 81 81 66 66 66 66 66 79 79 79 79 79 79 79 79 79 79 66 66 -9999 -9999 66 79 79 79 79 79 79 79 66 66 66 -9999 -9999 -9999 79 79 -9999 -9999 67 -9999 -9999 79 67 -9999 66 67 -9999 -9999 -9999 -9999 67 79 79 79 79 66 -9999 -9999 79 79 67 -9999 -9999 -9999 -9999 66 66 66 79 67 66 79 67 67 -9999 -9999 -9999 79 66 79 67 -9999 67 79 67 79 66 66 66 66 66 79 67 67 67 -9999 79 -9999 79 -9999 -9999 -9999 67 -9999 -9999 -9999 -9999 -9999 67 -9999 -9999 79 -9999 -9999 79 79 79 -9999 79 79 79 -9999 -9999 66 66 66 -9999 -9999 -9999 -9999 -9999 -9999 -9999 -9999 -9999 -9999 -9999 -9999 -9999 -9999 -9999 -9999 -9999 -9999 -9999 -9999 -9999 -9999 -9999 -9999 -9999 -9999 -9999 -9999 -9999 -9999 -9999 79 -9999 -9999 79 79 -9999 79 -9999 -9999 -9999 -9999 -9999 -9999 -9999 -9999 -9999 -9999 79 81 81 81 81 81 81 81 81 81 81 81 81 81 81 81 83 83 83 83 83 66 66 66 66 66 66 66 66 66 66 66 66 66 66 66 66 66 66 66 66 66 66 66 66 66 66 66 66 -9999 -9999 66 66 66 66 66 -9999 -9999 -9999 79 79 79 79 79 79 -9999 79 -9999 -9999 -9999 -9999 -9999 -9999
-9999 79 66 72 72 72 72 72 72 72 72 72 72 72 72 72 72 72 72 45 45 45 45 66 66 66 81 81 81 81 81 81 -9999 -9999 -9999 81 81 81 81 81 81 81 66 66 66 66 66 79 79 79 79 79 67 79 79 66 66 66 66 -9999 -9999 66 79 79 79 79 79 79 66 66 -9999 -9999 66 66 -9999 67 -9999 -9999 -9999 -9999 -9999 -9999 -9999 66 79 79 -9999 -9999 -9999 79 -9999 67 67 79 -9999 -9999 -9999 79 79 79 67 79 66 -9999 -9999 67 67 66 79 79 79 67 79 -9999 -9999 -9999 66 -9999 79 79 -9999 79 -9999 66 79 66 66 66 66 66 79 79 79 -9999 67 -9999 67 67 67 67 -9999 67 67 67 -9999 67 67 67 67 67 67 -9999 66 67 66 79 79 -9999 66 79 79 -9999 79 79 79 66 -9999 -9999 -9999 -9999 -9999 -9999 -9999 -9999 -9999 -9999 -9999 -9999 -9999 -9999 -9999 -9999 -9999 -9999 -9999 -9999 -9999 -9999 -9999 -9999 -9999 -9999 -9999 -9999 -9999 -9999 -9999 -9999 79 -9999 -9999 -9999 -9999 79 -9999 -9999 -9999 -9999 -9999 -9999 -9999 -9999 -9999 -9999 79 81 81 81 81 81 81 81 79 67 79 81 81 81 81 81 66 83 83 83 83 66 66 66 66 66 66 66 66 66 66 66 66 66 66 66 66 66 66 66 66 66 66 66 66 66 66 79 79 79 79 66 66 66 66 -9999 -9999 79 79 79 79 79 79 -9999 -9999 -9999 -9999 79 -9999 -9999 -9999 -9999 79
-9999 -9999 45 45 72 72 72 72 72 72 72 72 72 72 72 72 72 45 45 45 45 72 72 72 81 81 81 81 81 81 -9999 -9999 -9999 -9999 81 81 81 81 81 81 81 81 81 66 66 66 79 79 79 79 79 79 66 66 66 79 67 79 79 79 -9999 -9999 66 79 79 79 79 79 79 -9999 -9999 79 79 79 -9999 -9999 -9999 -9999 67 -9999 66 -9999 -9999 67 67 67 79 -9999 -9999 -9999 67 -9999 -9999 -9999 -9999 -9999 -9999 79 67 -9999 67 79 -9999 -9999 -9999 67 -9999 66 66 79 79 79 66 -9999 -9999 -9999 -9999 -9999 79 79 66 67 66 66 79 66 66 66 66 66 79 79 79 -9999 -9999 -9999 -9999 -9999 79 79 79 79 79 67 79 67 67 -9999 67 67 -9999 -9999 66 66 67 79 79 -9999 66 79 79 66 79 67 79 66 -9999 -9999 -9999 -9999 -9999 -9999 -9999 -9999 -9999 -9999 -9999 -9999 -9999 -9999 -9999 -9999 -9999 -9999 -9999 -9999 -9999 -9999 -9999 -9999 -9999 -9999 -9999 -9999 -9999 -9999 -9999 -9999 -9999 -9999 -9999 -9999 79 79 79 -9999 -9999 -9999 -9999 -9999 -9999 -9999 -9999 -9999 79 81 81 81 81 81 81 79 79 67 79 81 81 81 81 81 81 83 83 83 83 83 83 66 66 66 66 66 66 66 66 66 66 66 66 66 66 66 66 66 66 66 66 66 66 -9999 67 79 79 79 79 79 79 66 -9999 -9999 79 79 79 -9999 79 79 79 -9999 -9999 -9999 -9999 -9999 -9999 -9999 -9999 67 79
79 -9999 45 45 72 72 72 72 72 72 72 72 72 72 72 45 45 45 72 72 72 72 72 81 81 81 81 81 81 -9999 -9999 -9999 -9999 81 81 81 81 81 81 81 81 81 81 66 79 79 79 79 79 79 79 -9999 -9999 79 79 79 67 79 79 79 79 -9999 -9999 79 79 79 79 79 -9999 -9999 79 79 -9999 67 -9999 -9999 67 -9999 -9999 -9999 67 -9999 67 67 79 79 79 79 -9999 -9999 -9999 -9999 79 79 79 79 -9999 79 79 67 -9999 -9999 79 -9999 -9999 -9999 67 -9999 66 66 67 -9999 79 79 -9999 -9999 -9999 67 67 79 79 79 66 66 79 66 66 66 66 66 79 79 67 -9999 -9999 -9999 -9999 -9999 79 79 79 79 -9999 67 -9999 67 -9999 -9999 67 -9999 -9999 -9999 79 66 79 -9999 79 -9999 66 79 66 66 66 67 67 66 -9999 -9999 -9999 -9999 -9999 -9999 -9999 -9999 -9999 -9999 -9999 -9999 -9999 -9999 -9999 -9999 -9999 -9999 -9999 -9999 -9999 -9999 -9999 -9999 -9999 -9999 -9999 -9999 -9999 -9999 -9999 -9999 -9999 -9999 -9999 -9999 -9999 79 79 66 -9999 -9999 67 -9999 -9999 -9999 -9999 -9999 79 81 81 81 81 81 81 79 79 79 67 81 81 81 81 81 81 66 83 83 83 83 83 83 66 66 66 66 66 66 66 66 66 66 66 66 66 66 66 66 66 66 66 79 79 -9999 79 79 79 79 79 79 79 -9999 -9999 79 79 -9999 -9999 -9999 79 79 79 66 79 79 79 -9999 -9999 79 79 79 66
79 -9999 45 45 72 72 72 72 72 72 72 72 72 72 45 45 72 72 72 72 72 72 72 81 81 81 81 81 -9999 -9999 -9999 79 66 81 81 81 81 81 81 81 81 81 81 79 79 79 79 79 79 79 79 -9999 -9999 79 79 79 79 79 79 79 79 66 -9999 66 79 79 79 -9999 -9999 67 79 -9999 -9999 -9999 -9999 79 -9999 67 67 79 67 -9999 67 -9999 79 -9999 -9999 -9999 -9999 -9999 -9999 -9999 66 67 -9999 79 -9999 -9999 79 66 -9999 79 67 79 -9999 -9999 -9999 -9999 66 66 67 -9999 79 -9999 -9999 -9999 -9999 -9999 -9999 79 79 79 79 79 66 66 66 66 66 66 79 79 79 -9999 79 -9999 -9999 79 79 79 79 79 79 -9999 -9999 -9999 -9999 -9999 -9999 -9999 79 -9999 -9999 -9999 -9999 79 79 -9999 81 81 79 79 79 79 79 79 -9999 -9999 -9999 -9999 -9999 -9999 -9999 -9999 -9999 -9999 -9999 -9999 -9999 -9999 -9999 -9999 -9999 -9999 -9999 -9999 -9999 -9999 -9999 -9999 -9999 -9999 -9999 -9999 -9999 -9999 -9999 -9999 -9999 79 79 -9999 -9999 79 79 79 -9999 -9999 79 -9999 -9999 -9999 -9999 -9999 79 81 81 81 81 81 81 81 79 79 67 81 81 81 81 81 81 81 66 83 83 83 83 83 83 66 66 66 66 66 66 66 66 66 66 66 66 66 67 66 66 -9999 79 -9999 -9999 -9999 -9999 79 67 79 79 79 -9999 -9999 79 79 -9999 -9999 79 79 79 66 66 66 66 79 -9999 -9999 79 79 79 79 79
79 -9999 79 66 72 72 72 72 72 72 72 72 45 45 45 72 72 72 72 72 72 72 72 81 81 81 81 -9999 -9999 -9999 79 81 81 81 81 81 81 81 81 81 81 81 81 81 81 79 79 79 79 79 66 66 79 79 79 79 79 79 79 79 79 66 -9999 -9999 66 79 -9999 -9999 66 66 -9999 -9999 -9999 -9999 79 79 67 67 -9999 -9999 -9999 -9999 -9999 -9999 -9999 -9999 79 79 -9999 -9999 -9999 -9999 67 -9999 -9999 79 79 -9999 79 67 79 79 79 79 79 -9999 -9999 67 -9999 66 66 67 67 67 67 -9999 -9999 67 -9999 79 66 66 79 79 79 79 79 66 66 79 66 66 79 79 79 -9999 -9999 67 79 79 79 -9999 79 -9999 -9999 -9999 67 -9999 -9999 67 -9999 -9999 -9999 -9999 67 67 -9999 -9999 81 81 -9999 -9999 -9999 -9999 79 79 -9999 -9999 -9999 -9999 -9999 -9999 -9999 -9999 -9999 -9999 -9999 -9999 -9999 66 66 -9999 -9999 -9999 -9999 -9999 -9999 -9999 -9999 -9999 -9999 -9999 -9999 -9999 -9999 -9999 -9999 79 79 79 79 66 -9999 -9999 79 79 79 79 79 -9999 -9999 -9999 -9999 -9999 79 81 81 81 81 81 81 81 81 79 79 79 81 81 81 81 81 81 81 66 66 83 83 83 83 83 66 66 66 66 66 66 66 66 66 66 66 66 66 66 66 79 -9999 -9999 -9999 -9999 -9999 -9999 -9999 -9999 -9999 -9999 -9999 -9999 79 -9999 -9999 79 79 79 79 66 66 79 -9999 -9999 -9999 66 66 -9999 79 79 79
79 -9999 79 79 81 81 72 72 72 72 72 45 45 72 72 72 72 72 72 72 72 81 81 81 81 81 -9999 -9999 -9999 81 81 81 81 81 81 81 81 81 81 81 81 81 81 81 79 -9999 -9999 -9999 -9999 79 66 66 79 79 79 79 79 79 -9999 79 66 79 66 -9999 -9999 -9999 -9999 67 66 -9999 -9999 -9999 67 79 79 67 79 -9999 -9999 -9999 -9999 -9999 -9999 -9999 -9999 79 79 79 -9999 -9999 -9999 67 67 67 -9999 -9999 79 -9999 -9999 79 66 66 67 67 79 79 -9999 -9999 -9999 67 66 79 67 -9999 -9999 79 79 -9999 66 66 66 79 79 79 79 79 66 79 79 79 66 66 -9999 79 79 -9999 79 67 79 79 67 -9999 -9999 -9999 79 67 79 -9999 -9999 79 79 67 67 67 67 79 -9999 -9999 81 81 -9999 -9999 -9999 -9999 -9999 79 -9999 -9999 -9999 79 -9999 -9999 -9999 -9999 -9999 -9999 -9999 -9999 -9999 66 -9999 -9999 -9999 -9999 -9999 -9999 -9999 -9999 -9999 -9999 -9999 -9999 -9999 66 -9999 -9999 66 66 79 66 66 67 79 -9999 -9999 79 79 79 79 -9999 -9999 -9999 -9999 -9999 79 81 81 81 81 81 81 81 81 79 79 79 81 81 81 81 81 81 81 66 66 66 66 83 83 83 83 66 66 66 66 66 66 66 66 66 66 66 79 -9999 -9999 -9999 -9999 -9999 -9999 -9999 -9999 -9999 79 79 -9999 -9999 -9999 -9999 -9999 -9999 79 79 79 79 79 66 66 -9999 -9999 79 79 66 66 79 -9999 66 79
66 -9999 -9999 66 81 81 81 81 72 45 45 45 72 72 72 72 72 72 72 81 81 81 81 81 81 -9999 -9999 -9999 81 81 81 81 81 81 81 81 81 81 81 81 81 81 81 81 -9999 -9999 -9999 -9999 79 66 66 66 66 66 79 79 79 67 -9999 79 79 79 79 66 -9999 -9999 67 -9999 67 -9999 -9999 -9999 -9999 67 67 -9999 67 67 -9999 -9999 -9999 79 -9999 -9999 -9999 67 79 79 67 -9999 -9999 67 -9999 -9999 67 79 79 79 -9999 -9999 79 79 -9999 -9999 79 -9999 -9999 -9999 67 67 67 79 79 79 79 67 79 66 66 66 79 79 79 79 79 79 79 79 79 79 79 79 -9999 67 -9999 -9999 67 67 -9999 66 79 -9999 -9999 -9999 -9999 79 67 -9999 -9999 79 79 67 79 79 66 66 -9999 -9999 81 81 79 -9999 -9999 -9999 -9999 -9999 -9999 -9999 -9999 66 -9999 -9999 -9999 -9999 -9999 -9999 -9999 -9999 -9999 66 -9999 -9999 -9999 -9999 -9999 -9999 -9999 -9999 -9999 -9999 -9999 -9999 -9999 66 -9999 -9999 -9999 66 66 66 66 79 79 79 -9999 -9999 66 79 79 79 -9999 -9999 -9999 -9999 79 81 81 81 81 81 81 81 81 81 79 79 79 81 81 81 81 81 81 81 66 66 66 66 83 83 -9999 83 83 66 66 66 66 66 66 66 66 79 79 -9999 -9999 -9999 -9999 -9999 -9999 -9999 79 79 -9999 -9999 -9999 -9999 -9999 -9999 -9999 79 79 79 79 79 66 79 -9999 -9999 79 79 66 66 66 66 66 66 66
81 79 -9999 66 67 67 66 66 66 66 72 72 72 72 72 72 72 81 81 81 81 81 81 -9999 -9999 -9999 -9999 81 81 81 81 81 81 81 81 81 81 81 81 81 81 81 81 81 -9999 -9999 79 -9999 79 79 66 66 79 79 79 79 -9999 -9999 -9999 -9999 79 79 79 -9999 -9999 79 66 -9999 67 -9999 -9999 -9999 67 67 67 -9999 -9999 -9999 -9999 67 -9999 -9999 -9999 -9999 -9999 67 67 79 79 -9999 -9999 -9999 67 79 67 79 67 67 79 -9999 79 79 79 67 79 79 -9999 -9999 -9999 -9999 79 79 66 66 79 66 66 66 79 79 79 79 79 79 79 79 79 79 66 66 79 79 -9999 66 79 -9999 -9999 -9999 67 67 -9999 -9999 -9999 -9999 67 79 67 67 -9999 67 67 67 66 67 67 79 67 -9999 81 81 81 81 81 81 81 81 -9999 -9999 -9999 -9999 -9999 -9999 -9999 -9999 -9999 -9999 -9999 -9999 -9999 66 -9999 -9999 -9999 -9999 -9999 -9999 -9999 -9999 -9999 -9999 -9999 -9999 -9999 -9999 -9999 -9999 -9999 66 66 79 79 79 79 79 66 -9999 -9999 79 79 79 79 79 -9999 79 79 81 81 81 81 81 81 81 81 81 79 79 79 81 81 81 81 81 81 81 66 66 66 66 66 83 83 -9999 -9999 83 66 66 66 66 66 79 66 79 79 -9999 -9999 -9999 -9999 -9999 -9999 79 79 -9999 -9999 -9999 -9999 -9999 -9999 -9999 -9999 79 79 79 79 79 -9999 -9999 -9999 79 -9999 79 66 66 66 66 66 66 66
81 79 -9999 66 66 67 79 79 79 79 79 81 81 81 81 81 81 81 81 81 81 81 -9999 -9999 -9999 -9999 81 81 81 81 81 81 81 81 81 81 81 81 81 81 81 81 81 81 -9999 -9999 66 -9999 79 79 79 66 -9999 -9999 79 79 -9999 -9999 -9999 -9999 79 -9999 -9999 -9999 81 66 66 79 -9999 -9999 -9999 -9999 -9999 79 -9999 -9999 -9999 -9999 -9999 -9999 79 79 79 -9999 -9999 -9999 66 66 66 -9999 -9999 -9999 79 67 66 67 66 79 79 -9999 -9999 66 79 -9999 79 79 79 66 -9999 79 79 67 79 79 79 66 79 79 79 79 79 79 79 79 79 79 79 79 79 79 79 79 79 79 79 67 67 67 67 67 -9999 -9999 67 79 79 67 67 -9999 -9999 -9999 79 79 66 79 -9999 -9999 79 -9999 81 81 81 81 81 81 81 81 -9999 -9999 -9999 -9999 -9999 -9999 -9999 -9999 -9999 -9999 -9999 -9999 -9999 66 -9999 -9999 -9999 -9999 -9999 -9999 -9999 -9999 -9999 -9999 -9999 -9999 -9999 -9999 -9999 -9999 -9999 66 79 79 79 79 79 79 79 79 -9999 -9999 66 79 79 -9999 79 79 79 81 81 81 81 81 81 81 81 81 81 79 79 81 81 81 81 81 81 81 81 66 66 66 66 66 83 83 -9999 -9999 -9999 66 66 66 66 66 66 66 79 79 -9999 -9999 -9999 -9999 79 -9999 -9999 -9999 -9999 -9999 -9999 -9999 -9999 -9999 -9999 79 79 79 79 -9999 -9999 79 79 86 -9999 -9999 -9999 66 66 79 79 66 66
81 79 -9999 79 79 -9999 -9999 -9999 -9999 -9999 -9999 -9999 -9999 81 81 81 81 81 81 81 81 -9999 -9999 -9999 79 81 81 81 81 81 81 81 81 81 81 81 81 81 81 81 81 81 81 81 -9999 -9999 -9999 -9999 79 79 66 66 -9999 -9999 -9999 79 -9999 67 -9999 -9999 -9999 -9999 81 81 81 81 66 66 66 79 67 -9999 -9999 -9999 -9999 -9999 -9999 67 79 67 79 -9999 67 -9999 -9999 67 66 66 66 79 -9999 -9999 -9999 -9999 66 67 -9999 79 79 79 -9999 79 79 79 79 67 -9999 -9999 -9999 67 -9999 -9999 79 79 66 79 79 79 79 79 79 79 79 79 79 79 79 79 79 79 79 79 79 67 -9999 -9999 -9999 67 -9999 67 67 -9999 -9999 -9999 79 67 67 67 -9999 -9999 79 79 67 79 79 -9999 79 -9999 81 81 81 81 81 81 81 81 -9999 -9999 67 -9999 79 79 79 66 66 79 -9999 -9999 -9999 -9999 -9999 -9999 -9999 -9999 -9999 -9999 -9999 -9999 -9999 -9999 -9999 -9999 -9999 -9999 -9999 -9999 79 67 79 79 79 79 79 79 79 79 79 -9999 79 79 -9999 79 79 79 81 81 81 81 81 81 81 81 81 81 81 79 79 79 81 81 81 81 81 81 81 81 66 66 66 66 66 83 83 83 83 66 79 79 66 79 79 79 67 79 -9999 -9999 -9999 -9999 -9999 -9999 -9999 -9999 -9999 -9999 -9999 -9999 -9999 -9999 79 79 79 79 -9999 -9999 79 79 79 86 -9999 -9999 -9999 -9999 -9999 -9999 -9999 79 -9999
81 66 -9999 -9999 -9999 -9999 -9999 -9999 -9999 -9999 -9999 -9999 -9999 -9999 -9999 -9999 81 81 -9999 -9999 -9999 -9999 -9999 79 81 81 81 81 81 81 81 81 81 81 81 81 81 81 81 81 81 81 81 81 -9999 -9999 -9999 -9999 79 79 66 66 -9999 -9999 -9999 79 79 79 66 66 81 81 81 81 81 81 66 66 66 67 67 79 -9999 -9999 79 -9999 79 67 67 79 79 67 67 -9999 67 67 -9999 67 79 79 66 79 -9999 66 66 67 -9999 -9999 67 79 -9999 -9999 79 79 67 -9999 -9999 67 -9999 -9999 -9999 79 79 79 66 79 79 79 79 79 79 79 79 79 79 79 79 79 79 79 79 66 66 79 79 79 79 67 -9999 -9999 -9999 -9999 -9999 79 79 79 67 79 -9999 -9999 -9999 79 67 67 -9999 66 79 -9999 81 81 81 81 81 81 81 81 -9999 -9999 -9999 -9999 -9999 67 67 -9999 67 67 -9999 -9999 -9999 -9999 -9999 -9999 -9999 -9999 -9999 -9999 -9999 -9999 -9999 -9999 -9999 -9999 -9999 -9999 -9999 -9999 79 79 66 66 66 79 79 79 79 79 66 -9999 -9999 -9999 79 79 79 79 81 81 81 81 81 81 81 81 81 81 81 81 79 79 81 81 81 81 81 81 81 81 81 81 81 81 66 83 83 83 83 89 79 67 67 67 67 79 79 79 79 -9999 -9999 -9999 -9999 -9999 -9999 -9999 -9999 -9999 -9999 -9999 79 79 79 79 -9999 -9999 -9999 79 79 79 79 79 -9999 -9999 -9999 -9999 79 -9999 -9999 -9999 -9999
81 81 -9999 -9999 -9999 -9999 -9999 79 79 79 79 -9999 -9999 79 79 -9999 -9999 -9999 -9999 -9999 -9999 -9999 79 81 81 81 81 81 81 81 81 81 81 81 81 81 81 81 81 81 81 81 81 81 -9999 -9999 -9999 -9999 79 79 66 79 -9999 -9999 -9999 79 79 66 66 81 81 81 81 81 81 81 81 66 66 79 79 79 67 -9999 79 79 67 -9999 67 79 66 67 67 -9999 -9999 -9999 67 79 67 -9999 -9999 -9999 -9999 -9999 79 -9999 -9999 -9999 66 79 79 -9999 79 66 79 -9999 79 79 -9999 -9999 66 66 79 79 79 79 79 79 79 79 79 79 79 79 79 79 79 79 79 79 66 66 66 66 66 79 79 -9999 67 -9999 -9999 -9999 67 79 79 79 -9999 -9999 -9999 79 -9999 79 66 79 -9999 67 -9999 -9999 79 79 66 -9999 -9999 -9999 -9999 -9999 -9999 -9999 -9999 -9999 -9999 -9999 -9999 -9999 -9999 -9999 -9999 -9999 -9999 -9999 -9999 -9999 -9999 -9999 -9999 -9999 -9999 -9999 -9999 -9999 -9999 -9999 -9999 -9999 -9999 -9999 79 79 79 66 66 66 79 79 79 79 79 66 -9999 -9999 79 79 79 79 81 81 81 81 81 81 81 81 81 81 81 81 79 79 79 81 81 81 81 81 81 81 81 81 81 81 81 66 83 83 89 79 67 -9999 -9999 67 79 79 79 79 -9999 -9999 79 79 -9999 -9999 -9999 -9999 -9999 -9999 -9999 79 79 79 79 -9999 -9999 79 79 79 79 79 -9999 -9999 79 79 -9999 79 -9999 -9999 66 -9999 -9999
81 81 79 -9999 -9999 -9999 66 79 79 79 79 79 -9999 -9999 79 79 79 79 -9999 -9999 -9999 79 81 81 81 81 81 81 81 81 81 81 81 81 81 81 81 81 81 81 81 81 81 81 79 -9999 -9999 -9999 66 79 79 79 79 -9999 66 81 81 81 81 81 81 81 81 81 81 81 81 81 66 66 67 -9999 -9999 -9999 -9999 66 66 67 -9999 66 66 79 67 -9999 -9999 67 79 -9999 79 79 66 -9999 66 -9999 -9999 -9999 79 -9999 -9999 79 66 -9999 -9999 66 79 79 79 79 79 79 79 79 79 79 79 79 79 79 79 79 79 79 79 79 79 79 79 79 79 66 66 66 66 66 66 66 66 79 79 -9999 -9999 -9999 -9999 79 67 -9999 -9999 -9999 -9999 -9999 79 66 66 79 67 -9999 -9999 -9999 -9999 -9999 -9999 -9999 -9999 -9999 -9999 -9999 -9999 -9999 -9999 -9999 -9999 -9999 -9999 -9999 -9999 -9999 -9999 -9999 -9999 67 -9999 -9999 -9999 -9999 -9999 -9999 -9999 -9999 66 66 -9999 -9999 -9999 -9999 -9999 -9999 -9999 79 79 79 -9999 66 79 79 79 79 79 79 66 -9999 -9999 79 79 79 81 81 81 81 81 81 81 81 81 81 81 81 81 79 79 81 81 81 81 81 81 81 81 81 81 81 81 66 79 89 79 79 79 -9999 -9999 -9999 79 66 -9999 -9999 -9999 79 79 79 -9999 -9999 -9999 -9999 -9999 -9999 79 -9999 79 79 -9999 -9999 79 79 79 79 79 66 79 -9999 79 -9999 -9999 79 79 79 79 -9999 66
81 81 79 -9999 -9999 79 66 79 79 79 79 79 79 -9999 79 79 79 -9999 -9999 -9999 81 81 81 81 81 81 81 81 81 81 81 81 81 81 81 81 81 81 81 81 81 81 81 81 81 -9999 -9999 -9999 -9999 81 81 81 81 81 81 81 81 81 79 81 81 81 81 81 81 81 81 81 81 66 66 79 79 67 -9999 -9999 79 66 -9999 67 79 79 -9999 67 -9999 -9999 67 -9999 79 66 66 -9999 -9999 79 -9999 -9999 67 79 79 79 66 79 -9999 66 66 79 79 79 79 79 79 79 79 79 79 79 79 79 79 79 79 79 79 79 79 79 79 79 66 66 79 79 79 79 66 66 66 66 66 -9999 67 -9999 -9999 79 79 79 67 -9999 -9999 -9999 66 66 66 79 79 79 -9999 -9999 79 -9999 -9999 -9999 79 67 67 -9999 -9999 79 79 -9999 -9999 -9999 -9999 -9999 -9999 -9999 -9999 -9999 -9999 67 -9999 -9999 -9999 -9999 -9999 -9999 -9999 -9999 -9999 -9999 -9999 -9999 -9999 -9999 -9999 -9999 -9999 -9999 -9999 -9999 79 79 66 66 79 79 79 79 79 79 -9999 79 79 79 81 81 81 81 81 81 81 81 81 81 81 81 81 79 79 81 81 81 81 81 81 81 81 81 81 81 66 66 79 66 79 79 79 -9999 -9999 -9999 66 -9999 -9999 79 79 79 79 79 -9999 -9999 -9999 -9999 -9999 79 79 79 79 -9999 -9999 79 79 79 79 79 79 -9999 -9999 -9999 -9999 -9999 79 66 79 79 -9999 -9999 66
81 81 79 -9999 -9999 66 66 79 79 79 79 79 79 -9999 79 79 -9999 -9999 -9999 81 81 81 81 81 81 81 81 81 81 81 81 81 81 81 81 81 81 81 81 81 81 81 81 81 81 81 -9999 -9999 -9999 79 81 81 81 81 81 81 81 81 79 81 81 81 81 81 81 81 81 81 81 81 66 66 66 67 -9999 -9999 -9999 66 -9999 -9999 67 79 67 -9999 -9999 -9999 67 -9999 79 79 79 79 67 79 -9999 79 79 79 79 79 79 79 -9999 -9999 79 79 79 79 79 79 79 79 79 79 66 66 79 79 79 79 79 79 79 79 79 79 66 66 66 66 79 79 -9999 -9999 79 -9999 -9999 66 66 66 67 -9999 -9999 79 79 79 -9999 -9999 -9999 66 66 66 -9999 79 67 79 -9999 79 66 66 -9999 -9999 79 79 79 67 -9999 -9999 79 -9999 -9999 -9999 -9999 -9999 -9999 -9999 -9999 -9999 66 79 67 67 67 -9999 -9999 -9999 -9999 -9999 -9999 -9999 -9999 -9999 -9999 -9999 -9999 -9999 -9999 -9999 -9999 -9999 -9999 79 79 66 66 66 66 66 66 66 -9999 -9999 79 79 81 81 81 81 81 81 81 81 79 79 79 79 81 79 79 81 81 81 81 81 81 81 81 81 67 66 79 79 79 67 79 79 79 79 -9999 -9999 -9999 -9999 79 67 67 79 79 79 -9999 -9999 -9999 -9999 79 79 79 79 -9999 -9999 79 79 79 79 79 79 -9999 -9999 -9999 -9999 -9999 -9999 79 79 79 -9999 -9999 66 66
81 81 81 -9999 -9999 66 66 79 79 79 79 79 79 -9999 79 -9999 -9999 -9999 81 81 81 81 81 81 81 81 81 81 81 81 81 81 79 81 81 81 81 81 81 81 81 81 81 81 81 81 81 -9999 -9999 -9999 81 81 81 81 81 81 81 81 79 81 81 81 81 81 81 81 81 81 81 81 66 66 66 79 67 67 -9999 -9999 67 -9999 79 79 -9999 -9999 -9999 -9999 79 79 66 79 79 67 66 66 66 79 66 79 66 66 66 66 66 -9999 66 79 79 79 79 79 79 79 66 66 66 66 79 79 79 79 79 79 79 79 79 79 66 66 66 66 79 -9999 -9999 -9999 -9999 -9999 -9999 79 -9999 79 -9999 79 79 67 67 67 67 67 -9999 66 66 67 67 79 67 -9999 -9999 -9999 66 66 -9999 -9999 -9999 79 79 79 -9999 -9999 -9999 -9999 -9999 -9999 -9999 -9999 -9999 -9999 -9999 -9999 -9999 -9999 -9999 -9999 -9999 -9999 -9999 -9999 -9999 -9999 -9999 -9999 -9999 -9999 -9999 -9999 -9999 -9999 -9999 -9999 -9999 -9999 -9999 79 79 79 66 66 66 66 66 66 79 -9999 79 67 67 67 79 66 66 81 81 79 67 79 79 79 67 79 79 81 81 81 81 81 81 81 66 66 66 79 79 79 79 79 79 79 79 79 -9999 -9999 79 66 66 66 67 67 67 79 79 79 79 79 79 79 79 -9999 -9999 79 79 79 79 79 79 79 -9999 -9999 -9999 -9999 -9999 -9999 -9999 79 66 -9999 66 66 66
81 81 81 -9999 -9999 79 66 79 79 79 79 79 -9999 -9999 -9999 -9999 -9999 81 81 81 81 81 81 81 81 81 81 81 81 81 81 81 81 81 81 81 81 81 81 81 81 81 81 81 81 81 81 81 81 81 81 81 81 81 81 81 81 81 79 81 81 81 81 81 81 81 81 81 81 81 81 66 66 79 79 -9999 67 -9999 -9999 67 -9999 67 79 79 -9999 -9999 -9999 79 79 66 66 79 66 66 66 66 66 66 66 66 66 66 66 -9999 -9999 79 79 79 66 66 66 66 66 79 79 79 79 79 79 79 79 79 79 79 79 79 67 66 66 66 79 -9999 -9999 -9999 -9999 -9999 -9999 -9999 -9999 79 67 -9999 66 -9999 -9999 79 -9999 79 -9999 66 79 67 79 66 -9999 67 -9999 -9999 66 -9999 79 67 79 79 67 -9999 -9999 -9999 -9999 -9999 -9999 -9999 -9999 -9999 -9999 -9999 -9999 -9999 -9999 -9999 -9999 -9999 -9999 -9999 -9999 -9999 -9999 -9999 -9999 -9999 -9999 -9999 -9999 -9999 -9999 -9999 -9999 -9999 -9999 -9999 -9999 -9999 -9999 -9999 -9999 -9999 -9999 -9999 -9999 -9999 -9999 -9999 -9999 -9999 79 67 79 66 66 66 66 66 79 79 79 79 79 79 79 81 81 81 81 81 81 66 66 79 79 79 79 79 79 79 79 79 79 79 -9999 -9999 67 66 67 66 66 66 66 67 67 79 79 79 79 79 -9999 -9999 79 79 79 79 79 79 -9999 79 79 -9999 -9999 -9999 79 79 79 79 -9999 -9999 66 66 66
81 81 81 79 -9999 66 66 79 79 79 79 79 -9999 -9999 -9999 -9999 81 81 81 81 81 81 81 81 81 81 81 81 81 81 81 81 81 81 81 81 81 81 81 81 81 81 81 81 81 81 81 81 81 81 81 81 81 81 81 81 81 81 81 81 81 81 81 81 81 81 81 81 81 81 81 81 66 66 79 -9999 79 79 -9999 -9999 79 -9999 79 79 -9999 -9999 79 79 66 66 66 79 67 67 79 67 66 -9999 67 67 66 66 66 66 -9999 79 79 79 66 66 66 66 79 79 79 79 79 79 79 79 79 79 79 79 79 79 79 79 66 66 79 -9999 -9999 -9999 -9999 -9999 -9999 -9999 -9999 79 67 -9999 79 67 -9999 79 67 -9999 -9999 79 -9999 66 79 -9999 -9999 66 -9999 -9999 -9999 -9999 -9999 -9999 -9999 -9999 -9999 -9999 -9999 -9999 -9999 -9999 -9999 -9999 -9999 -9999 -9999 -9999 -9999 -9999 -9999 -9999 -9999 -9999 -9999 -9999 -9999 -9999 -9999 -9999 -9999 -9999 -9999 67 66 66 67 -9999 -9999 -9999 -9999 -9999 -9999 -9999 -9999 -9999 -9999 -9999 67 -9999 -9999 -9999 66 -9999 -9999 -9999 -9999 -9999 -9999 -9999 66 66 66 66 66 66 79 79 79 79 79 81 81 81 81 67 66 66 79 79 79 79 79 79 79 79 79 79 79 -9999 -9999 66 67 67 66 66 66 66 66 66 67 67 79 79 -9999 -9999 -9999 79 79 79 79 79 79 79 -9999 79 -9999 -9999 79 -9999 -9999 79 79 -9999 -9999 66 66 66 66
81 81 81 79 -9999 79 66 79 79 79 79 -9999 -9999 -9999 -9999 81 81 81 81 81 81 81 81 81 81 81 81 81 81 81 81 81 81 81 81 81 81 81 81 81 81 81 81 81 81 81 81 81 81 81 81 81 81 81 81 81 81 81 81 81 81 81 81 81 81 81 81 81 81 81 81 81 66 66 79 66 67 67 67 67 79 -9999 -9999 -9999 -9999 -9999 67 79 79 67 79 79 -9999 -9999 79 -9999 66 79 67 -9999 -9999 -9999 66 79 -9999 -9999 79 79 79 79 79 79 79 79 79 79 79 79 79 79 79 79 79 79 79 67 79 -9999 -9999 -9999 -9999 -9999 -9999 -9999 -9999 -9999 -9999 -9999 66 79 -9999 79 66 79 79 66 79 79 -9999 -9999 79 66 66 79 79 -9999 -9999 -9999 -9999 -9999 -9999 -9999 -9999 -9999 -9999 -9999 -9999 -9999 -9999 -9999 -9999 -9999 -9999 -9999 66 67 -9999 -9999 -9999 -9999 -9999 -9999 -9999 -9999 -9999 -9999 -9999 -9999 -9999 -9999 -9999 79 66 66 -9999 -9999 -9999 -9999 -9999 -9999 -9999 -9999 -9999 -9999 -9999 -9999 -9999 -9999 -9999 -9999 -9999 -9999 79 67 79 79 79 -9999 -9999 -9999 -9999 66 66 66 66 67 67 79 79 67 66 66 67 79 79 79 79 79 79 79 79 79 79 79 79 79 -9999 -9999 66 66 66 66 66 66 66 66 66 66 66 66 79 -9999 -9999 79 79 79 79 79 79 79 -9999 79 79 -9999 -9999 79 79 -9999 79 66 -9999 -9999 66 66 79 79 66
81 81 81 66 -9999 79 79 79 79 79 -9999 -9999 -9999 -9999 81 81 81 81 81 81 81 81 81 81 81 81 81 81 81 81 81 81 81 81 81 81 81 81 81 81 81 81 81 81 81 81 81 81 81 81 81 81 81 81 81 81 81 81 81 81 81 81 81 81 81 81 81 81 81 81 81 81 81 67 79 67 -9999 -9999 79 -9999 79 79 79 79 67 66 67 66 79 -9999 79 66 79 79 79 -9999 66 66 79 79 79 67 -9999 79 66 -9999 79 79 79 79 79 79 79 79 79 79 79 79 79 79 79 79 -9999 67 66 66 79 79 79 -9999 -9999 -9999 -9999 79 79 79 79 -9999 -9999 -9999 -9999 -9999 -9999 -9999 -9999 -9999 -9999 -9999 -9999 -9999 -9999 -9999 -9999 -9999 -9999 -9999 -9999 -9999 -9999 -9999 -9999 -9999 -9999 -9999 -9999 -9999 -9999 -9999 -9999 -9999 -9999 -9999 -9999 -9999 66 66 -9999 -9999 -9999 -9999 -9999 -9999 -9999 -9999 -9999 -9999 -9999 -9999 -9999 -9999 -9999 67 79 66 -9999 -9999 -9999 -9999 -9999 -9999 -9999 -9999 -9999 -9999 -9999 -9999 -9999 -9999 -9999 -9999 -9999 -9999 67 67 67 79 79 79 79 79 -9999 -9999 -9999 -9999 -9999 66 79 79 79 79 66 79 79 79 79 79 67 79 79 79 79 79 79 79 -9999 -9999 -9999 66 66 66 66 66 66 66 66 66 66 66 66 79 -9999 -9999 -9999 66 66 66 79 79 79 79 79 79 -9999 -9999 -9999 79 79 79 79 -9999 -9999 66 79 79 79 79 79
81 81 66 66 -9999 -9999 79 79 79 -9999 -9999 -9999 -9999 81 81 81 81 81 81 81 81 81 81 81 81 81 81 81 81 81 81 81 81 79 81 81 81 81 81 81 81 81 81 81 81 81 81 81 81 81 81 81 81 81 81 81 81 81 81 81 81 81 81 81 81 81 81 81 81 81 81 81 81 67 79 79 67 79 79 66 66 66 67 79 79 66 67 66 79 -9999 79 66 -9999 79 66 -9999 66 66 67 -9999 79 79 79 -9999 66 -9999 79 79 79 79 79 79 79 79 79 79 79 79 79 79 79 67 -9999 -9999 66 79 79 79 79 79 79 79 -9999 -9999 79 79 -9999 -9999 79 -9999 67 79 79 79 -9999 67 79 79 79 79 79 79 66 -9999 -9999 -9999 -9999 -9999 79 -9999 -9999 -9999 -9999 -9999 79 79 -9999 -9999 -9999 -9999 -9999 -9999 -9999 66 66 66 -9999 -9999 -9999 -9999 -9999 -9999 -9999 -9999 -9999 -9999 -9999 -9999 -9999 -9999 -9999 -9999 -9999 -9999 -9999 -9999 -9999 -9999 -9999 -9999 -9999 -9999 -9999 -9999 -9999 -9999 -9999 -9999 -9999 -9999 -9999 -9999 67 67 67 79 79 79 79 79 79 79 79 79 -9999 -9999 -9999 -9999 -9999 79 79 79 79 -9999 -9999 67 67 -9999 79 79 79 79 79 -9999 -9999 66 66 66 66 66 66 66 66 66 66 66 66 66 67 -9999 -9999 79 -9999 -9999 66 66 79 79 79 79 79 79 -9999 79 79 79 -9999 -9999 -9999 -9999 66 79 79 79 79 79 79
81 81 81 -9999 -9999 -9999 79 79 -9999 -9999 -9999 -9999 81 81 81 81 81 81 81 81 81 81 81 81 81 81 81 81 81 81 81 81 81 79 79 79 81 81 81 81 81 81 81 81 81 81 81 81 81 81 81 81 81 81 81 81 81 81 81 81 81 81 81 81 81 81 81 81 81 81 81 81 81 79 79 79 79 67 66 66 66 66 79 79 -9999 67 -9999 -9999 79 -9999 67 66 -9999 66 79 79 66 66 -9999 -9999 79 66 66 -9999 79 -9999 -9999 79 79 79 79 79 79 79 79 79 79 79 79 79 79 -9999 -9999 -9999 79 79 79 79 79 79 79 79 79 79 79 79 -9999 -9999 79 -9999 79 79 79 79 79 79 79 79 79 -9999 -9999 -9999 79 67 66 -9999 -9999 79 -9999 -9999 -9999 -9999 -9999 -9999 -9999 79 -9999 -9999 -9999 -9999 -9999 -9999 -9999 -9999 66 66 -9999 79 -9999 79 79 67 -9999 -9999 -9999 -9999 -9999 -9999 -9999 -9999 -9999 -9999 -9999 -9999 -9999 -9999 -9999 -9999 -9999 -9999 -9999 -9999 -9999 -9999 -9999 -9999 67 -9999 -9999 -9999 -9999 -9999 67 67 67 79 79 79 79 -9999 -9999 -9999 -9999 79 79 79 79 -9999 -9999 -9999 -9999 -9999 -9999 67 67 67 67 -9999 79 79 79 79 -9999 -9999 79 66 66 66 66 66 66 66 66 66 66 66 66 66 -9999 -9999 79 66 66 -9999 -9999 79 79 79 79 79 -9999 -9999 -9999 -9999 79 -9999 -9999 -9999 66 79 79 79 79 79 79 79 79
81 81 -9999 -9999 79 -9999 79 -9999 -9999 -9999 66 66 81 81 81 81 81 81 81 81 81 81 81 81 81 81 81 81 81 81 81 81 79 79 79 79 79 66 66 81 81 81 81 81 81 81 81 81 81 81 81 81 81 81 81 81 81 81 81 81 81 81 81 81 81 81 81 81 81 81 81 81 81 79 79 66 66 66 66 79 79 79 66 -9999 67 79 66 79 79 79 79 79 -9999 -9999 -9999 -9999 -9999 79 -9999 -9999 66 79 79 -9999 79 79 -9999 66 79 79 79 79 79 79 79 79 79 79 79 79 -9999 -9999 66 79 79 79 79 79 79 79 79 79 79 79 79 -9999 -9999 -9999 -9999 66 66 79 79 67 -9999 79 -9999 -9999 67 79 -9999 79 79 67 66 -9999 -9999 79 -9999 -9999 -9999 -9999 -9999 -9999 -9999 -9999 -9999 -9999 -9999 -9999 -9999 -9999 -9999 -9999 -9999 -9999 -9999 66 -9999 -9999 -9999 -9999 -9999 -9999 -9999 -9999 -9999 66 -9999 -9999 -9999 -9999 -9999 -9999 -9999 -9999 -9999 -9999 -9999 -9999 -9999 -9999 -9999 -9999 -9999 -9999 67 67 -9999 -9999 -9999 -9999 67 67 67 79 79 79 79 86 86 -9999 -9999 -9999 -9999 -9999 -9999 79 66 66 66 79 -9999 -9999 -9999 -9999 -9999 -9999 -9999 -9999 -9999 -9999 -9999 66 66 66 66 66 66 66 66 66 66 66 66 66 66 -9999 -9999 79 66 79 79 79 -9999 -9999 -9999 66 79 79 79 -9999 79 -9999 -9999 -9999 81 66 81 79 66 79 79 79 79 79 79
81 -9999 -9999 79 79 -9999 -9999 -9999 -9999 79 66 81 81 81 81 81 81 81 81 81 81 81 81 81 81 81 81 81 81 81 81 81 79 79 79 79 79 66 66 66 81 81 81 81 81 81 81 81 81 81 81 81 81 81 81 81 81 81 81 81 81 81 81 81 81 81 81 81 81 81 67 66 66 66 66 66 66 66 66 79 79 67 79 79 79 79 66 79 66 -9999 67 79 66 -9999 67 -9999 -9999 -9999 67 79 79 -9999 -9999 67 67 79 -9999 79 79 79 79 79 79 79 79 79 79 79 79 79 -9999 79 66 79 -9999 79 79 79 79 79 79 79 79 79 79 -9999 66 -9999 66 66 79 -9999 -9999 79 -9999 67 -9999 -9999 66 66 67 66 66 67 66 66 -9999 -9999 -9999 -9999 -9999 -9999 -9999 -9999 -9999 -9999 -9999 -9999 -9999 -9999 -9999 -9999 -9999 -9999 -9999 -9999 -9999 -9999 -9999 -9999 -9999 -9999 -9999 -9999 -9999 -9999 -9999 66 -9999 -9999 -9999 -9999 -9999 -9999 -9999 -9999 -9999 -9999 -9999 -9999 -9999 -9999 -9999 -9999 -9999 -9999 66 67 79 79 -9999 -9999 67 67 67 79 79 79 79 86 86 86 86 86 86 -9999 -9999 86 66 66 66 66 66 66 66 79 79 79 79 79 66 66 66 66 66 66 66 66 66 66 66 66 66 66 66 66 -9999 -9999 79 66 66 79 79 79 79 79 -9999 -9999 66 79 79 -9999 -9999 -9999 81 81 81 81 81 81 66 81 66 66 66 66 79
-9999 -9999 79 79 -9999 -9999 -9999 -9999 79 79 81 81 81 81 81 81 81 81 81 81 81 81 81 81 81 81 81 81 81 81 81 81 79 79 79 79 79 79 79 79 79 79 81 66 81 81 81 81 81 81 81 81 81 81 81 81 81 81 81 81 81 81 81 66 81 81 81 66 66 66 66 66 66 66 66 66 66 66 66 66 79 79 79 79 -9999 -9999 79 79 66 -9999 67 79 79 -9999 79 -9999 -9999 -9999 -9999 -9999 -9999 -9999 -9999 -9999 -9999 -9999 -9999 66 79 79 79 79 79 79 79 79 79 79 79 79 -9999 66 66 -9999 -9999 79 79 79 79 79 79 79 79 79 -9999 -9999 67 66 79 66 66 66 -9999 79 -9999 67 67 -9999 66 66 66 66 66 66 66 66 -9999 -9999 -9999 -9999 -9999 -9999 -9999 -9999 79 79 -9999 -9999 -9999 -9999 -9999 -9999 -9999 -9999 -9999 -9999 -9999 -9999 -9999 66 -9999 79 -9999 -9999 -9999 -9999 79 66 -9999 -9999 -9999 -9999 -9999 -9999 -9999 -9999 -9999 -9999 -9999 -9999 -9999 -9999 -9999 -9999 -9999 -9999 66 -9999 -9999 -9999 -9999 -9999 67 67 67 79 79 79 79 86 86 86 86 86 86 86 86 86 66 66 66 66 66 66 66 66 66 66 66 66 66 66 66 66 66 66 66 66 66 66 67 79 66 66 -9999 -9999 -9999 66 66 66 66 79 -9999 -9999 -9999 79 79 -9999 -9999 79 -9999 -9999 81 81 81 81 81 81 81 81 81 81 81 81 66 66 66
-9999 79 79 -9999 -9999 -9999 -9999 79 66 79 79 81 81 81 81 81 81 81 81 81 81 81 81 81 81 81 81 81 81 81 81 79 79 79 79 79 -9999 -9999 -9999 79 79 79 79 66 66 66 81 81 81 81 81 81 81 81 81 81 81 81 81 81 79 79 79 79 79 79 79 79 66 66 66 66 66 66 66 66 66 66 66 66 66 66 66 66 67 67 -9999 79 66 -9999 67 66 66 -9999 79 -9999 -9999 -9999 79 -9999 -9999 -9999 79 -9999 -9999 -9999 79 66 79 79 79 79 79 79 79 79 79 79 79 79 -9999 79 -9999 -9999 -9999 79 79 79 79 79 79 79 79 79 -9999 67 79 -9999 79 67 67 66 67 -9999 -9999 79 79 -9999 66 -9999 79 79 66 67 67 66 -9999 -9999 -9999 -9999 -9999 -9999 -9999 -9999 -9999 -9999 -9999 -9999 -9999 -9999 -9999 -9999 -9999 -9999 -9999 -9999 -9999 -9999 -9999 66 66 79 79 79 79 79 79 79 -9999 -9999 -9999 -9999 -9999 -9999 -9999 -9999 -9999 -9999 -9999 -9999 -9999 -9999 -9999 -9999 -9999 -9999 66 -9999 -9999 -9999 -9999 -9999 67 67 67 79 79 86 86 86 86 86 86 86 86 86 86 79 66 66 66 66 66 66 66 66 66 66 66 66 66 66 66 66 66 66 66 66 66 79 79 66 66 -9999 -9999 79 66 66 66 66 79 -9999 -9999 -9999 -9999 -9999 79 79 -9999 -9999 -9999 81 81 81 81 81 81 81 81 81 81 81 81 81 81 81 81
79 66 -9999 -9999 -9999 -9999 -9999 -9999 79 79 79 81 81 81 81 81 81 81 81 81 81 81 81 81 81 81 81 81 81 81 81 79 79 79 79 -9999 -9999 -9999 -9999 79 79 79 79 79 79 79 79 81 81 81 81 81 81 81 81 81 81 79 79 79 79 79 79 79 79 79 79 79 66 66 66 67 79 67 79 79 66 66 66 66 66 66 66 66 66 -9999 -9999 79 79 67 67 66 66 -9999 -9999 -9999 -9999 -9999 67 -9999 -9999 -9999 67 -9999 79 -9999 66 66 79 79 -9999 79 79 79 79 79 79 79 79 79 -9999 79 -9999 -9999 79 79 79 79 79 79 79 79 79 79 -9999 79 -9999 66 -9999 -9999 79 66 66 -9999 -9999 79 -9999 -9999 79 79 -9999 -9999 79 66 -9999 67 -9999 -9999 -9999 -9999 -9999 -9999 -9999 -9999 -9999 79 -9999 -9999 -9999 -9999 -9999 -9999 -9999 -9999 -9999 -9999 -9999 -9999 -9999 66 -9999 -9999 79 79 -9999 79 -9999 79 -9999 -9999 -9999 -9999 -9999 -9999 67 79 67 67 -9999 -9999 -9999 -9999 -9999 -9999 -9999 -9999 66 -9999 -9999 -9999 -9999 -9999 67 67 67 79 79 86 86 86 86 86 86 86 86 86 86 66 66 66 66 66 66 66 66 66 66 66 66 66 66 66 66 66 66 66 66 67 66 66 66 66 -9999 -9999 67 79 66 66 66 79 -9999 -9999 -9999 -9999 -9999 -9999 -9999 79 -9999 79 79 81 81 81 81 81 81 81 81 81 81 81 81 81 81 81 81
79 -9999 -9999 -9999 -9999 79 79 -9999 79 79 79 79 79 81 81 81 81 81 81 81 81 81 81 81 81 81 81 81 81 81 66 79 79 79 -9999 -9999 -9999 -9999 -9999 79 79 79 79 79 79 79 79 79 66 66 79 81 81 81 67 67 79 79 79 79 79 66 79 79 79 79 66 67 79 79 66 67 79 79 79 79 79 79 67 66 66 66 66 79 66 79 -9999 -9999 79 79 79 -9999 -9999 -9999 -9999 -9999 79 66 66 66 66 66 66 79 66 -9999 66 66 66 79 -9999 -9999 -9999 -9999 -9999 -9999 -9999 -9999 -9999 79 -9999 67 -9999 -9999 79 79 79 79 79 79 79 79 79 -9999 -9999 79 67 66 66 79 66 66 66 67 79 79 79 79 79 79 79 79 79 79 79 79 -9999 -9999 -9999 -9999 -9999 -9999 -9999 -9999 -9999 79 -9999 -9999 -9999 -9999 -9999 -9999 -9999 -9999 -9999 -9999 -9999 -9999 -9999 -9999 -9999 -9999 -9999 -9999 -9999 -9999 -9999 -9999 -9999 -9999 -9999 -9999 -9999 -9999 -9999 -9999 -9999 -9999 -9999 -9999 -9999 -9999 -9999 -9999 -9999 -9999 66 -9999 -9999 -9999 -9999 -9999 67 67 67 79 79 86 86 86 86 86 86 86 86 86 86 66 66 66 66 66 66 66 66 66 66 66 66 66 66 66 66 66 66 66 66 66 66 67 79 -9999 -9999 79 79 79 79 66 66 79 -9999 -9999 -9999 -9999 -9999 79 79 -9999 -9999 79 79 79 81 81 81 81 81 81 81 81 81 81 81 81 81 81 81
-9999 -9999 -9999 -9999 79 79 79 -9999 79 79 79 79 79 79 81 81 81 81 81 81 81 81 81 81 81 81 81 81 81 81 79 79 -9999 -9999 -9999 -9999 -9999 -9999 -9999 -9999 79 79 79 79 79 79 79 79 79 79 79 79 79 79 79 79 79 79 79 79 79 79 79 79 79 79 79 79 79 79 79 79 79 66 66 79 79 79 79 79 66 66 66 79 66 79 66 66 -9999 -9999 67 79 67 67 79 66 66 66 66 66 66 66 66 79 79 -9999 66 66 79 79 -9999 -9999 -9999 -9999 -9999 -9999 -9999 -9999 -9999 -9999 -9999 -9999 -9999 79 79 79 79 79 79 79 79 79 79 -9999 -9999 -9999 -9999 -9999 -9999 -9999 -9999 -9999 -9999 -9999 -9999 -9999 79 -9999 79 79 79 79 66 66 66 79 -9999 -9999 -9999 -9999 -9999 -9999 -9999 -9999 79 79 -9999 79 -9999 -9999 -9999 79 -9999 79 79 79 -9999 79 79 79 79 79 79 79 79 79 79 67 79 79 79 79 79 79 67 67 79 79 79 -9999 -9999 -9999 -9999 -9999 -9999 -9999 -9999 -9999 -9999 -9999 -9999 -9999 -9999 -9999 -9999 -9999 79 -9999 86 86 86 86 86 86 86 86 79 79 66 66 66 66 66 66 66 66 66 66 66 66 66 66 66 66 66 66 66 66 66 67 -9999 -9999 79 79 79 79 79 79 79 -9999 -9999 -9999 -9999 -9999 -9999 -9999 -9999 -9999 79 79 79 79 79 81 81 81 81 81 81 81 81 81 81 81 81 81 81
-9999 -9999 -9999 79 79 79 79 -9999 -9999 79 66 79 79 79 79 81 81 81 81 81 81 81 81 81 81 81 81 81 81 66 79 79 -9999 -9999 -9999 -9999 -9999 -9999 -9999 -9999 -9999 -9999 86 -9999 79 79 79 79 79 79 79 79 79 79 79 79 79 79 79 79 79 79 79 79 79 79 79 79 66 79 79 79 79 67 66 67 79 79 66 66 79 66 66 66 66 79 66 67 -9999 -9999 -9999 67 66 66 66 66 66 66 66 66 -9999 79 79 -9999 79 -9999 66 66 79 79 -9999 -9999 -9999 -9999 -9999 -9999 -9999 -9999 -9999 -9999 79 -9999 -9999 79 79 79 79 79 79 79 79 79 -9999 -9999 -9999 -9999 -9999 66 79 -9999 79 79 -9999 -9999 -9999 -9999 -9999 -9999 -9999 -9999 -9999 -9999 -9999 -9999 -9999 -9999 -9999 -9999 -9999 -9999 -9999 -9999 -9999 -9999 79 79 -9999 79 -9999 -9999 -9999 79 -9999 79 79 79 -9999 -9999 -9999 79 79 79 79 79 79 79 79 -9999 79 -9999 79 79 79 79 79 -9999 79 79 67 -9999 -9999 -9999 -9999 -9999 -9999 -9999 -9999 -9999 -9999 -9999 -9999 -9999 -9999 -9999 79 67 86 -9999 86 86 86 86 86 86 86 86 79 79 66 66 66 66 66 66 66 66 66 66 66 66 66 66 66 66 66 66 66 66 67 -9999 -9999 79 79 79 79 79 79 -9999 -9999 -9999 86 -9999 -9999 -9999 -9999 -9999 -9999 79 79 79 79 79 79 79 81 81 81 81 81 81 81 81 81 81 81 81 81
-9999 -9999 79 79 79 79 79 79 -9999 79 79 79 79 79 79 79 81 81 81 81 81 81 66 66 66 81 81 81 81 79 79 79 -9999 -9999 -9999 -9999 -9999 -9999 -9999 -9999 -9999 -9999 -9999 -9999 -9999 -9999 79 79 79 79 79 79 79 79 79 79 79 79 79 79 79 79 79 79 79 79 79 79 79 79 79 79 79 67 66 67 79 66 66 66 79 66 66 66 66 79 79 67 79 79 79 66 66 66 66 66 66 66 66 66 67 -9999 -9999 -9999 79 -9999 66 66 79 79 -9999 -9999 -9999 -9999 -9999 -9999 -9999 -9999 -9999 -9999 79 67 -9999 -9999 79 79 79 79 79 79 79 79 -9999 79 -9999 -9999 67 66 -9999 67 -9999 67 -9999 67 -9999 67 -9999 67 -9999 79 -9999 79 79 79 -9999 -9999 -9999 -9999 -9999 -9999 -9999 -9999 -9999 -9999 -9999 -9999 -9999 79 -9999 -9999 -9999 -9999 -9999 -9999 -9999 -9999 -9999 -9999 -9999 -9999 79 -9999 -9999 -9999 -9999 -9999 79 66 79 -9999 -9999 -9999 79 67 -9999 -9999 -9999 79 79 -9999 66 -9999 -9999 -9999 -9999 -9999 -9999 -9999 -9999 -9999 -9999 -9999 -9999 79 79 67 79 86 86 86 86 86 86 86 86 86 67 66 66 66 66 66 66 66 66 66 66 66 66 66 66 66 66 66 66 66 66 -9999 -9999 -9999 79 79 79 79 79 -9999 -9999 -9999 -9999 -9999 -9999 -9999 -9999 -9999 79 -9999 -9999 79 79 79 79 79 79 79 81 81 81 81 81 81 81 81 81 81 81 81 81
-9999 79 79 79 79 67 67 66 -9999 79 79 79 79 79 79 67 79 66 66 81 81 81 66 66 66 81 81 81 79 79 79 79 79 -9999 -9999 -9999 -9999 -9999 -9999 -9999 -9999 -9999 -9999 -9999 -9999 -9999 -9999 79 79 79 79 79 79 79 66 66 79 79 79 79 79 79 79 79 79 79 79 79 79 79 79 79 79 79 79 79 79 79 79 79 66 66 66 66 66 79 79 66 66 79 66 66 66 66 66 66 66 66 66 66 66 -9999 66 66 79 -9999 66 66 79 -9999 -9999 -9999 -9999 -9999 -9999 -9999 -9999 -9999 -9999 -9999 79 79 -9999 -9999 -9999 -9999 -9999 79 79 79 79 79 -9999 66 67 66 66 79 -9999 79 67 67 66 67 -9999 67 79 79 79 67 -9999 67 79 79 79 79 -9999 -9999 -9999 -9999 -9999 -9999 -9999 -9999 79 79 -9999 79 -9999 -9999 -9999 -9999 79 79 67 67 -9999 -9999 -9999 -9999 79 -9999 -9999 -9999 -9999 -9999 79 66 -9999 -9999 -9999 -9999 79 79 -9999 -9999 -9999 -9999 79 79 66 -9999 -9999 -9999 -9999 -9999 -9999 -9999 -9999 -9999 -9999 -9999 86 79 67 67 79 86 86 86 86 86 86 86 86 86 79 66 66 66 66 66 66 66 66 66 66 66 66 66 66 66 66 66 79 79 -9999 -9999 79 79 79 79 79 -9999 -9999 -9999 -9999 -9999 -9999 -9999 -9999 79 -9999 79 66 -9999 81 79 79 79 79 79 79 79 66 81 81 81 81 81 81 81 81 81 81 81 81
-9999 79 79 79 66 67 67 67 -9999 -9999 79 79 79 79 79 66 67 66 66 66 81 81 81 81 81 81 81 81 79 79 79 79 79 79 -9999 -9999 -9999 -9999 -9999 -9999 -9999 -9999 -9999 -9999 -9999 -9999 -9999 -9999 79 79 79 79 79 79 79 66 79 79 79 79 79 79 79 79 79 79 79 79 79 79 79 79 79 79 79 79 79 79 79 79 66 66 66 66 66 66 66 79 79 79 79 79 66 79 -9999 79 66 66 66 66 66 66 66 79 79 -9999 66 66 79 79 79 79 79 79 79 -9999 -9999 79 -9999 -9999 79 79 -9999 79 79 -9999 -9999 -9999 79 79 79 -9999 -9999 -9999 -9999 67 66 79 79 67 79 79 79 79 79 79 79 67 79 66 79 67 79 79 -9999 -9999 -9999 66 -9999 -9999 -9999 -9999 79 79 79 79 -9999 79 79 79 79 79 79 -9999 -9999 -9999 -9999 67 67 -9999 67 79 79 79 79 79 79 66 67 -9999 -9999 -9999 79 79 67 79 79 79 79 79 79 79 -9999 -9999 -9999 -9999 -9999 -9999 -9999 -9999 -9999 -9999 86 79 79 67 86 86 86 86 86 86 86 86 86 86 79 66 66 66 66 66 66 66 66 66 66 66 66 66 66 79 79 79 79 -9999 -9999 79 79 79 79 79 -9999 -9999 -9999 -9999 -9999 -9999 -9999 -9999 -9999 -9999 -9999 79 -9999 -9999 81 81 81 81 81 81 81 81 66 79 81 81 81 81 81 81 81 81 81 81 81
79 79 79 79 66 67 67 79 79 -9999 79 79 79 66 66 66 79 79 66 66 79 66 66 66 66 66 66 66 79 79 79 79 79 79 79 79 -9999 -9999 -9999 -9999 -9999 -9999 -9999 -9999 -9999 -9999 -9999 -9999 -9999 79 79 79 66 66 79 79 79 79 66 79 79 79 79 79 79 79 79 79 79 66 79 79 79 79 66 66 79 79 79 66 66 66 79 79 66 66 66 79 79 79 79 79 79 -9999 -9999 -9999 66 67 66 66 79 66 -9999 67 -9999 -9999 -9999 -9999 79 79 79 79 66 66 79 79 66 66 66 -9999 66 -9999 -9999 -9999 -9999 -9999 -9999 -9999 -9999 79 79 -9999 -9999 66 67 66 66 79 67 -9999 -9999 67 79 67 79 -9999 66 66 67 66 66 67 67 -9999 -9999 -9999 -9999 79 -9999 -9999 -9999 -9999 -9999 -9999 -9999 -9999 -9999 79 79 79 79 79 79 -9999 -9999 -9999 -9999 -9999 -9999 -9999 -9999 67 67 67 79 79 79 66 66 79 79 79 66 66 66 66 66 66 66 66 66 79 -9999 -9999 -9999 -9999 66 66 66 -9999 -9999 -9999 -9999 79 79 79 -9999 -9999 86 -9999 86 -9999 -9999 -9999 86 -9999 -9999 66 66 66 66 66 66 66 66 66 66 66 66 66 66 79 66 79 -9999 -9999 79 79 79 79 79 79 -9999 -9999 -9999 -9999 -9999 -9999 -9999 -9999 79 79 79 66 -9999 81 81 81 81 81 81 81 81 81 81 79 81 81 81 81 81 81 81 81 81 81 81
79 79 79 79 79 79 79 79 79 -9999 79 79 79 66 66 79 79 79 79 79 79 79 66 66 66 66 66 66 79 79 79 79 79 79 79 79 -9999 -9999 -9999 -9999 -9999 -9999 -9999 -9999 -9999 -9999 -9999 -9999 -9999 -9999 79 79 79 79 79 79 79 66 66 79 79 79 66 79 79 79 79 79 79 79 79 79 79 79 66 66 79 79 79 79 79 79 79 79 66 66 66 66 79 79 79 79 79 -9999 -9999 -9999 79 -9999 67 -9999 79 67 -9999 67 -9999 -9999 -9999 67 79 79 79 79 67 -9999 66 79 66 67 66 -9999 66 -9999 -9999 -9999 -9999 -9999 -9999 -9999 -9999 -9999 -9999 -9999 79 79 79 79 79 67 79 -9999 -9999 -9999 79 67 66 66 67 79 79 79 79 67 79 79 -9999 -9999 -9999 79 79 -9999 -9999 -9999 -9999 -9999 -9999 -9999 -9999 79 79 79 -9999 79 -9999 -9999 -9999 -9999 -9999 -9999 -9999 79 67 79 79 79 79 -9999 79 79 79 -9999 67 67 79 79 -9999 79 -9999 -9999 66 66 66 -9999 79 -9999 -9999 -9999 79 79 79 79 -9999 -9999 79 67 67 79 -9999 -9999 79 -9999 -9999 -9999 86 86 86 86 86 66 66 66 66 66 66 66 66 66 66 66 66 66 66 79 79 -9999 -9999 79 79 79 -9999 79 79 79 -9999 -9999 -9999 -9999 -9999 -9999 -9999 79 79 79 79 -9999 -9999 81 81 81 81 81 81 81 81 81 81 79 81 81 81 81 81 81 81 81 81 81 81
79 79 79 79 79 79 79 79 79 -9999 -9999 79 79 79 79 79 79 79 79 79 79 79 79 79 79 79 79 79 79 79 79 79 79 79 79 79 -9999 -9999 -9999 -9999 -9999 -9999 -9999 -9999 -9999 -9999 -9999 -9999 -9999 -9999 79 79 79 79 79 79 79 66 66 66 66 66 79 79 79 79 79 79 79 79 79 79 79 79 67 79 79 79 79 79 79 79 79 79 66 66 66 66 79 79 79 79 79 66 66 -9999 67 66 66 66 79 79 79 79 -9999 79 -9999 67 -9999 -9999 79 -9999 79 -9999 67 -9999 67 79 79 -9999 79 -9999 -9999 -9999 -9999 -9999 -9999 -9999 -9999 -9999 -9999 79 -9999 79 -9999 -9999 79 79 -9999 66 -9999 -9999 66 66 79 67 67 -9999 67 -9999 -9999 66 79 66 -9999 79 -9999 79 79 -9999 -9999 -9999 -9999 79 79 79 -9999 79 -9999 -9999 -9999 -9999 -9999 79 -9999 -9999 -9999 -9999 -9999 79 -9999 66 66 66 79 -9999 -9999 66 -9999 -9999 -9999 -9999 -9999 -9999 -9999 -9999 79 79 -9999 -9999 -9999 -9999 -9999 -9999 -9999 -9999 -9999 -9999 -9999 -9999 -9999 -9999 79 67 67 67 79 79 79 79 79 79 79 79 -9999 79 79 66 66 66 66 66 66 66 66 66 66 66 66 66 66 79 -9999 -9999 79 79 -9999 79 79 -9999 79 -9999 -9999 -9999 -9999 -9999 -9999 -9999 -9999 79 79 79 -9999 -9999 81 81 81 81 81 81 81 81 81 81 81 79 81 81 81 81 81 81 81 81 81 81 81
-9999 79 79 79 79 79 79 79 79 79 -9999 79 79 79 79 79 79 79 79 79 79 79 79 79 79 79 79 79 79 79 79 79 79 67 67 79 67 -9999 -9999 -9999 -9999 -9999 -9999 -9999 -9999 -9999 -9999 -9999 -9999 -9999 79 79 79 79 79 79 79 79 79 79 79 79 66 79 79 79 79 79 79 79 79 66 79 79 79 79 79 79 79 79 79 79 79 66 66 66 66 66 66 79 67 79 79 67 66 -9999 -9999 -9999 -9999 -9999 -9999 -9999 -9999 -9999 -9999 -9999 79 67 79 79 79 66 66 79 67 -9999 67 -9999 -9999 -9999 79 79 -9999 -9999 -9999 -9999 -9999 -9999 -9999 -9999 -9999 66 79 79 79 67 67 79 -9999 79 67 79 79 66 -9999 67 -9999 -9999 67 67 -9999 67 79 67 -9999 67 -9999 79 79 79 -9999 -9999 79 79 79 79 -9999 79 -9999 -9999 -9999 -9999 79 79 -9999 -9999 -9999 -9999 -9999 -9999 66 -9999 -9999 66 -9999 -9999 -9999 66 -9999 -9999 -9999 -9999 -9999 -9999 -9999 -9999 79 79 -9999 -9999 -9999 -9999 -9999 -9999 -9999 -9999 -9999 -9999 -9999 -9999 -9999 79 67 67 67 79 79 79 79 79 79 79 79 79 79 79 79 66 66 66 66 66 66 66 66 66 66 66 66 66 66 -9999 -9999 79 79 79 -9999 -9999 79 79 79 -9999 -9999 -9999 -9999 -9999 -9999 -9999 79 79 -9999 -9999 -9999 79 81 81 81 81 81 81 81 81 81 81 81 79 81 81 -9999 -9999 -9999 81 81 81 81 81 66
-9999 79 79 79 67 79 79 79 79 79 -9999 79 79 79 79 79 79 79 79 79 79 79 67 79 79 79 67 79 79 79 67 79 79 79 79 79 79 -9999 -9999 -9999 -9999 -9999 -9999 -9999 -9999 -9999 -9999 -9999 -9999 -9999 79 79 66 66 79 79 79 79 79 79 79 79 66 79 79 79 67 79 79 79 79 79 79 79 79 79 79 79 79 79 79 79 66 66 66 66 66 66 66 79 79 79 79 67 -9999 -9999 -9999 -9999 -9999 -9999 67 67 79 79 -9999 -9999 -9999 -9999 -9999 -9999 -9999 -9999 66 79 66 79 67 66 79 -9999 66 79 79 79 79 -9999 -9999 -9999 -9999 -9999 66 66 79 79 -9999 -9999 79 79 79 66 67 79 67 67 79 79 67 67 -9999 -9999 -9999 67 79 -9999 -9999 -9999 -9999 -9999 79 79 79 79 79 79 79 -9999 -9999 79 -9999 -9999 -9999 -9999 -9999 -9999 -9999 -9999 -9999 -9999 -9999 79 79 -9999 -9999 66 -9999 79 79 79 -9999 -9999 -9999 -9999 -9999 -9999 -9999 -9999 79 79 -9999 79 -9999 -9999 -9999 -9999 -9999 -9999 -9999 -9999 -9999 -9999 -9999 67 67 67 79 79 79 79 79 79 79 79 79 79 79 79 79 79 66 66 66 66 66 66 66 66 66 66 66 66 -9999 -9999 79 79 -9999 -9999 79 -9999 79 -9999 -9999 -9999 86 -9999 -9999 79 79 79 66 -9999 -9999 66 79 79 81 81 81 81 -9999 -9999 -9999 -9999 -9999 -9999 -9999 -9999 -9999 -9999 -9999 66 -9999 -9999 -9999 -9999 -9999 -9999 -9999
-9999 -9999 79 79 79 79 79 79 79 66 -9999 -9999 79 79 79 79 79 79 79 79 79 79 79 79 79 79 79 79 79 79 79 79 79 79 79 79 79 -9999 -9999 -9999 -9999 -9999 -9999 -9999 -9999 -9999 -9999 -9999 -9999 -9999 79 67 66 66 79 79 79 79 79 79 79 79 79 79 66 66 66 79 79 79 79 79 79 79 79 79 79 79 79 79 66 66 66 66 66 66 66 66 66 66 66 79 79 79 66 -9999 67 -9999 -9999 -9999 -9999 66 67 -9999 -9999 -9999 -9999 -9999 -9999 79 79 -9999 -9999 -9999 -9999 -9999 -9999 -9999 -9999 -9999 -9999 -9999 79 79 79 79 -9999 -9999 -9999 -9999 -9999 -9999 -9999 -9999 -9999 -9999 -9999 -9999 -9999 -9999 -9999 -9999 -9999 -9999 -9999 -9999 -9999 -9999 -9999 -9999 -9999 -9999 -9999 -9999 -9999 -9999 -9999 -9999 -9999 -9999 -9999 -9999 -9999 -9999 -9999 -9999 -9999 -9999 -9999 -9999 -9999 -9999 -9999 -9999 -9999 -9999 -9999 -9999 -9999 79 79 -9999 -9999 66 66 79 67 79 -9999 -9999 -9999 -9999 -9999 -9999 -9999 -9999 79 -9999 -9999 -9999 -9999 -9999 -9999 -9999 -9999 -9999 -9999 -9999 -9999 -9999 -9999 79 67 79 79 79 -9999 -9999 -9999 -9999 -9999 -9999 -9999 79 79 79 79 79 66 66 66 66 66 66 66 66 66 66 -9999 -9999 -9999 79 79 79 79 -9999 -9999 -9999 -9999 -9999 -9999 -9999 79 -9999 -9999 79 79 66 -9999 -9999 -9999 -9999 -9999 -9999 -9999 -9999 -9999 -9999 -9999 81 66 81 66 81 81 79 79 79 79 79 66 81 81 81 81 81 -9999
79 -9999 -9999 -9999 79 79 79 79 79 -9999 -9999 -9999 79 79 66 79 79 79 79 79 79 79 79 67 67 79 67 79 79 79 79 79 79 79 79 79 79 79 -9999 -9999 -9999 -9999 -9999 -9999 -9999 -9999 -9999 -9999 -9999 79 79 79 79 79 79 79 79 66 79 66 66 66 66 79 66 79 79 79 79 79 79 79 79 79 79 79 79 79 79 79 79 67 67 66 67 66 66 66 66 66 66 66 66 66 79 -9999 67 67 67 67 79 67 -9999 -9999 -9999 66 -9999 67 79 67 67 -9999 -9999 -9999 79 67 79 79 -9999 66 79 -9999 -9999 -9999 -9999 -9999 -9999 -9999 79 -9999 79 79 -9999 -9999 79 -9999 66 66 79 67 67 67 -9999 67 -9999 67 -9999 67 -9999 -9999 66 -9999 -9999 -9999 -9999 -9999 -9999 81 81 81 81 81 81 81 79 79 79 79 -9999 -9999 -9999 -9999 -9999 -9999 -9999 -9999 -9999 -9999 -9999 -9999 -9999 -9999 -9999 -9999 -9999 -9999 -9999 -9999 -9999 -9999 -9999 -9999 -9999 -9999 -9999 -9999 -9999 -9999 -9999 -9999 -9999 -9999 -9999 -9999 -9999 -9999 -9999 -9999 -9999 -9999 -9999 -9999 79 79 79 -9999 -9999 -9999 -9999 -9999 -9999 -9999 -9999 -9999 79 79 79 67 66 66 66 66 66 66 66 66 66 -9999 -9999 -9999 79 79 79 79 79 79 79 -9999 -9999 -9999 -9999 -9999 -9999 -9999 79 79 -9999 -9999 -9999 79 -9999 -9999 -9999 79 79 81 81 81 81 81 81 81 81 81 81 66 79 79 79 66 66 81 81 81 81 81 81
79 79 79 -9999 -9999 -9999 -9999 -9999 -9999 -9999 -9999 -9999 79 79 79 79 79 79 79 79 79 67 79 79 79 79 79 79 66 66 79 79 79 79 79 79 79 79 79 -9999 -9999 -9999 -9999 -9999 -9999 -9999 -9999 -9999 -9999 79 79 79 79 67 66 79 79 66 79 66 66 67 79 79 79 67 79 66 79 79 79 79 79 79 79 79 79 79 67 79 79 79 79 79 79 79 66 66 66 66 66 66 66 66 79 -9999 79 -9999 79 79 66 66 67 67 -9999 79 79 79 79 79 79 67 -9999 79 67 67 79 79 -9999 66 66 66 -9999 -9999 66 -9999 79 79 -9999 -9999 -9999 79 -9999 -9999 79 79 66 66 66 67 -9999 67 -9999 67 -9999 -9999 -9999 79 -9999 -9999 66 -9999 -9999 -9999 -9999 -9999 79 81 81 81 81 81 81 81 81 81 81 81 81 79 79 79 79 79 -9999 -9999 -9999 -9999 -9999 -9999 -9999 66 66 -9999 -9999 -9999 79 -9999 -9999 -9999 -9999 -9999 -9999 -9999 -9999 79 -9999 -9999 -9999 -9999 -9999 -9999 -9999 -9999 -9999 -9999 -9999 -9999 -9999 -9999 -9999 -9999 -9999 -9999 79 79 -9999 -9999 -9999 -9999 -9999 -9999 -9999 -9999 -9999 79 79 79 66 66 66 66 66 66 66 66 -9999 -9999 -9999 79 79 66 79 79 79 79 79 -9999 79 -9999 -9999 86 -9999 -9999 -9999 79 -9999 79 66 67 -9999 -9999 -9999 66 79 81 81 81 81 81 81 81 81 81 81 66 79 79 79 79 81 81 81 81 81 81 81
-9999 -9999 -9999 -9999 -9999 -9999 -9999 -9999 -9999 79 79 -9999 -9999 79 79 79 79 79 79 79 79 79 79 79 79 66 83 66 66 66 66 79 66 66 79 79 79 79 79 79 -9999 -9999 -9999 -9999 -9999 -9999 -9999 -9999 -9999 79 79 79 67 79 79 79 79 79 79 79 67 79 79 79 79 79 79 79 79 79 79 79 79 79 79 79 79 79 79 79 79 79 79 79 79 79 79 79 79 79 66 66 79 66 66 -9999 67 67 -9999 79 67 79 79 67 -9999 67 79 66 66 67 66 -9999 -9999 -9999 -9999 79 -9999 67 66 66 66 66 67 67 66 -9999 79 -9999 -9999 67 -9999 -9999 79 79 79 66 66 66 66 66 67 66 66 79 79 67 79 66 -9999 -9999 66 66 79 79 66 -9999 79 81 81 81 81 81 81 81 81 81 81 81 81 81 81 79 79 79 -9999 -9999 -9999 -9999 -9999 -9999 -9999 -9999 -9999 -9999 -9999 -9999 -9999 -9999 -9999 -9999 -9999 -9999 -9999 -9999 79 -9999 -9999 -9999 -9999 -9999 -9999 -9999 -9999 -9999 -9999 -9999 -9999 -9999 -9999 -9999 -9999 79 79 -9999 -9999 79 79 -9999 -9999 -9999 -9999 -9999 -9999 -9999 -9999 67 79 79 66 66 66 66 66 66 66 -9999 -9999 79 -9999 -9999 -9999 -9999 -9999 79 79 79 79 -9999 -9999 -9999 79 79 79 79 79 -9999 -9999 66 66 79 79 66 66 66 79 81 81 81 81 81 81 81 81 81 81 79 79 79 79 79 81 81 81 81 81 81 81
81 79 79 79 79 79 79 79 79 79 79 79 -9999 79 79 79 79 79 79 79 79 67 79 79 66 83 89 83 66 66 79 66 66 66 66 66 79 79 79 79 79 -9999 -9999 -9999 -9999 -9999 -9999 -9999 -9999 79 79 79 67 79 79 79 79 79 79 67 66 67 79 79 79 79 79 79 79 79 79 79 79 67 79 79 79 79 79 79 67 67 79 79 67 79 79 79 79 79 79 79 79 79 67 -9999 79 67 67 -9999 66 67 66 67 -9999 -9999 -9999 66 66 79 -9999 -9999 -9999 -9999 -9999 -9999 66 67 66 66 66 66 -9999 -9999 -9999 -9999 79 79 -9999 79 79 -9999 67 -9999 -9999 66 66 66 66 66 67 67 67 79 79 67 67 67 -9999 -9999 66 66 79 79 79 -9999 81 81 81 81 81 81 81 81 81 81 81 81 81 81 81 79 79 79 -9999 -9999 -9999 -9999 -9999 -9999 -9999 -9999 -9999 -9999 -9999 -9999 -9999 -9999 -9999 -9999 -9999 -9999 -9999 -9999 66 -9999 -9999 -9999 -9999 -9999 79 79 -9999 -9999 -9999 -9999 -9999 -9999 -9999 -9999 -9999 79 79 79 -9999 -9999 79 -9999 -9999 -9999 -9999 -9999 -9999 -9999 -9999 -9999 79 79 66 66 66 66 66 66 -9999 -9999 79 79 -9999 -9999 -9999 -9999 -9999 79 79 79 79 79 -9999 79 79 79 79 66 -9999 -9999 79 66 66 81 66 66 66 66 66 81 81 81 81 81 81 81 81 81 81 66 79 79 79 79 81 81 81 81 81 81 81
81 81 79 79 79 79 79 79 79 79 79 79 -9999 79 79 79 79 79 79 79 79 79 79 66 83 83 89 89 83 66 79 66 83 83 83 83 66 66 79 79 79 79 79 -9999 -9999 -9999 -9999 79 79 79 79 79 79 79 79 79 79 79 67 79 66 79 79 79 79 79 79 79 79 66 79 79 79 67 79 79 79 79 79 79 67 79 79 67 67 79 79 79 79 -9999 -9999 -9999 -9999 -9999 79 -9999 79 79 67 -9999 67 79 66 66 -9999 79 -9999 79 79 -9999 -9999 -9999 -9999 -9999 -9999 -9999 -9999 -9999 66 -9999 66 66 -9999 67 -9999 79 -9999 67 67 79 -9999 -9999 -9999 67 67 67 79 67 67 66 66 79 79 79 79 -9999 -9999 79 -9999 -9999 67 79 -9999 66 66 -9999 79 66 81 81 81 81 81 81 81 81 81 81 81 81 81 81 81 81 79 -9999 -9999 -9999 -9999 -9999 -9999 -9999 -9999 -9999 -9999 -9999 -9999 -9999 -9999 -9999 -9999 -9999 -9999 -9999 79 -9999 -9999 -9999 -9999 -9999 79 79 -9999 -9999 -9999 -9999 -9999 -9999 -9999 -9999 -9999 79 79 79 79 -9999 -9999 -9999 -9999 -9999 -9999 -9999 -9999 -9999 -9999 -9999 79 79 66 66 66 66 66 -9999 -9999 79 79 -9999 -9999 -9999 -9999 79 79 66 66 79 79 79 79 79 66 66 66 66 -9999 67 66 81 81 81 81 81 81 81 81 81 81 81 81 81 81 81 81 81 81 66 79 79 79 79 79 81 81 66 66 81 81
81 81 79 79 79 79 79 79 66 66 79 79 -9999 79 79 79 79 79 79 67 79 66 66 83 83 89 89 89 83 66 66 83 89 89 83 83 66 66 79 79 79 79 79 79 79 79 79 79 79 79 79 67 67 79 67 79 79 79 79 79 79 79 79 79 79 79 67 79 67 79 67 66 79 79 79 79 79 67 79 79 67 67 66 66 66 79 79 -9999 -9999 -9999 -9999 -9999 -9999 -9999 79 -9999 -9999 -9999 -9999 67 67 79 -9999 66 -9999 67 67 67 67 -9999 -9999 -9999 -9999 -9999 -9999 -9999 -9999 -9999 -9999 -9999 -9999 79 -9999 -9999 -9999 79 67 79 66 -9999 79 79 -9999 -9999 79 67 -9999 67 -9999 66 66 -9999 66 66 79 67 -9999 79 -9999 66 79 79 67 66 -9999 -9999 79 66 81 81 81 81 81 81 81 81 81 81 81 81 81 81 81 81 79 -9999 -9999 -9999 -9999 -9999 -9999 -9999 -9999 -9999 -9999 -9999 -9999 -9999 -9999 -9999 -9999 -9999 -9999 -9999 79 -9999 -9999 -9999 -9999 79 79 -9999 -9999 -9999 -9999 -9999 -9999 -9999 -9999 -9999 -9999 79 79 79 79 -9999 -9999 -9999 66 -9999 -9999 -9999 -9999 -9999 -9999 -9999 79 66 -9999 66 66 -9999 -9999 -9999 79 -9999 -9999 -9999 -9999 -9999 66 -9999 -9999 -9999 66 79 79 79 79 66 66 66 66 66 -9999 67 -9999 66 81 81 81 81 81 81 81 81 81 81 81 81 81 81 81 81 81 66 79 79 79 79 79 79 79 66 66 66 66
81 79 79 79 79 79 79 79 66 66 79 66 -9999 -9999 79 79 79 79 79 79 66 66 66 89 89 89 89 89 66 66 66 83 89 89 89 89 79 66 66 79 79 79 79 79 79 79 79 79 79 79 79 79 79 79 79 79 79 79 79 79 79 79 79 79 79 79 79 79 79 79 79 79 79 79 79 79 79 79 79 79 79 79 66 66 79 79 -9999 -9999 -9999 -9999 -9999 -9999 -9999 -9999 -9999 79 79 79 -9999 -9999 -9999 67 66 66 -9999 -9999 -9999 79 67 67 -9999 66 66 79 79 -9999 -9999 -9999 66 79 -9999 -9999 -9999 -9999 79 -9999 79 79 79 67 79 67 67 -9999 -9999 -9999 -9999 67 -9999 -9999 79 -9999 66 66 66 79 67 -9999 -9999 -9999 -9999 79 67 79 67 -9999 79 66 81 81 81 81 66 81 81 81 81 81 81 81 81 -9999 -9999 81 -9999 -9999 -9999 -9999 -9999 -9999 -9999 66 -9999 -9999 -9999 -9999 -9999 -9999 -9999 -9999 -9999 -9999 -9999 -9999 -9999 -9999 -9999 -9999 -9999 66 -9999 -9999 -9999 -9999 -9999 -9999 -9999 -9999 -9999 -9999 -9999 79 79 79 79 -9999 -9999 -9999 -9999 79 79 -9999 -9999 -9999 -9999 79 79 -9999 66 66 -9999 -9999 -9999 79 -9999 -9999 -9999 -9999 -9999 79 -9999 -9999 -9999 -9999 -9999 66 66 66 79 66 66 66 66 66 -9999 66 67 66 81 81 81 81 81 81 81 81 81 81 81 81 81 81 81 81 81 79 79 79 79 79 79 79 79 66 66 66 66
66 66 79 79 79 79 79 79 79 79 79 79 79 -9999 79 67 79 79 79 79 66 66 83 89 89 89 89 89 66 79 66 66 89 89 89 89 79 66 66 66 79 79 79 79 79 79 79 79 79 79 79 79 79 79 79 79 79 79 79 67 79 79 79 79 79 79 79 79 79 79 79 67 79 79 67 67 79 79 79 79 79 79 66 79 79 79 -9999 -9999 -9999 -9999 -9999 -9999 -9999 -9999 -9999 -9999 79 66 66 66 -9999 -9999 -9999 -9999 -9999 79 67 79 -9999 79 -9999 67 66 66 66 66 79 67 -9999 -9999 79 -9999 -9999 -9999 -9999 -9999 79 -9999 67 79 79 79 79 79 -9999 79 -9999 66 -9999 79 79 67 67 79 -9999 79 -9999 -9999 79 67 66 66 -9999 79 -9999 -9999 79 66 81 81 81 79 -9999 -9999 -9999 -9999 -9999 66 -9999 81 81 -9999 -9999 81 -9999 -9999 -9999 -9999 -9999 -9999 -9999 79 -9999 -9999 -9999 -9999 -9999 -9999 -9999 -9999 -9999 -9999 -9999 -9999 -9999 -9999 -9999 -9999 -9999 -9999 -9999 -9999 -9999 -9999 -9999 -9999 -9999 -9999 -9999 -9999 -9999 79 79 79 79 -9999 -9999 -9999 -9999 79 66 79 -9999 -9999 79 79 79 79 79 -9999 -9999 79 66 66 79 -9999 -9999 79 79 -9999 -9999 -9999 -9999 -9999 -9999 -9999 66 66 79 79 -9999 79 66 -9999 -9999 -9999 66 81 81 81 79 81 81 81 81 81 81 81 81 81 66 66 66 66 66 79 79 79 79 79 79 79 79 66 66 66 66
66 79 79 79 79 66 79 79 67 79 79 79 79 -9999 79 79 79 79 79 79 79 79 79 89 89 89 79 79 79 79 66 66 66 83 89 89 79 79 79 66 66 66 79 79 79 79 79 79 79 79 79 79 79 79 79 79 79 79 79 79 79 79 79 79 79 79 79 66 79 79 79 79 79 67 79 79 79 79 79 79 79 66 66 79 79 79 -9999 -9999 -9999 -9999 -9999 -9999 -9999 -9999 -9999 -9999 66 66 66 66 66 66 66 -9999 -9999 -9999 79 79 79 -9999 -9999 79 66 66 66 -9999 66 66 79 67 67 -9999 -9999 -9999 -9999 -9999 -9999 -9999 -9999 -9999 66 -9999 67 79 -9999 -9999 -9999 -9999 -9999 -9999 -9999 67 79 79 -9999 67 -9999 -9999 79 79 66 66 -9999 79 79 -9999 79 66 66 81 81 79 -9999 -9999 -9999 -9999 -9999 -9999 -9999 -9999 81 -9999 -9999 81 79 -9999 -9999 -9999 -9999 -9999 -9999 79 -9999 -9999 -9999 -9999 -9999 -9999 -9999 -9999 -9999 -9999 -9999 -9999 -9999 -9999 -9999 -9999 -9999 -9999 -9999 -9999 -9999 -9999 -9999 -9999 -9999 -9999 -9999 -9999 -9999 79 79 79 -9999 -9999 -9999 -9999 -9999 -9999 -9999 66 79 79 66 66 66 66 -9999 -9999 79 66 66 66 79 -9999 66 67 -9999 -9999 -9999 -9999 -9999 -9999 -9999 -9999 79 67 79 -9999 79 79 79 -9999 79 67 -9999 79 67 67 79 79 81 81 81 81 81 81 81 66 66 66 67 66 66 66 66 79 79 79 66 79 79 66 79 79 66
66 79 79 79 79 66 66 79 79 79 79 79 79 -9999 -9999 79 79 79 79 66 79 79 79 66 66 66 79 79 79 66 66 79 66 66 66 66 79 67 79 79 66 66 66 79 79 79 79 79 79 79 79 79 79 79 79 79 79 79 79 79 79 79 79 79 67 66 66 79 79 79 79 79 79 79 79 67 67 79 79 79 66 66 66 79 79 79 -9999 -9999 -9999 -9999 -9999 -9999 -9999 -9999 -9999 67 66 66 66 66 79 66 -9999 -9999 67 -9999 -9999 -9999 -9999 -9999 79 -9999 66 -9999 -9999 79 79 66 66 66 79 -9999 -9999 66 -9999 66 66 66 -9999 -9999 -9999 79 -9999 -9999 79 -9999 -9999 -9999 67 -9999 -9999 79 67 79 67 79 79 -9999 79 -9999 79 66 66 79 79 -9999 79 79 79 81 81 79 -9999 -9999 -9999 -9999 -9999 -9999 81 81 81 -9999 -9999 81 -9999 -9999 -9999 -9999 -9999 -9999 -9999 66 -9999 79 -9999 -9999 -9999 -9999 -9999 -9999 -9999 -9999 -9999 -9999 -9999 -9999 -9999 -9999 -9999 -9999 -9999 -9999 -9999 -9999 -9999 -9999 -9999 -9999 -9999 -9999 -9999 79 79 79 -9999 -9999 -9999 -9999 -9999 -9999 -9999 66 79 79 66 66 66 -9999 -9999 79 66 66 66 -9999 66 66 79 -9999 -9999 -9999 -9999 -9999 -9999 -9999 -9999 79 66 67 79 79 67 79 -9999 -9999 67 79 79 67 67 79 79 66 66 66 66 66 81 81 81 66 66 66 66 66 66 66 66 66 66 66 66 66 66 66 79 79 66
79 79 79 79 79 79 79 79 79 79 79 79 79 79 -9999 79 79 79 79 79 79 66 66 66 66 79 79 79 79 66 79 79 79 79 66 67 67 67 79 66 66 66 79 79 79 79 79 79 79 79 79 79 79 79 67 66 79 79 79 79 66 79 66 79 79 66 66 79 79 79 79 79 79 67 67 79 66 79 79 79 66 66 66 66 79 79 -9999 -9999 -9999 -9999 -9999 -9999 -9999 -9999 67 67 66 66 66 86 79 66 -9999 -9999 79 -9999 -9999 -9999 -9999 -9999 -9999 -9999 66 -9999 79 79 -9999 79 66 -9999 67 79 -9999 66 79 79 -9999 67 -9999 79 -9999 -9999 -9999 -9999 66 -9999 -9999 79 79 79 79 79 -9999 79 -9999 -9999 -9999 -9999 79 -9999 79 66 67 79 -9999 -9999 79 79 79 81 81 79 -9999 -9999 -9999 -9999 -9999 -9999 -9999 -9999 -9999 -9999 -9999 -9999 79 -9999 -9999 -9999 -9999 -9999 -9999 79 79 -9999 66 66 66 -9999 -9999 -9999 -9999 -9999 -9999 -9999 -9999 -9999 -9999 -9999 -9999 -9999 -9999 -9999 -9999 -9999 -9999 -9999 -9999 -9999 -9999 -9999 -9999 -9999 -9999 -9999 -9999 -9999 -9999 -9999 -9999 -9999 -9999 -9999 79 79 66 79 -9999 -9999 79 66 66 66 66 -9999 -9999 79 79 66 -9999 -9999 -9999 -9999 -9999 -9999 79 79 66 67 67 79 79 79 -9999 67 -9999 -9999 79 -9999 -9999 -9999 79 79 79 79 66 66 79 66 66 66 66 66 66 66 66 66 66 66 66 66 66 66 66 66 79 66 66
79 79 79 79 79 79 79 79 79 79 79 79 79 79 -9999 79 79 67 67 79 79 67 79 66 79 79 79 66 79 79 79 79 79 79 79 79 67 67 66 66 66 66 79 66 79 79 66 79 79 79 79 79 79 79 67 67 79 79 79 67 79 79 79 66 79 66 66 66 66 66 66 79 79 67 67 67 66 79 79 66 66 66 66 79 -9999 -9999 -9999 -9999 -9999 -9999 -9999 -9999 -9999 66 79 79 79 79 -9999 -9999 79 66 -9999 -9999 -9999 -9999 -9999 79 67 79 67 -9999 -9999 -9999 -9999 -9999 67 -9999 67 79 -9999 -9999 -9999 79 -9999 -9999 -9999 79 79 67 -9999 -9999 67 -9999 -9999 -9999 -9999 79 79 79 -9999 -9999 -9999 -9999 -9999 67 79 -9999 -9999 67 67 -9999 -9999 -9999 -9999 -9999 79 79 79 66 66 -9999 -9999 -9999 -9999 -9999 -9999 -9999 -9999 -9999 -9999 -9999 -9999 -9999 66 -9999 66 -9999 -9999 -9999 -9999 -9999 -9999 -9999 -9999 -9999 -9999 -9999 -9999 -9999 -9999 -9999 -9999 -9999 -9999 -9999 -9999 -9999 -9999 -9999 -9999 -9999 -9999 -9999 -9999 -9999 -9999 -9999 -9999 -9999 79 79 79 79 -9999 -9999 -9999 -9999 -9999 79 79 -9999 -9999 -9999 -9999 -9999 -9999 79 66 66 66 66 66 66 -9999 -9999 79 79 -9999 -9999 79 -9999 -9999 79 66 67 79 -9999 66 -9999 79 -9999 -9999 -9999 -9999 -9999 -9999 67 -9999 67 79 -9999 -9999 67 67 -9999 79 67 67 67 66 66 66 66 66 66 66 66 66 66 66 66 66 66 79 66 66
79 79 79 79 79 79 79 79 79 79 79 79 79 79 -9999 79 79 67 79 79 79 79 79 79 79 79 79 79 79 79 79 79 79 79 79 66 79 67 66 79 66 79 79 79 79 79 79 79 79 79 79 79 79 79 66 67 79 79 79 66 66 79 79 66 66 79 79 79 79 66 66 66 79 79 66 79 79 79 79 66 66 66 66 79 79 79 -9999 -9999 -9999 -9999 -9999 -9999 -9999 -9999 67 66 66 66 66 66 66 -9999 -9999 79 -9999 -9999 -9999 -9999 67 -9999 -9999 -9999 -9999 79 -9999 -9999 -9999 -9999 66 79 66 -9999 66 79 79 79 -9999 67 79 -9999 79 67 -9999 79 66 -9999 -9999 -9999 -9999 -9999 -9999 -9999 -9999 66 79 79 79 -9999 -9999 67 79 67 -9999 -9999 66 -9999 -9999 79 79 66 -9999 -9999 -9999 -9999 -9999 -9999 -9999 -9999 -9999 -9999 -9999 -9999 -9999 -9999 -9999 -9999 -9999 -9999 -9999 -9999 -9999 -9999 -9999 -9999 -9999 -9999 -9999 -9999 -9999 -9999 -9999 -9999 -9999 -9999 -9999 -9999 -9999 -9999 -9999 -9999 -9999 -9999 79 -9999 -9999 -9999 -9999 -9999 -9999 -9999 79 79 79 79 79 -9999 -9999 79 79 79 79 -9999 -9999 79 -9999 -9999 -9999 79 66 66 66 66 66 66 -9999 -9999 67 79 79 -9999 -9999 -9999 -9999 -9999 79 79 79 -9999 79 79 -9999 -9999 -9999 79 -9999 -9999 -9999 -9999 -9999 -9999 79 -9999 -9999 67 -9999 -9999 79 -9999 -9999 67 79 79 79 66 66 66 66 66 66 66 66 66 66 66 66 66 66
79 66 66 79 79 79 79 79 79 79 79 79 79 79 -9999 -9999 79 67 79 79 79 79 79 79 79 79 79 79 79 67 79 79 79 79 79 79 66 66 79 79 79 79 79 79 79 79 79 79 79 79 79 79 79 79 79 79 79 79 79 79 66 66 66 66 66 79 79 79 67 79 67 66 79 79 79 66 79 79 79 66 79 79 79 79 79 66 -9999 -9999 -9999 66 66 79 -9999 -9999 66 66 79 66 66 66 79 -9999 67 67 -9999 -9999 79 67 67 -9999 -9999 -9999 -9999 79 79 79 -9999 -9999 -9999 -9999 -9999 -9999 -9999 66 79 -9999 67 79 79 66 79 66 79 67 -9999 -9999 -9999 -9999 -9999 -9999 -9999 66 66 66 66 79 67 -9999 79 79 79 79 -9999 -9999 -9999 -9999 -9999 -9999 -9999 -9999 -9999 -9999 -9999 -9999 -9999 -9999 -9999 -9999 -9999 -9999 -9999 -9999 -9999 -9999 -9999 -9999 -9999 -9999 -9999 -9999 -9999 -9999 -9999 -9999 -9999 -9999 -9999 -9999 -9999 -9999 -9999 -9999 -9999 -9999 -9999 -9999 -9999 -9999 -9999 -9999 -9999 -9999 79 -9999 -9999 -9999 -9999 -9999 -9999 -9999 79 79 79 79 -9999 -9999 79 66 66 79 79 -9999 79 79 79 -9999 79 66 66 66 66 79 -9999 -9999 -9999 -9999 -9999 -9999 79 67 -9999 -9999 79 -9999 66 66 79 79 66 -9999 -9999 -9999 -9999 79 79 79 -9999 -9999 -9999 -9999 -9999 -9999 -9999 -9999 -9999 67 79 67 -9999 67 -9999 -9999 79 79 79 79 66 66 66 66 66 66 66 66 66 66 66
66 66 66 66 66 79 79 79 79 79 79 79 79 79 79 -9999 79 79 79 79 79 79 79 79 79 79 79 79 79 79 79 79 79 79 79 79 79 79 79 79 79 79 79 79 79 79 79 66 66 66 66 66 66 66 66 66 66 66 66 66 66 66 79 66 66 66 66 66 79 66 66 66 66 79 79 79 79 79 79 79 79 -9999 -9999 66 -9999 -9999 -9999 -9999 -9999 66 66 79 -9999 79 79 66 66 66 66 79 79 -9999 79 67 -9999 -9999 67 67 67 -9999 -9999 -9999 -9999 67 67 -9999 -9999 79 66 -9999 -9999 -9999 79 67 66 79 67 79 67 67 -9999 66 -9999 67 79 79 -9999 79 79 -9999 67 67 -9999 66 66 -9999 -9999 -9999 79 79 79 -9999 79 -9999 79 -9999 -9999 79 79 79 -9999 -9999 -9999 -9999 -9999 -9999 -9999 -9999 -9999 -9999 -9999 -9999 -9999 -9999 -9999 -9999 -9999 -9999 -9999 -9999 -9999 -9999 -9999 -9999 -9999 -9999 -9999 -9999 -9999 -9999 -9999 -9999 -9999 -9999 -9999 -9999 -9999 -9999 -9999 -9999 -9999 -9999 -9999 -9999 -9999 -9999 -9999 -9999 -9999 -9999 79 79 79 -9999 -9999 66 66 79 79 79 79 -9999 79 79 -9999 -9999 66 66 66 66 66 79 79 -9999 -9999 -9999 -9999 79 79 -9999 -9999 -9999 79 -9999 -9999 66 79 79 -9999 -9999 -9999 -9999 79 79 79 79 79 -9999 -9999 -9999 -9999 -9999 67 -9999 -9999 -9999 -9999 -9999 -9999 -9999 67 79 79 79 79 79 79 79 79 79 79 79 66 66 66 66 66
79 79 66 66 66 79 79 79 79 79 79 79 79 79 79 -9999 79 79 79 79 79 79 79 79 79 79 79 79 79 79 79 79 79 79 79 79 79 79 79 79 79 79 79 79 79 79 79 79 79 66 66 66 66 66 66 66 66 66 66 66 66 66 66 -9999 66 66 66 66 66 66 66 66 66 67 79 66 66 79 -9999 -9999 -9999 -9999 -9999 66 -9999 -9999 -9999 -9999 -9999 79 67 79 -9999 79 79 -9999 66 66 79 67 -9999 -9999 79 67 -9999 67 -9999 67 79 -9999 -9999 -9999 79 67 -9999 -9999 -9999 -9999 -9999 79 -9999 -9999 -9999 -9999 -9999 66 -9999 67 -9999 79 67 79 79 67 67 79 -9999 79 79 79 67 79 79 66 79 -9999 -9999 -9999 -9999 79 67 67 79 79 66 -9999 66 66 66 66 66 -9999 -9999 -9999 -9999 -9999 -9999 -9999 -9999 -9999 -9999 -9999 -9999 -9999 -9999 -9999 -9999 -9999 -9999 -9999 -9999 -9999 -9999 -9999 -9999 -9999 -9999 -9999 -9999 -9999 -9999 -9999 -9999 -9999 -9999 -9999 -9999 -9999 -9999 -9999 -9999 -9999 -9999 -9999 -9999 -9999 -9999 -9999 -9999 -9999 79 79 -9999 -9999 79 66 79 66 79 79 -9999 -9999 -9999 -9999 -9999 -9999 66 66 66 66 66 79 79 79 79 -9999 67 79 66 66 66 66 -9999 -9999 -9999 -9999 -9999 -9999 -9999 -9999 66 -9999 79 79 79 79 79 79 -9999 79 79 -9999 -9999 -9999 -9999 67 79 79 -9999 -9999 -9999 67 79 79 79 79 79 79 79 79 79 79 79 66 66 66 66
79 79 79 66 66 66 79 79 79 66 79 79 79 79 79 -9999 79 79 79 79 79 79 79 79 79 79 79 79 79 79 79 79 79 79 79 79 79 79 79 79 79 79 79 79 79 79 79 79 66 66 66 66 66 66 66 66 66 66 66 66 66 66 66 66 66 66 66 79 66 79 66 79 79 79 79 79 79 79 -9999 -9999 -9999 -9999 -9999 66 -9999 -9999 -9999 -9999 -9999 -9999 -9999 -9999 -9999 66 66 -9999 67 -9999 66 67 -9999 -9999 79 -9999 67 -9999 -9999 -9999 79 -9999 -9999 67 67 79 -9999 -9999 79 79 66 -9999 -9999 79 -9999 -9999 -9999 -9999 -9999 -9999 79 -9999 -9999 -9999 67 79 79 -9999 -9999 79 67 67 66 79 79 66 -9999 -9999 -9999 -9999 -9999 79 79 67 67 67 79 -9999 66 66 66 -9999 -9999 -9999 -9999 -9999 -9999 -9999 -9999 -9999 -9999 -9999 -9999 -9999 -9999 -9999 -9999 -9999 -9999 -9999 -9999 66 -9999 -9999 -9999 -9999 -9999 -9999 -9999 -9999 -9999 -9999 -9999 -9999 -9999 -9999 -9999 -9999 -9999 -9999 -9999 -9999 -9999 -9999 -9999 -9999 -9999 -9999 -9999 -9999 -9999 -9999 79 -9999 -9999 79 79 79 66 66 66 -9999 -9999 66 79 79 79 -9999 -9999 66 66 79 79 79 79 79 79 -9999 67 67 66 66 66 67 79 -9999 67 -9999 -9999 79 -9999 -9999 79 79 79 79 -9999 -9999 79 -9999 -9999 79 79 79 67 -9999 -9999 67 -9999 -9999 -9999 -9999 -9999 79 79 79 79 79 79 79 79 79 79 79 79 66 66 66 66
79 79 79 79 66 66 79 79 66 66 79 79 79 79 79 -9999 -9999 79 79 79 79 79 79 79 79 79 79 79 79 79 79 79 79 79 79 79 79 79 79 79 66 66 79 67 -9999 -9999 -9999 -9999 67 -9999 79 66 66 66 66 66 66 66 66 66 66 66 66 66 66 66 66 66 66 66 79 79 79 -9999 -9999 79 79 67 -9999 -9999 -9999 -9999 -9999 66 -9999 -9999 -9999 -9999 -9999 66 -9999 -9999 -9999 67 66 -9999 67 -9999 67 67 -9999 -9999 -9999 -9999 67 67 79 67 -9999 -9999 -9999 67 79 -9999 67 -9999 67 67 67 -9999 67 -9999 -9999 -9999 -9999 79 79 -9999 -9999 -9999 79 66 79 79 79 79 -9999 -9999 79 66 -9999 66 79 66 66 66 67 -9999 67 66 -9999 67 79 79 66 -9999 79 66 66 79 -9999 -9999 -9999 -9999 -9999 -9999 -9999 -9999 -9999 -9999 -9999 79 -9999 -9999 79 79 79 -9999 79 79 -9999 79 67 67 67 -9999 -9999 -9999 -9999 -9999 -9999 -9999 -9999 -9999 -9999 -9999 -9999 -9999 -9999 -9999 -9999 -9999 -9999 -9999 -9999 -9999 -9999 -9999 -9999 -9999 -9999 -9999 79 79 79 66 66 79 -9999 -9999 66 79 79 79 79 79 -9999 -9999 66 79 79 79 79 67 79 -9999 79 67 67 67 -9999 -9999 66 66 -9999 -9999 66 67 -9999 67 79 79 79 67 -9999 -9999 -9999 -9999 79 79 79 67 79 79 67 79 79 79 -9999 -9999 67 79 79 79 79 79 79 79 79 79 79 79 79 79 66 66 66
79 79 79 79 66 79 79 79 79 79 79 66 66 79 79 79 -9999 79 79 79 79 79 79 79 79 79 79 79 79 79 79 79 79 79 79 79 66 79 66 79 66 79 -9999 -9999 -9999 -9999 -9999 -9999 -9999 -9999 67 66 66 66 66 66 66 66 66 79 67 67 66 66 66 66 66 66 66 66 66 79 79 79 79 66 -9999 -9999 -9999 -9999 -9999 -9999 -9999 -9999 -9999 -9999 -9999 -9999 -9999 -9999 -9999 -9999 -9999 -9999 79 -9999 66 -9999 79 -9999 -9999 -9999 -9999 -9999 -9999 -9999 67 67 79 -9999 -9999 -9999 67 -9999 -9999 -9999 -9999 66 -9999 -9999 79 -9999 -9999 -9999 -9999 67 79 -9999 79 -9999 -9999 -9999 -9999 67 79 -9999 79 -9999 -9999 67 67 -9999 -9999 66 67 -9999 -9999 -9999 66 79 -9999 -9999 79 -9999 -9999 -9999 79 79 79 79 -9999 -9999 -9999 -9999 -9999 -9999 -9999 -9999 -9999 -9999 -9999 -9999 -9999 -9999 -9999 79 -9999 -9999 79 79 -9999 79 79 79 79 -9999 -9999 -9999 -9999 -9999 -9999 -9999 -9999 -9999 -9999 -9999 -9999 -9999 -9999 -9999 -9999 -9999 -9999 -9999 -9999 -9999 -9999 -9999 -9999 -9999 79 79 79 79 79 66 79 -9999 -9999 66 79 79 79 66 66 66 66 -9999 -9999 79 79 66 66 67 79 -9999 -9999 79 79 -9999 -9999 67 66 -9999 -9999 -9999 79 -9999 -9999 79 79 79 79 -9999 -9999 -9999 -9999 79 79 79 79 79 79 67 79 79 79 79 -9999 -9999 -9999 -9999 -9999 79 79 79 79 79 79 79 79 79 79 79 67 66 66
79 79 79 79 66 66 79 67 79 66 66 66 66 79 79 79 -9999 79 79 79 79 79 79 79 79 79 79 79 79 79 79 79 79 66 66 79 79 67 67 -9999 79 -9999 -9999 -9999 -9999 -9999 -9999 79 66 -9999 -9999 66 66 66 66 79 79 79 79 79 79 66 66 66 66 66 66 66 66 66 66 79 79 79 79 66 -9999 -9999 -9999 -9999 -9999 -9999 -9999 -9999 -9999 -9999 -9999 -9999 -9999 66 -9999 -9999 66 -9999 67 -9999 67 67 66 -9999 67 -9999 -9999 -9999 -9999 -9999 -9999 -9999 -9999 67 79 79 66 -9999 -9999 -9999 -9999 67 -9999 67 79 -9999 -9999 -9999 67 79 79 67 -9999 67 -9999 66 -9999 -9999 -9999 -9999 67 -9999 -9999 66 67 -9999 -9999 66 67 -9999 -9999 -9999 -9999 -9999 -9999 -9999 -9999 -9999 -9999 -9999 -9999 -9999 -9999 -9999 -9999 -9999 -9999 -9999 -9999 -9999 -9999 -9999 -9999 -9999 -9999 -9999 -9999 -9999 79 -9999 -9999 -9999 79 -9999 -9999 79 79 79 79 -9999 -9999 -9999 -9999 -9999 -9999 -9999 -9999 -9999 -9999 -9999 -9999 -9999 -9999 -9999 -9999 -9999 -9999 -9999 -9999 -9999 -9999 -9999 -9999 -9999 79 79 79 79 79 79 -9999 -9999 79 79 79 79 79 79 66 66 66 79 -9999 -9999 79 79 66 79 67 -9999 -9999 -9999 66 79 79 -9999 -9999 -9999 67 79 -9999 79 66 79 79 79 -9999 -9999 -9999 -9999 79 79 79 66 79 79 -9999 67 79 67 -9999 79 -9999 79 -9999 -9999 -9999 -9999 79 79 79 79 79 79 79 79 79 79 79 66 66
79 79 79 66 66 66 79 67 66 66 66 66 79 66 79 79 -9999 79 79 79 79 79 79 79 79 79 79 79 79 79 79 79 66 66 79 67 67 -9999 -9999 -9999 79 -9999 -9999 -9999 -9999 -9999 -9999 -9999 -9999 -9999 -9999 79 79 79 79 79 79 79 79 79 66 66 66 66 66 66 66 66 66 66 66 66 79 79 66 66 66 66 66 -9999 -9999 -9999 -9999 -9999 -9999 -9999 -9999 -9999 -9999 66 -9999 -9999 -9999 -9999 79 -9999 -9999 -9999 -9999 -9999 66 67 67 -9999 -9999 -9999 -9999 -9999 -9999 -9999 -9999 -9999 66 66 -9999 -9999 79 -9999 -9999 67 -9999 -9999 -9999 79 79 66 66 66 66 79 67 -9999 -9999 66 -9999 -9999 -9999 -9999 -9999 -9999 -9999 -9999 -9999 -9999 -9999 -9999 -9999 -9999 -9999 -9999 -9999 -9999 -9999 -9999 -9999 -9999 -9999 -9999 -9999 -9999 -9999 -9999 -9999 -9999 -9999 -9999 -9999 -9999 -9999 -9999 -9999 79 79 79 -9999 -9999 -9999 -9999 79 -9999 -9999 79 79 79 79 79 -9999 -9999 -9999 -9999 -9999 -9999 -9999 -9999 -9999 -9999 -9999 -9999 -9999 -9999 -9999 -9999 -9999 -9999 -9999 -9999 -9999 -9999 -9999 -9999 79 79 79 79 -9999 -9999 -9999 -9999 -9999 79 79 79 79 79 79 67 -9999 -9999 67 -9999 -9999 79 79 79 -9999 -9999 -9999 67 67 66 79 -9999 79 79 67 79 -9999 79 79 79 79 79 79 -9999 -9999 79 79 79 67 -9999 66 79 -9999 -9999 -9999 -9999 79 -9999 -9999 67 -9999 79 79 -9999 79 79 79 79 79 79 79 79 79 79 66 66 66
66 66 79 79 66 83 79 66 66 66 66 66 66 66 66 79 -9999 -9999 79 79 79 79 79 79 79 79 79 79 79 66 79 79 79 67 -9999 -9999 -9999 -9999 -9999 79 79 -9999 -9999 -9999 -9999 -9999 67 -9999 -9999 -9999 79 79 79 -9999 -9999 79 79 79 -9999 66 66 66 66 66 66 66 79 66 66 66 66 66 66 66 66 66 66 66 66 66 66 -9999 -9999 -9999 -9999 -9999 -9999 -9999 -9999 66 -9999 -9999 -9999 79 79 -9999 -9999 66 -9999 79 67 -9999 66 66 79 79 -9999 -9999 -9999 -9999 -9999 -9999 -9999 -9999 -9999 66 67 -9999 66 79 -9999 -9999 -9999 -9999 67 79 79 66 66 66 66 66 66 -9999 -9999 -9999 -9999 -9999 -9999 79 -9999 -9999 -9999 67 79 -9999 79 -9999 -9999 -9999 -9999 -9999 -9999 -9999 -9999 -9999 -9999 -9999 -9999 -9999 -9999 -9999 -9999 -9999 -9999 -9999 -9999 -9999 -9999 -9999 -9999 79 79 79 79 79 -9999 -9999 79 79 -9999 -9999 79 79 79 79 -9999 -9999 -9999 -9999 -9999 -9999 -9999 -9999 -9999 -9999 -9999 -9999 -9999 -9999 -9999 -9999 -9999 -9999 -9999 -9999 -9999 -9999 -9999 -9999 -9999 79 79 -9999 -9999 66 79 79 -9999 -9999 -9999 67 -9999 79 -9999 67 -9999 67 79 66 -9999 -9999 -9999 79 67 79 -9999 -9999 -9999 -9999 -9999 -9999 67 -9999 79 66 79 79 66 79 79 79 -9999 -9999 79 -9999 -9999 -9999 -9999 -9999 79 79 -9999 -9999 -9999 -9999 -9999 -9999 -9999 67 -9999 79 79 -9999 79 79 79 79 79 79 79 79 79 66 66 66 66
83 83 83 89 83 83 83 66 66 66 66 79 66 66 66 79 79 -9999 79 79 79 66 66 66 66 79 79 79 79 79 79 -9999 79 -9999 -9999 -9999 -9999 79 66 66 -9999 -9999 -9999 -9999 79 66 66 67 -9999 -9999 -9999 79 79 -9999 -9999 79 79 79 -9999 67 66 67 -9999 79 79 -9999 -9999 79 79 66 66 -9999 66 66 66 66 66 66 66 66 66 -9999 -9999 -9999 -9999 -9999 -9999 -9999 -9999 -9999 -9999 -9999 -9999 79 79 67 67 67 -9999 79 -9999 79 79 67 66 79 66 -9999 -9999 -9999 -9999 -9999 66 66 -9999 -9999 -9999 -9999 66 67 79 67 -9999 -9999 -9999 -9999 -9999 -9999 -9999 79 66 66 79 66 -9999 -9999 -9999 79 -9999 -9999 -9999 -9999 -9999 79 79 -9999 -9999 -9999 -9999 -9999 -9999 -9999 -9999 -9999 -9999 -9999 -9999 79 67 -9999 -9999 -9999 -9999 -9999 -9999 -9999 -9999 -9999 -9999 -9999 -9999 79 79 79 79 79 -9999 -9999 -9999 -9999 -9999 -9999 -9999 -9999 -9999 -9999 -9999 -9999 -9999 -9999 -9999 -9999 -9999 -9999 79 -9999 79 -9999 -9999 -9999 -9999 -9999 -9999 -9999 -9999 -9999 -9999 -9999 -9999 -9999 79 79 -9999 -9999 79 79 79 -9999 67 -9999 79 -9999 67 79 -9999 -9999 -9999 79 -9999 67 -9999 -9999 -9999 -9999 -9999 79 79 79 79 -9999 -9999 79 79 79 79 79 79 79 66 66 79 67 -9999 -9999 -9999 79 -9999 -9999 -9999 -9999 -9999 -9999 -9999 -9999 79 -9999 -9999 -9999 -9999 79 79 79 79 -9999 79 79 79 79 79 79 79 66 66 66 66 66 66
89 83 83 83 83 83 83 66 66 66 79 79 66 66 66 66 79 -9999 79 66 66 66 66 79 79 66 66 66 79 79 79 -9999 -9999 -9999 -9999 -9999 -9999 67 66 -9999 -9999 -9999 -9999 -9999 79 66 66 -9999 -9999 -9999 -9999 66 79 -9999 -9999 79 79 67 -9999 79 79 67 -9999 79 79 -9999 -9999 79 66 66 66 -9999 79 66 66 66 66 66 66 66 66 66 -9999 67 -9999 -9999 -9999 -9999 -9999 -9999 -9999 -9999 -9999 79 79 79 -9999 66 -9999 79 79 79 -9999 66 66 -9999 -9999 79 66 -9999 -9999 67 -9999 79 79 66 -9999 -9999 -9999 -9999 67 79 79 79 67 -9999 -9999 -9999 -9999 79 66 79 79 67 66 66 66 79 -9999 66 66 79 -9999 66 79 -9999 -9999 -9999 -9999 -9999 -9999 -9999 -9999 -9999 -9999 -9999 66 79 67 79 79 79 -9999 -9999 -9999 -9999 -9999 -9999 -9999 -9999 -9999 79 79 79 -9999 -9999 -9999 -9999 -9999 -9999 -9999 -9999 -9999 -9999 -9999 -9999 -9999 -9999 -9999 -9999 -9999 -9999 -9999 79 79 79 -9999 -9999 -9999 -9999 -9999 -9999 66 -9999 -9999 67 -9999 -9999 -9999 79 79 -9999 -9999 79 79 79 67 79 66 -9999 -9999 66 66 67 -9999 -9999 -9999 -9999 -9999 -9999 -9999 79 79 67 -9999 -9999 -9999 -9999 79 -9999 66 66 79 79 79 79 79 79 79 79 67 79 -9999 -9999 -9999 -9999 -9999 79 79 -9999 79 -9999 -9999 -9999 79 66 -9999 79 79 79 79 79 79 -9999 79 79 79 79 79 79 67 66 66 66 66 66 66
83 83 89 83 83 83 66 66 66 66 79 79 66 66 66 66 67 -9999 79 79 79 79 79 79 66 66 66 66 79 79 79 -9999 79 79 -9999 -9999 67 67 -9999 -9999 -9999 -9999 -9999 -9999 79 66 66 -9999 -9999 -9999 -9999 79 79 -9999 -9999 -9999 79 67 -9999 67 66 -9999 -9999 67 79 -9999 -9999 79 66 66 66 66 79 79 79 66 66 66 66 66 66 66 -9999 -9999 -9999 -9999 -9999 -9999 -9999 -9999 -9999 -9999 -9999 -9999 79 67 66 67 -9999 79 79 79 79 67 -9999 79 -9999 67 -9999 -9999 66 67 -9999 67 -9999 79 -9999 67 67 -9999 -9999 -9999 -9999 67 79 -9999 -9999 -9999 -9999 67 66 -9999 -9999 -9999 79 79 66 66 66 66 66 66 79 79 -9999 -9999 -9999 -9999 -9999 -9999 -9999 -9999 -9999 -9999 -9999 -9999 67 67 67 79 79 79 79 -9999 -9999 -9999 -9999 -9999 -9999 -9999 79 79 -9999 -9999 -9999 -9999 -9999 -9999 -9999 -9999 -9999 -9999 -9999 -9999 -9999 -9999 -9999 -9999 -9999 -9999 -9999 -9999 -9999 79 79 -9999 -9999 -9999 -9999 -9999 -9999 -9999 -9999 -9999 -9999 79 79 79 79 79 -9999 -9999 79 67 67 79 79 66 66 66 -9999 66 66 67 -9999 67 -9999 -9999 -9999 -9999 67 -9999 79 79 79 79 79 -9999 -9999 -9999 79 66 79 79 79 79 79 79 79 -9999 66 79 67 -9999 79 -9999 -9999 67 -9999 -9999 -9999 79 79 67 79 79 79 79 79 66 79 79 79 79 67 79 66 79 66 66 66 66 66 66 66 66 66
83 83 83 83 83 66 66 66 66 66 66 79 79 66 79 79 79 -9999 -9999 79 66 66 66 66 66 66 66 79 79 66 66 79 -9999 67 79 67 67 67 -9999 -9999 -9999 -9999 -9999 -9999 -9999 -9999 -9999 -9999 -9999 -9999 -9999 79 79 -9999 -9999 -9999 -9999 -9999 -9999 -9999 -9999 -9999 -9999 67 67 -9999 -9999 79 66 66 66 66 79 79 79 79 79 66 66 66 66 66 66 -9999 -9999 -9999 -9999 -9999 -9999 -9999 -9999 -9999 -9999 -9999 79 67 -9999 79 -9999 79 79 -9999 -9999 -9999 67 67 -9999 66 -9999 66 67 67 66 66 79 -9999 -9999 -9999 67 67 79 -9999 -9999 -9999 -9999 67 -9999 -9999 79 79 -9999 -9999 -9999 -9999 -9999 66 66 66 79 66 66 66 66 66 66 79 -9999 -9999 -9999 -9999 -9999 -9999 -9999 -9999 -9999 -9999 -9999 79 79 66 66 66 -9999 -9999 -9999 -9999 -9999 -9999 -9999 -9999 -9999 -9999 -9999 -9999 -9999 -9999 -9999 -9999 -9999 -9999 -9999 -9999 -9999 -9999 -9999 -9999 -9999 -9999 -9999 -9999 -9999 -9999 -9999 79 -9999 -9999 -9999 -9999 -9999 79 -9999 -9999 -9999 -9999 -9999 79 79 79 79 -9999 -9999 66 67 67 67 79 66 66 -9999 -9999 -9999 66 79 67 67 67 -9999 -9999 -9999 -9999 -9999 67 79 -9999 -9999 79 67 79 79 -9999 -9999 66 79 79 79 79 79 79 79 -9999 79 66 66 79 79 67 79 79 79 79 79 79 66 66 66 66 66 66 66 66 66 79 79 79 79 79 66 66 66 66 66 66 66 66 66 66 66
83 89 89 66 66 66 66 66 66 66 66 79 79 79 79 79 79 79 -9999 79 66 66 66 66 66 66 66 66 79 66 66 66 79 -9999 -9999 -9999 -9999 -9999 -9999 79 79 -9999 67 -9999 67 -9999 -9999 67 -9999 -9999 -9999 -9999 79 -9999 -9999 -9999 -9999 -9999 -9999 -9999 -9999 -9999 -9999 67 -9999 -9999 -9999 79 79 66 66 79 79 79 79 79 79 79 66 66 66 66 66 -9999 -9999 -9999 -9999 -9999 79 -9999 -9999 -9999 -9999 -9999 79 67 -9999 79 -9999 -9999 -9999 -9999 66 -9999 -9999 -9999 -9999 66 79 67 67 79 66 79 67 -9999 66 -9999 67 79 79 -9999 -9999 -9999 -9999 -9999 -9999 -9999 67 67 -9999 -9999 -9999 -9999 -9999 67 66 -9999 79 -9999 66 66 66 66 79 79 79 79 -9999 -9999 -9999 -9999 -9999 -9999 -9999 79 79 79 79 67 66 66 -9999 -9999 -9999 -9999 -9999 -9999 -9999 -9999 -9999 -9999 -9999 -9999 -9999 -9999 -9999 -9999 -9999 -9999 -9999 -9999 -9999 -9999 -9999 -9999 -9999 -9999 -9999 -9999 -9999 -9999 -9999 -9999 -9999 -9999 -9999 -9999 66 -9999 -9999 -9999 -9999 -9999 -9999 79 79 -9999 -9999 -9999 66 66 67 67 81 81 66 -9999 -9999 -9999 -9999 67 79 79 67 67 -9999 -9999 -9999 -9999 -9999 -9999 -9999 -9999 -9999 79 -9999 -9999 79 67 -9999 -9999 79 79 79 79 79 79 79 79 79 66 66 79 79 79 66 66 66 66 66 66 66 66 66 66 66 66 66 66 66 79 79 79 66 66 66 66 66 66 66 66 66 79 66 66 66
83 66 66 66 66 66 66 79 79 79 79 79 79 79 79 79 79 79 -9999 79 66 66 66 -9999 -9999 -9999 -9999 -9999 -9999 -9999 -9999 -9999 -9999 -9999 -9999 -9999 -9999 -9999 79 79 66 66 66 79 79 79 79 79 79 -9999 -9999 -9999 67 -9999 -9999 -9999 -9999 -9999 -9999 -9999 -9999 -9999 79 67 79 79 79 79 79 79 79 79 79 79 79 -9999 -9999 -9999 79 66 66 66 66 -9999 79 67 67 79 79 79 79 79 -9999 -9999 79 79 -9999 79 -9999 66 66 -9999 -9999 -9999 66 66 -9999 -9999 -9999 -9999 -9999 67 67 -9999 -9999 -9999 -9999 67 67 67 67 67 67 67 -9999 -9999 -9999 -9999 -9999 -9999 -9999 67 -9999 -9999 67 67 79 -9999 66 -9999 -9999 66 66 66 79 -9999 -9999 66 66 -9999 -9999 -9999 -9999 -9999 -9999 -9999 79 -9999 -9999 -9999 -9999 -9999 -9999 -9999 -9999 -9999 -9999 -9999 -9999 -9999 -9999 -9999 -9999 -9999 -9999 -9999 -9999 -9999 -9999 -9999 -9999 -9999 -9999 -9999 -9999 -9999 -9999 -9999 -9999 -9999 -9999 -9999 -9999 -9999 -9999 -9999 79 66 -9999 -9999 -9999 -9999 -9999 -9999 79 79 -9999 -9999 79 79 66 66 81 81 81 81 79 79 79 79 -9999 67 -9999 67 -9999 67 -9999 -9999 66 -9999 -9999 -9999 -9999 -9999 -9999 -9999 -9999 -9999 66 67 67 -9999 79 79 79 79 79 79 79 79 79 79 66 66 66 66 66 66 66 66 66 66 66 66 66 66 66 66 66 66 66 66 66 66 66 66 79 66 66 66 66 66 66 66 66 66 66
66 66 66 66 66 66 66 66 66 66 66 79 66 79 79 79 79 79 -9999 -9999 -9999 -9999 -9999 -9999 79 79 79 79 -9999 -9999 66 79 79 -9999 -9999 -9999 -9999 -9999 -9999 -9999 -9999 -9999 -9999 -9999 79 79 66 67 -9999 -9999 66 -9999 -9999 -9999 -9999 -9999 -9999 -9999 -9999 -9999 -9999 -9999 79 79 79 79 79 79 79 79 79 79 79 79 79 -9999 -9999 -9999 79 79 66 66 66 -9999 79 66 66 66 66 66 66 79 66 -9999 79 -9999 -9999 -9999 -9999 79 -9999 -9999 -9999 -9999 -9999 66 -9999 79 -9999 -9999 -9999 -9999 79 66 -9999 79 -9999 79 67 67 -9999 67 67 -9999 79 66 -9999 -9999 -9999 -9999 -9999 -9999 -9999 -9999 67 67 66 -9999 79 66 66 66 -9999 79 79 -9999 -9999 -9999 66 66 -9999 -9999 -9999 -9999 -9999 -9999 -9999 -9999 -9999 -9999 -9999 -9999 -9999 -9999 -9999 -9999 -9999 -9999 -9999 -9999 -9999 -9999 -9999 -9999 -9999 -9999 -9999 -9999 -9999 -9999 -9999 -9999 -9999 -9999 -9999 -9999 -9999 -9999 -9999 -9999 -9999 -9999 -9999 -9999 -9999 -9999 79 -9999 -9999 -9999 -9999 -9999 -9999 79 79 -9999 -9999 66 79 81 81 81 81 81 81 81 81 79 79 67 -9999 -9999 -9999 79 67 -9999 -9999 66 79 67 67 67 -9999 67 -9999 79 67 -9999 -9999 -9999 79 -9999 -9999 79 79 79 79 79 79 79 66 66 66 66 66 66 66 66 66 66 66 66 66 66 66 66 66 66 66 66 66 66 66 66 66 79 66 66 66 66 66 66 66 66 66 66 66
66 66 66 66 66 66 66 66 66 66 66 66 66 79 79 79 79 79 79 -9999 79 66 66 66 66 66 66 66 -9999 79 66 79 79 79 79 79 79 66 66 66 66 79 79 -9999 -9999 -9999 -9999 -9999 -9999 -9999 -9999 -9999 -9999 -9999 -9999 66 66 66 -9999 -9999 66 79 79 79 79 79 79 79 79 79 79 79 79 79 79 79 -9999 -9999 79 79 66 79 79 -9999 66 66 66 66 66 79 66 66 66 66 66 67 67 -9999 -9999 79 -9999 -9999 -9999 -9999 66 79 -9999 -9999 66 -9999 67 -9999 -9999 -9999 -9999 66 66 66 -9999 79 79 67 -9999 -9999 66 -9999 -9999 79 -9999 -9999 -9999 66 -9999 -9999 -9999 -9999 66 -9999 79 66 79 -9999 -9999 -9999 -9999 -9999 -9999 -9999 66 66 -9999 -9999 -9999 -9999 -9999 -9999 -9999 -9999 -9999 -9999 -9999 -9999 -9999 -9999 -9999 -9999 -9999 -9999 -9999 -9999 -9999 -9999 -9999 -9999 -9999 -9999 -9999 -9999 -9999 -9999 -9999 -9999 -9999 -9999 -9999 -9999 -9999 -9999 -9999 -9999 -9999 -9999 -9999 -9999 -9999 -9999 -9999 -9999 -9999 -9999 -9999 -9999 79 79 -9999 -9999 79 66 66 81 81 81 81 81 81 81 81 66 79 -9999 -9999 -9999 -9999 -9999 -9999 -9999 -9999 66 66 66 66 79 79 67 67 67 -9999 -9999 -9999 67 79 66 -9999 79 79 79 79 79 79 66 66 66 66 66 66 66 66 66 66 66 66 66 66 66 66 66 66 66 66 66 66 66 66 79 79 79 66 66 66 66 66 66 66 66 66 66 66
66 66 66 66 66 66 66 66 66 66 66 66 66 66 66 79 79 79 79 -9999 66 66 66 66 79 66 66 66 -9999 79 -9999 -9999 67 79 67 79 67 67 79 79 79 79 79 79 79 79 79 79 79 66 79 79 -9999 -9999 -9999 -9999 -9999 -9999 -9999 -9999 79 66 66 79 66 79 79 79 79 79 79 79 79 66 79 79 66 66 79 79 79 79 79 -9999 66 66 66 66 66 79 79 66 66 66 -9999 66 79 66 -9999 79 66 -9999 -9999 -9999 67 -9999 -9999 -9999 -9999 79 79 -9999 -9999 -9999 -9999 -9999 -9999 -9999 79 66 -9999 -9999 67 -9999 -9999 -9999 -9999 -9999 79 -9999 79 -9999 66 -9999 -9999 -9999 -9999 -9999 -9999 -9999 -9999 66 -9999 -9999 -9999 -9999 -9999 -9999 66 66 -9999 -9999 -9999 -9999 -9999 -9999 -9999 -9999 -9999 -9999 -9999 -9999 -9999 -9999 -9999 -9999 -9999 -9999 -9999 -9999 -9999 -9999 -9999 -9999 -9999 -9999 -9999 -9999 -9999 -9999 -9999 -9999 -9999 -9999 -9999 -9999 -9999 -9999 -9999 -9999 -9999 -9999 -9999 -9999 -9999 -9999 -9999 -9999 -9999 -9999 -9999 79 -9999 -9999 -9999 79 79 66 66 81 81 81 81 81 81 81 79 66 66 -9999 79 67 -9999 -9999 -9999 -9999 79 -9999 67 -9999 66 79 79 79 67 79 79 66 -9999 66 66 66 -9999 -9999 79 79 79 79 66 66 66 66 66 66 66 66 66 66 66 66 66 66 66 66 66 66 66 66 66 66 66 66 66 79 79 66 66 66 66 66 66 66 66 66 66 66 66
67 66 66 79 66 66 66 66 66 66 66 66 66 66 66 79 79 79 79 -9999 66 66 66 66 66 66 66 66 -9999 79 67 -9999 -9999 -9999 -9999 79 -9999 67 -9999 -9999 67 -9999 79 79 -9999 79 -9999 79 -9999 -9999 79 79 -9999 -9999 79 79 79 79 79 -9999 -9999 -9999 -9999 -9999 -9999 -9999 -9999 79 66 -9999 -9999 -9999 -9999 -9999 -9999 -9999 -9999 -9999 -9999 -9999 -9999 -9999 -9999 -9999 -9999 -9999 -9999 -9999 -9999 -9999 -9999 -9999 -9999 -9999 -9999 -9999 -9999 -9999 -9999 -9999 66 66 79 79 79 -9999 -9999 66 67 67 79 79 79 -9999 79 -9999 79 -9999 -9999 -9999 -9999 79 79 79 -9999 -9999 -9999 -9999 66 66 -9999 66 66 66 79 -9999 -9999 -9999 -9999 -9999 -9999 -9999 -9999 66 -9999 -9999 -9999 -9999 79 -9999 -9999 -9999 -9999 -9999 -9999 -9999 -9999 -9999 -9999 -9999 -9999 -9999 -9999 -9999 -9999 -9999 -9999 -9999 -9999 -9999 -9999 -9999 -9999 -9999 -9999 -9999 -9999 -9999 -9999 -9999 -9999 -9999 -9999 -9999 -9999 -9999 -9999 -9999 -9999 -9999 -9999 -9999 -9999 -9999 -9999 -9999 -9999 -9999 -9999 -9999 79 -9999 -9999 79 79 79 79 66 66 81 81 81 81 81 81 79 79 79 66 66 67 67 -9999 -9999 -9999 -9999 66 79 79 67 66 66 66 67 67 -9999 79 66 66 66 66 66 66 -9999 79 79 79 79 66 66 66 66 66 66 66 66 66 66 66 66 66 66 66 66 66 66 66 66 66 66 79 67 79 79 66 66 66 66 66 66 66 66 66 66 66 66 66
66 66 66 66 66 66 66 66 66 66 66 66 66 66 66 79 79 79 79 -9999 -9999 66 66 66 66 66 66 79 -9999 -9999 79 79 -9999 -9999 67 79 -9999 67 67 -9999 67 -9999 67 67 -9999 -9999 -9999 -9999 -9999 -9999 -9999 -9999 -9999 -9999 -9999 -9999 -9999 -9999 -9999 -9999 67 67 67 79 79 79 -9999 -9999 -9999 -9999 -9999 -9999 -9999 -9999 -9999 -9999 79 79 -9999 -9999 -9999 -9999 79 -9999 79 -9999 -9999 -9999 -9999 79 -9999 -9999 -9999 -9999 79 66 79 79 -9999 -9999 -9999 -9999 -9999 66 -9999 -9999 -9999 79 79 -9999 -9999 67 66 -9999 67 66 66 -9999 -9999 66 -9999 -9999 -9999 67 -9999 -9999 -9999 66 79 66 79 -9999 -9999 66 66 -9999 -9999 -9999 -9999 -9999 -9999 -9999 -9999 -9999 -9999 -9999 -9999 -9999 -9999 -9999 -9999 -9999 -9999 -9999 -9999 -9999 -9999 -9999 -9999 -9999 -9999 -9999 -9999 -9999 -9999 -9999 -9999 -9999 -9999 -9999 -9999 -9999 -9999 -9999 -9999 -9999 -9999 -9999 -9999 -9999 -9999 -9999 -9999 -9999 -9999 -9999 -9999 -9999 -9999 -9999 -9999 -9999 -9999 -9999 -9999 -9999 -9999 -9999 79 79 -9999 -9999 79 79 79 79 79 66 66 81 81 81 81 81 81 79 79 79 79 -9999 -9999 66 67 67 -9999 66 66 66 79 79 66 66 66 66 -9999 66 79 79 79 79 79 66 66 -9999 -9999 79 79 79 66 66 66 66 66 66 66 66 66 66 66 66 66 66 66 66 66 66 66 66 66 79 66 66 66 66 66 66 66 66 66 66 66 66 66 66 66 79 66
66 79 66 66 66 66 66 66 66 66 66 66 66 66 66 79 79 79 79 79 -9999 66 66 66 66 66 66 66 -9999 -9999 -9999 -9999 -9999 -9999 -9999 -9999 -9999 -9999 -9999 -9999 79 67 67 79 -9999 -9999 -9999 -9999 -9999 67 67 -9999 -9999 67 -9999 -9999 67 -9999 79 -9999 -9999 -9999 67 79 -9999 -9999 -9999 67 -9999 -9999 79 -9999 -9999 -9999 -9999 -9999 66 -9999 -9999 -9999 -9999 -9999 79 -9999 79 -9999 -9999 -9999 -9999 79 -9999 79 -9999 -9999 -9999 66 -9999 -9999 -9999 79 -9999 79 -9999 -9999 -9999 66 66 66 -9999 -9999 79 -9999 -9999 -9999 67 -9999 67 67 67 -9999 -9999 66 -9999 -9999 -9999 -9999 -9999 79 -9999 -9999 -9999 -9999 66 -9999 -9999 79 -9999 -9999 -9999 66 -9999 -9999 -9999 -9999 -9999 -9999 -9999 -9999 -9999 -9999 -9999 -9999 -9999 -9999 -9999 -9999 -9999 -9999 -9999 -9999 -9999 -9999 -9999 -9999 -9999 -9999 -9999 -9999 -9999 -9999 -9999 79 -9999 -9999 -9999 -9999 -9999 -9999 -9999 -9999 -9999 -9999 -9999 -9999 -9999 -9999 -9999 -9999 -9999 -9999 -9999 -9999 -9999 -9999 -9999 -9999 -9999 79 79 -9999 -9999 79 79 79 79 79 79 66 66 81 81 81 81 81 81 79 79 79 79 79 79 -9999 79 -9999 -9999 66 66 66 79 79 79 79 66 67 67 66 66 66 79 79 66 66 66 79 -9999 -9999 79 79 79 66 66 66 66 66 66 66 66 66 66 66 66 66 66 66 66 66 66 66 66 66 66 66 66 66 66 66 66 66 66 66 66 66 66 66 66 66 66
66 66 66 79 66 66 66 66 66 66 66 66 66 66 66 79 79 79 79 79 -9999 66 66 66 66 79 66 66 -9999 79 -9999 -9999 79 -9999 66 -9999 -9999 79 79 -9999 -9999 66 79 79 -9999 -9999 -9999 -9999 67 67 67 -9999 -9999 67 79 -9999 79 79 67 -9999 79 79 67 79 -9999 -9999 -9999 -9999 67 67 79 -9999 67 79 79 -9999 79 79 79 79 79 79 67 -9999 79 79 79 79 79 66 -9999 79 79 79 66 66 -9999 79 -9999 67 -9999 67 -9999 -9999 -9999 -9999 -9999 -9999 66 -9999 79 79 -9999 -9999 79 79 67 66 67 79 67 79 -9999 -9999 -9999 -9999 -9999 -9999 -9999 -9999 -9999 -9999 -9999 -9999 -9999 79 -9999 -9999 66 79 -9999 -9999 66 66 -9999 -9999 -9999 -9999 -9999 -9999 -9999 -9999 -9999 -9999 -9999 -9999 -9999 -9999 -9999 -9999 -9999 -9999 -9999 -9999 -9999 -9999 -9999 -9999 -9999 -9999 -9999 -9999 79 -9999 -9999 -9999 -9999 -9999 -9999 -9999 -9999 -9999 -9999 -9999 -9999 -9999 -9999 -9999 -9999 -9999 -9999 -9999 -9999 -9999 -9999 -9999 79 -9999 -9999 -9999 79 79 79 79 79 79 79 66 66 81 81 81 81 81 81 79 79 79 67 66 66 66 -9999 -9999 -9999 -9999 -9999 -9999 -9999 -9999 -9999 -9999 -9999 79 66 66 66 66 79 79 66 66 66 66 66 -9999 -9999 79 79 66 66 66 66 66 66 66 66 66 66 66 66 66 66 66 66 66 66 66 66 66 66 66 66 66 66 66 66 66 66 66 66 66 66 66 66 66 66
66 66 66 66 66 66 66 79 79 66 66 66 66 66 66 79 79 79 79 79 -9999 66 66 66 66 66 66 66 -9999 66 79 67 67 67 67 -9999 -9999 79 -9999 66 79 -9999 79 67 -9999 -9999 -9999 -9999 79 67 -9999 -9999 -9999 67 67 67 79 -9999 -9999 -9999 -9999 -9999 67 67 67 -9999 -9999 -9999 -9999 67 -9999 -9999 79 79 79 -9999 79 67 67 66 66 66 67 -9999 66 66 66 66 67 66 -9999 67 67 67 66 66 67 79 -9999 67 -9999 67 66 67 79 -9999 -9999 -9999 -9999 -9999 -9999 79 -9999 -9999 -9999 66 79 79 67 67 -9999 66 66 -9999 79 -9999 67 -9999 -9999 -9999 -9999 -9999 66 -9999 79 -9999 -9999 -9999 79 -9999 -9999 -9999 66 66 -9999 67 79 -9999 -9999 -9999 -9999 -9999 -9999 -9999 -9999 -9999 -9999 -9999 -9999 -9999 -9999 -9999 -9999 -9999 -9999 -9999 -9999 -9999 -9999 -9999 -9999 -9999 -9999 -9999 -9999 -9999 -9999 -9999 -9999 -9999 -9999 -9999 -9999 -9999 -9999 -9999 -9999 -9999 -9999 -9999 -9999 -9999 79 79 79 79 -9999 -9999 79 79 79 79 66 66 66 66 66 66 66 66 66 79 79 66 79 79 79 79 79 79 79 79 -9999 66 66 79 79 79 79 -9999 66 66 66 79 79 79 67 67 67 79 79 79 66 66 66 66 -9999 -9999 -9999 79 66 66 66 66 66 66 66 66 66 66 66 66 66 66 66 66 66 66 66 66 66 66 66 66 66 66 66 66 66 66 66 66 66 79 79 66 66
79 66 66 66 66 66 67 67 79 66 66 66 79 79 79 79 79 79 79 79 -9999 -9999 66 66 66 66 66 -9999 -9999 67 79 67 67 67 66 67 66 66 67 67 79 79 79 79 -9999 79 -9999 -9999 79 79 79 -9999 -9999 67 -9999 79 79 -9999 -9999 -9999 -9999 -9999 79 67 79 -9999 -9999 -9999 -9999 79 79 -9999 79 79 -9999 -9999 -9999 79 79 66 66 -9999 67 -9999 -9999 66 66 67 67 -9999 -9999 67 -9999 66 79 67 -9999 -9999 -9999 66 67 66 66 67 79 -9999 -9999 -9999 -9999 -9999 -9999 -9999 -9999 -9999 -9999 79 -9999 67 79 67 67 66 66 -9999 66 67 -9999 -9999 -9999 -9999 -9999 -9999 -9999 -9999 79 -9999 -9999 -9999 66 66 -9999 -9999 79 66 -9999 79 79 -9999 -9999 -9999 -9999 -9999 -9999 -9999 -9999 -9999 -9999 -9999 -9999 -9999 -9999 -9999 -9999 -9999 -9999 -9999 -9999 -9999 -9999 -9999 -9999 -9999 -9999 -9999 -9999 66 79 79 67 67 79 -9999 -9999 -9999 -9999 -9999 -9999 -9999 -9999 -9999 -9999 79 66 79 -9999 -9999 -9999 79 66 -9999 -9999 67 67 66 66 66 66 66 66 66 66 79 67 79 67 79 79 79 79 79 79 -9999 -9999 79 79 66 -9999 67 -9999 66 79 79 67 -9999 -9999 79 67 -9999 67 79 -9999 -9999 79 66 66 66 66 -9999 -9999 -9999 -9999 66 66 66 66 66 66 66 66 66 66 66 66 66 66 66 66 66 66 66 66 66 66 66 66 66 66 66 66 66 66 66 79 79 79 79 66
79 79 79 79 79 79 79 67 66 66 66 79 79 79 79 79 79 79 79 79 79 -9999 66 66 66 66 66 -9999 79 67 -9999 79 79 -9999 67 79 79 -9999 67 79 66 79 79 79 67 -9999 -9999 67 -9999 67 67 79 -9999 67 67 67 79 67 -9999 -9999 67 67 67 67 67 67 -9999 -9999 -9999 67 79 -9999 -9999 -9999 -9999 -9999 67 66 66 66 66 79 79 -9999 66 79 67 67 79 66 -9999 66 66 67 66 67 79 -9999 -9999 66 79 79 67 -9999 66 -9999 -9999 -9999 -9999 -9999 66 -9999 -9999 -9999 -9999 -9999 -9999 67 79 66 66 -9999 -9999 -9999 66 -9999 66 -9999 66 -9999 -9999 -9999 -9999 -9999 -9999 -9999 -9999 -9999 66 66 66 79 79 66 -9999 67 67 -9999 66 -9999 66 -9999 -9999 -9999 -9999 -9999 -9999 -9999 -9999 -9999 -9999 66 66 -9999 -9999 -9999 -9999 -9999 -9999 -9999 -9999 -9999 -9999 -9999 -9999 66 79 66 66 66 -9999 -9999 -9999 -9999 -9999 -9999 -9999 -9999 -9999 -9999 -9999 -9999 79 -9999 -9999 -9999 79 -9999 66 -9999 -9999 -9999 -9999 66 66 -9999 -9999 67 79 79 79 79 -9999 -9999 66 79 79 79 79 79 -9999 -9999 66 -9999 79 79 79 66 79 67 -9999 -9999 67 79 79 66 79 79 79 67 67 67 -9999 -9999 -9999 -9999 -9999 -9999 66 66 -9999 -9999 -9999 -9999 66 66 66 66 66 66 66 66 66 66 66 66 66 66 66 66 66 66 66 66 66 66 66 66 66 66 66 79 79 79 79 79 66
79 79 79 79 79 79 79 66 66 66 66 79 79 79 79 79 79 79 79 79 79 -9999 66 66 66 66 66 -9999 79 67 79 79 -9999 -9999 67 -9999 -9999 79 -9999 -9999 -9999 67 79 79 -9999 -9999 -9999 -9999 67 67 67 -9999 -9999 79 -9999 67 67 -9999 -9999 -9999 -9999 -9999 79 67 -9999 -9999 -9999 -9999 -9999 67 -9999 -9999 67 67 -9999 -9999 -9999 66 79 67 67 -9999 79 -9999 67 66 66 67 66 66 -9999 79 -9999 -9999 79 66 67 67 -9999 66 66 -9999 66 79 79 67 79 -9999 -9999 -9999 -9999 -9999 -9999 -9999 -9999 -9999 -9999 -9999 -9999 66 66 67 -9999 66 66 79 -9999 -9999 79 67 79 66 -9999 -9999 -9999 -9999 -9999 -9999 -9999 79 66 67 -9999 66 -9999 79 -9999 66 66 -9999 -9999 -9999 -9999 -9999 -9999 -9999 -9999 -9999 -9999 -9999 -9999 79 -9999 -9999 -9999 -9999 -9999 -9999 -9999 -9999 -9999 -9999 -9999 -9999 -9999 67 79 67 66 66 -9999 -9999 -9999 -9999 -9999 -9999 -9999 -9999 -9999 -9999 -9999 -9999 -9999 -9999 -9999 -9999 -9999 -9999 -9999 -9999 -9999 -9999 -9999 -9999 79 67 67 79 67 79 -9999 -9999 79 79 -9999 -9999 -9999 -9999 -9999 -9999 -9999 -9999 -9999 -9999 -9999 -9999 -9999 -9999 -9999 -9999 -9999 -9999 -9999 -9999 -9999 -9999 -9999 -9999 -9999 -9999 -9999 -9999 -9999 67 -9999 -9999 66 -9999 66 66 66 66 66 -9999 -9999 -9999 -9999 -9999 -9999 66 66 66 66 66 66 66 66 66 66 66 66 66 66 66 66 66 66 79 79 66 66 79 79 79 79 79 66
79 79 79 79 79 79 79 66 66 66 66 79 79 79 79 79 79 79 79 79 79 -9999 66 66 66 66 79 -9999 -9999 -9999 -9999 -9999 -9999 -9999 -9999 -9999 79 -9999 79 79 -9999 79 79 79 67 -9999 -9999 67 67 67 79 -9999 -9999 67 67 79 79 -9999 67 -9999 -9999 67 66 67 67 67 -9999 67 67 67 -9999 -9999 79 67 -9999 -9999 -9999 66 79 66 79 79 79 -9999 -9999 66 79 67 67 -9999 -9999 79 -9999 66 66 66 67 67 -9999 -9999 -9999 66 66 -9999 67 79 79 -9999 -9999 -9999 -9999 79 -9999 -9999 -9999 66 -9999 67 -9999 -9999 -9999 -9999 -9999 -9999 -9999 -9999 -9999 -9999 66 67 67 -9999 -9999 67 66 -9999 -9999 -9999 -9999 -9999 79 66 66 -9999 -9999 79 67 79 66 -9999 -9999 -9999 -9999 -9999 -9999 -9999 -9999 -9999 -9999 79 66 -9999 79 -9999 -9999 -9999 -9999 -9999 -9999 -9999 -9999 -9999 -9999 -9999 -9999 67 66 67 66 66 79 -9999 -9999 -9999 -9999 -9999 -9999 -9999 -9999 -9999 -9999 -9999 -9999 -9999 -9999 -9999 -9999 -9999 -9999 -9999 -9999 -9999 -9999 -9999 -9999 -9999 -9999 -9999 -9999 -9999 -9999 -9999 -9999 -9999 -9999 79 79 79 79 79 -9999 79 -9999 -9999 67 -9999 -9999 -9999 -9999 67 -9999 79 -9999 -9999 67 67 -9999 -9999 -9999 -9999 -9999 79 66 79 67 79 -9999 -9999 66 66 66 66 66 66 66 66 66 66 -9999 -9999 -9999 -9999 66 66 66 66 66 66 66 66 66 66 66 66 79 66 66 79 79 66 66 -9999 66 79 79 79 66
79 79 79 79 79 79 66 66 66 66 79 79 79 79 79 79 79 79 79 79 79 -9999 -9999 66 79 79 79 -9999 79 79 79 79 -9999 79 79 -9999 -9999 -9999 -9999 -9999 79 66 79 79 -9999 -9999 -9999 -9999 79 67 -9999 -9999 -9999 67 -9999 -9999 67 -9999 67 -9999 -9999 79 66 79 -9999 -9999 -9999 -9999 67 67 -9999 -9999 79 79 -9999 79 66 67 67 66 67 67 79 -9999 79 66 79 66 66 67 -9999 66 66 66 67 -9999 -9999 -9999 -9999 66 -9999 -9999 -9999 -9999 66 79 -9999 -9999 -9999 -9999 -9999 67 -9999 79 79 66 66 -9999 66 -9999 -9999 -9999 -9999 -9999 -9999 -9999 -9999 79 -9999 -9999 -9999 -9999 -9999 66 79 -9999 -9999 -9999 -9999 -9999 -9999 67 66 66 -9999 79 -9999 79 79 -9999 -9999 -9999 -9999 -9999 -9999 67 -9999 -9999 -9999 66 66 -9999 -9999 -9999 -9999 -9999 -9999 -9999 -9999 -9999 -9999 -9999 -9999 -9999 -9999 66 79 79 66 66 79 -9999 -9999 -9999 -9999 -9999 -9999 -9999 -9999 -9999 -9999 -9999 -9999 -9999 -9999 66 -9999 -9999 -9999 66 79 66 -9999 -9999 79 79 -9999 -9999 79 79 79 79 79 79 79 79 79 79 79 79 -9999 79 66 -9999 -9999 -9999 -9999 -9999 -9999 79 79 -9999 67 -9999 66 -9999 -9999 -9999 -9999 -9999 -9999 79 66 -9999 67 -9999 -9999 -9999 66 66 66 66 66 66 66 66 66 66 66 66 66 -9999 -9999 -9999 -9999 66 66 66 66 66 66 66 66 66 79 66 66 79 -9999 79 -9999 -9999 -9999 79 79 79 66
79 79 79 79 79 79 66 66 66 66 79 79 79 79 79 79 79 79 79 79 79 79 -9999 66 66 66 79 -9999 79 79 -9999 -9999 -9999 79 79 79 79 79 -9999 -9999 79 79 66 66 -9999 -9999 67 -9999 79 79 79 -9999 -9999 67 -9999 66 66 -9999 67 -9999 -9999 79 79 79 67 79 -9999 -9999 79 67 67 -9999 -9999 -9999 -9999 -9999 -9999 67 67 67 79 -9999 79 -9999 79 67 79 66 66 -9999 -9999 79 -9999 66 67 67 79 -9999 -9999 66 66 66 66 -9999 -9999 -9999 -9999 -9999 -9999 -9999 -9999 79 79 66 66 66 66 79 -9999 67 79 -9999 66 66 -9999 -9999 -9999 67 79 -9999 -9999 -9999 -9999 79 79 -9999 -9999 -9999 -9999 79 67 -9999 -9999 -9999 -9999 -9999 67 66 -9999 -9999 -9999 -9999 -9999 -9999 -9999 -9999 -9999 -9999 -9999 -9999 -9999 -9999 -9999 -9999 -9999 -9999 -9999 -9999 -9999 -9999 -9999 -9999 -9999 -9999 66 66 66 66 66 66 79 -9999 -9999 -9999 -9999 -9999 79 -9999 -9999 -9999 -9999 -9999 -9999 -9999 -9999 -9999 -9999 66 -9999 -9999 -9999 79 -9999 -9999 79 79 -9999 -9999 79 -9999 -9999 -9999 67 79 79 79 86 86 -9999 66 -9999 66 66 67 -9999 -9999 -9999 -9999 79 66 66 67 67 79 66 66 -9999 -9999 -9999 -9999 -9999 -9999 -9999 -9999 -9999 -9999 67 79 66 66 79 79 79 79 66 66 79 66 -9999 -9999 79 66 66 66 -9999 -9999 -9999 79 79 -9999 -9999 66 66 79 -9999 67 67 79 -9999 -9999 67 79 79 66 79 79 66
66 79 79 79 79 66 66 66 66 66 66 66 79 79 79 79 79 79 79 79 79 79 -9999 66 66 66 66 -9999 79 79 -9999 -9999 66 79 79 79 79 66 -9999 -9999 79 79 66 -9999 -9999 -9999 79 79 67 67 67 67 -9999 67 67 66 66 67 66 -9999 67 67 66 67 -9999 -9999 -9999 -9999 67 79 -9999 79 66 67 -9999 67 67 67 79 66 79 66 79 -9999 -9999 66 79 67 67 -9999 -9999 66 67 79 67 66 66 66 -9999 66 66 66 66 66 66 66 -9999 -9999 -9999 -9999 79 -9999 67 -9999 66 66 66 66 -9999 -9999 -9999 -9999 -9999 79 66 -9999 -9999 -9999 -9999 -9999 -9999 -9999 -9999 -9999 -9999 -9999 -9999 -9999 79 67 67 -9999 -9999 -9999 -9999 -9999 -9999 79 79 -9999 -9999 -9999 66 -9999 -9999 -9999 -9999 -9999 -9999 -9999 79 79 -9999 -9999 -9999 -9999 -9999 -9999 -9999 -9999 -9999 -9999 -9999 -9999 79 79 66 66 66 79 79 -9999 -9999 -9999 -9999 -9999 -9999 -9999 -9999 -9999 -9999 -9999 -9999 -9999 -9999 66 -9999 -9999 -9999 66 -9999 -9999 -9999 -9999 79 79 -9999 -9999 -9999 79 79 79 79 79 79 79 -9999 79 66 79 -9999 -9999 67 67 66 79 -9999 -9999 67 67 79 67 -9999 79 -9999 -9999 -9999 -9999 -9999 66 -9999 67 -9999 -9999 -9999 -9999 67 79 66 66 79 79 79 79 66 79 66 -9999 -9999 -9999 -9999 -9999 -9999 -9999 66 79 -9999 -9999 -9999 79 79 79 79 79 -9999 -9999 67 66 66 79 79 79 79 79 66 79 66
66 66 66 66 66 66 66 66 66 66 66 66 66 66 79 79 79 79 79 79 79 79 -9999 66 66 66 66 -9999 66 79 79 -9999 79 79 79 79 79 79 -9999 -9999 67 79 66 -9999 -9999 -9999 -9999 -9999 67 67 -9999 67 -9999 79 -9999 67 79 -9999 79 -9999 -9999 -9999 67 79 67 79 -9999 -9999 79 79 67 67 67 67 -9999 79 -9999 67 67 66 79 -9999 -9999 -9999 67 79 79 67 79 -9999 -9999 67 79 66 66 66 66 79 -9999 66 66 66 79 79 66 66 66 66 66 -9999 -9999 -9999 -9999 79 -9999 -9999 -9999 67 79 67 -9999 -9999 79 67 67 -9999 79 66 79 -9999 -9999 -9999 -9999 -9999 -9999 -9999 -9999 -9999 -9999 67 67 -9999 67 -9999 -9999 66 79 79 66 -9999 -9999 -9999 79 -9999 -9999 79 66 -9999 -9999 -9999 -9999 79 79 -9999 -9999 -9999 -9999 -9999 79 66 -9999 -9999 -9999 -9999 -9999 -9999 66 66 79 79 79 -9999 -9999 -9999 -9999 -9999 66 79 -9999 -9999 -9999 -9999 -9999 -9999 79 66 -9999 66 66 79 -9999 -9999 -9999 -9999 79 79 -9999 -9999 79 79 79 79 79 79 79 79 79 79 66 66 -9999 66 66 79 -9999 79 -9999 -9999 -9999 67 79 67 67 -9999 66 -9999 -9999 -9999 -9999 -9999 -9999 67 -9999 -9999 -9999 -9999 -9999 79 67 67 79 79 79 66 66 79 79 -9999 66 66 66 66 66 66 66 79 66 66 -9999 -9999 -9999 -9999 -9999 79 79 79 66 66 66 66 66 66 79 79 66 66 66
66 66 66 66 66 66 67 66 66 79 66 66 66 66 66 66 79 79 79 79 79 79 -9999 -9999 66 66 66 -9999 79 67 -9999 -9999 79 79 79 79 66 -9999 -9999 -9999 79 79 79 67 -9999 -9999 -9999 -9999 67 67 -9999 79 -9999 -9999 -9999 67 79 -9999 -9999 -9999 -9999 79 67 67 -9999 67 -9999 67 67 79 79 79 -9999 79 -9999 67 -9999 79 79 79 79 -9999 -9999 79 66 79 79 79 67 67 -9999 -9999 -9999 -9999 66 66 66 79 -9999 66 66 66 79 79 79 79 79 66 66 79 79 79 -9999 -9999 -9999 66 -9999 -9999 -9999 67 -9999 -9999 67 66 66 66 -9999 79 -9999 -9999 -9999 -9999 -9999 -9999 -9999 -9999 -9999 -9999 79 79 67 67 -9999 -9999 -9999 79 66 67 66 79 -9999 -9999 79 -9999 -9999 79 66 -9999 -9999 -9999 66 79 67 -9999 -9999 -9999 -9999 79 79 66 66 -9999 -9999 -9999 -9999 -9999 -9999 79 79 79 -9999 -9999 -9999 -9999 -9999 66 66 79 -9999 66 -9999 -9999 -9999 -9999 -9999 -9999 79 67 66 79 67 -9999 -9999 -9999 79 79 79 66 66 79 79 79 79 79 79 79 79 66 66 66 -9999 67 79 79 67 79 -9999 -9999 67 67 66 67 67 -9999 79 -9999 -9999 -9999 -9999 -9999 -9999 67 -9999 -9999 -9999 -9999 67 67 67 66 66 66 66 66 66 66 66 66 66 66 66 66 66 66 66 66 66 66 66 66 66 79 -9999 -9999 -9999 -9999 -9999 -9999 -9999 66 66 79 66 79 66 66 66
66 66 66 66 66 66 66 66 66 66 66 66 66 66 66 66 79 79 79 79 79 79 79 -9999 66 66 66 -9999 79 67 -9999 -9999 -9999 79 79 79 79 -9999 79 79 67 79 79 -9999 -9999 67 79 -9999 79 67 79 79 -9999 67 67 67 67 67 79 -9999 79 79 67 79 67 -9999 -9999 -9999 79 66 66 67 79 -9999 -9999 79 67 67 66 67 79 67 -9999 79 -9999 66 79 79 79 79 -9999 66 79 67 67 66 66 -9999 -9999 66 66 66 66 79 79 66 66 66 66 79 79 -9999 79 66 -9999 -9999 -9999 -9999 67 -9999 -9999 66 66 66 -9999 67 79 -9999 -9999 -9999 -9999 -9999 -9999 -9999 -9999 -9999 -9999 -9999 79 79 79 79 -9999 -9999 -9999 -9999 -9999 79 66 66 66 -9999 66 -9999 -9999 66 -9999 -9999 -9999 -9999 -9999 79 79 66 -9999 -9999 -9999 79 79 -9999 66 -9999 -9999 -9999 -9999 -9999 -9999 79 66 79 -9999 -9999 -9999 79 79 79 79 66 -9999 66 -9999 66 79 -9999 79 -9999 -9999 -9999 -9999 -9999 66 -9999 -9999 -9999 66 79 79 66 66 79 79 79 79 79 79 79 79 66 66 66 -9999 67 -9999 79 67 -9999 -9999 -9999 79 -9999 79 79 67 -9999 79 67 67 -9999 -9999 -9999 -9999 67 -9999 -9999 67 79 66 66 67 66 66 66 66 66 66 66 66 66 66 66 66 66 66 66 66 66 66 66 66 79 79 79 66 66 66 66 66 66 -9999 -9999 -9999 -9999 -9999 -9999 66 66 66
66 66 66 66 66 66 66 79 66 66 66 66 66 66 66 66 66 79 79 79 79 79 79 -9999 66 66 66 -9999 79 67 67 67 -9999 -9999 -9999 -9999 -9999 -9999 67 -9999 79 79 67 67 -9999 67 -9999 67 79 67 -9999 -9999 79 -9999 -9999 67 -9999 -9999 79 79 -9999 -9999 67 66 67 79 -9999 67 67 66 66 79 -9999 67 -9999 79 -9999 79 67 79 66 -9999 -9999 79 79 79 67 79 79 -9999 -9999 79 -9999 -9999 67 66 79 -9999 -9999 66 66 66 66 79 66 66 66 66 66 79 -9999 -9999 -9999 86 -9999 66 66 -9999 -9999 -9999 -9999 -9999 66 -9999 -9999 66 -9999 -9999 67 -9999 -9999 79 79 -9999 -9999 -9999 -9999 79 79 79 67 67 67 67 -9999 79 66 66 66 66 66 66 66 -9999 -9999 66 -9999 -9999 -9999 -9999 -9999 -9999 -9999 -9999 -9999 -9999 -9999 -9999 79 -9999 -9999 -9999 -9999 -9999 -9999 -9999 -9999 -9999 66 -9999 -9999 -9999 79 79 -9999 -9999 -9999 67 -9999 -9999 -9999 -9999 -9999 -9999 66 -9999 66 66 66 79 66 -9999 -9999 -9999 66 66 79 79 79 79 79 79 79 79 79 79 79 66 66 66 -9999 -9999 -9999 79 67 79 -9999 -9999 -9999 -9999 79 79 -9999 -9999 -9999 -9999 79 67 -9999 -9999 -9999 67 66 66 66 66 66 66 66 66 66 83 83 66 66 66 66 66 66 66 66 66 66 66 66 66 66 79 79 79 79 79 66 66 66 66 66 66 66 66 66 66 79 -9999 -9999 -9999 -9999
66 66 66 66 66 66 66 66 66 66 66 66 66 66 66 66 66 66 79 79 79 79 79 -9999 66 66 66 -9999 79 79 -9999 -9999 -9999 -9999 -9999 79 -9999 66 67 -9999 79 79 79 67 79 79 67 67 67 67 67 67 79 79 67 67 67 66 67 67 79 67 66 67 -9999 -9999 -9999 -9999 -9999 67 67 79 -9999 -9999 -9999 -9999 66 79 67 67 67 79 -9999 67 67 67 66 66 67 67 -9999 79 66 66 67 -9999 67 -9999 -9999 -9999 -9999 -9999 66 66 66 66 66 66 79 79 86 -9999 -9999 -9999 -9999 -9999 -9999 -9999 79 -9999 -9999 -9999 -9999 79 79 -9999 -9999 66 79 -9999 -9999 66 66 -9999 -9999 -9999 -9999 66 66 79 67 -9999 -9999 67 -9999 66 -9999 66 66 66 66 66 66 -9999 -9999 79 -9999 66 -9999 -9999 -9999 -9999 -9999 -9999 -9999 -9999 -9999 -9999 66 -9999 66 79 -9999 -9999 -9999 -9999 -9999 -9999 -9999 -9999 79 -9999 -9999 -9999 -9999 -9999 -9999 79 79 66 79 66 -9999 -9999 -9999 -9999 -9999 79 79 -9999 -9999 67 66 -9999 66 66 79 79 79 79 79 79 79 79 79 79 79 79 66 66 79 -9999 -9999 79 67 79 79 -9999 -9999 79 67 79 -9999 67 79 79 -9999 -9999 67 67 -9999 66 66 66 66 66 66 83 83 83 83 83 83 66 66 66 66 66 66 66 66 66 66 66 66 66 66 79 79 79 79 79 66 66 66 66 66 66 66 66 66 79 79 66 66 79 -9999
66 66 66 66 66 66 66 66 79 66 66 66 79 79 66 66 66 66 79 79 79 79 79 -9999 -9999 66 66 -9999 -9999 79 79 79 67 66 79 66 79 79 67 79 79 79 79 66 66 79 79 79 66 79 79 66 79 79 79 79 79 79 79 79 79 79 79 67 -9999 -9999 -9999 -9999 67 67 -9999 67 -9999 -9999 -9999 -9999 -9999 79 79 79 -9999 79 -9999 79 -9999 79 66 66 66 -9999 -9999 66 66 66 66 79 66 -9999 -9999 67 67 -9999 -9999 -9999 -9999 66 66 66 79 -9999 -9999 -9999 -9999 -9999 -9999 -9999 -9999 -9999 -9999 -9999 79 79 -9999 -9999 -9999 -9999 -9999 -9999 -9999 -9999 -9999 66 79 -9999 -9999 66 67 79 79 -9999 67 -9999 79 66 -9999 -9999 -9999 66 66 66 -9999 67 -9999 -9999 79 66 -9999 -9999 66 -9999 -9999 -9999 -9999 79 79 66 -9999 -9999 -9999 66 79 79 -9999 -9999 -9999 -9999 -9999 -9999 -9999 66 66 -9999 -9999 -9999 79 66 79 67 79 79 79 79 -9999 -9999 -9999 79 -9999 79 79 -9999 -9999 79 67 -9999 66 66 79 79 79 79 79 79 79 79 79 79 79 79 66 66 79 -9999 79 66 66 79 66 66 -9999 66 66 66 66 79 79 67 -9999 -9999 79 79 79 79 66 66 66 83 83 83 83 83 83 83 83 66 66 66 66 66 66 66 66 66 66 66 66 66 66 66 79 66 66 66 66 66 66 66 66 66 66 66 66 66 66 66 66 66 66
66 66 66 79 66 66 66 66 66 66 66 79 79 79 79 66 66 79 79 79 79 79 79 79 -9999 66 66 79 -9999 79 79 66 79 79 79 79 79 79 79 79 79 79 79 79 79 79 79 79 79 86 86 86 79 79 66 66 79 66 79 79 79 79 79 79 -9999 -9999 -9999 -9999 -9999 67 79 79 -9999 -9999 -9999 79 79 79 79 67 79 -9999 -9999 66 66 66 67 66 79 -9999 -9999 66 -9999 79 79 67 79 79 -9999 79 -9999 -9999 79 66 -9999 -9999 -9999 -9999 79 79 -9999 -9999 -9999 -9999 -9999 -9999 -9999 -9999 -9999 -9999 -9999 -9999 79 -9999 79 -9999 -9999 -9999 -9999 67 -9999 66 -9999 -9999 -9999 -9999 -9999 -9999 -9999 67 -9999 -9999 79 79 -9999 -9999 -9999 -9999 -9999 79 -9999 -9999 -9999 -9999 79 67 -9999 -9999 -9999 -9999 66 79 67 79 66 86 66 -9999 66 67 67 66 79 -9999 -9999 -9999 -9999 -9999 66 66 66 -9999 -9999 67 -9999 -9999 -9999 66 66 79 -9999 79 79 -9999 -9999 67 67 67 79 -9999 -9999 66 79 -9999 79 66 79 79 79 79 79 79 79 79 79 79 79 79 79 79 79 -9999 66 66 66 66 66 66 66 66 66 66 66 79 79 79 79 79 79 79 79 79 79 66 83 83 83 83 83 83 83 83 66 66 66 66 66 66 66 66 66 66 66 66 66 66 66 66 66 66 66 66 66 66 66 66 66 66 66 66 66 66 66 66 66 66 66
66 66 67 79 79 79 66 66 66 66 66 79 79 79 79 79 79 79 79 79 79 79 79 79 -9999 66 66 66 -9999 79 66 79 79 79 79 79 79 79 79 79 79 66 79 79 79 79 79 79 79 86 86 -9999 79 79 66 79 79 79 79 79 79 79 66 66 -9999 67 -9999 -9999 79 67 67 67 -9999 -9999 -9999 79 67 -9999 67 66 67 67 -9999 66 66 66 66 66 66 66 -9999 66 66 66 66 67 67 67 -9999 67 79 66 66 -9999 79 -9999 79 -9999 -9999 -9999 -9999 86 86 86 -9999 -9999 -9999 -9999 -9999 -9999 -9999 -9999 66 66 -9999 -9999 -9999 -9999 -9999 -9999 -9999 -9999 -9999 -9999 -9999 -9999 -9999 -9999 67 67 67 66 66 67 -9999 -9999 66 -9999 79 79 67 -9999 -9999 -9999 -9999 -9999 -9999 -9999 -9999 -9999 -9999 -9999 67 -9999 86 86 66 -9999 -9999 -9999 -9999 -9999 -9999 -9999 -9999 -9999 79 -9999 -9999 79 79 -9999 79 66 66 66 66 79 79 79 79 79 79 -9999 -9999 -9999 -9999 -9999 79 66 79 -9999 -9999 -9999 -9999 66 79 79 79 79 79 79 79 79 79 79 79 79 66 66 79 79 66 66 66 66 66 66 66 66 66 66 66 79 79 79 79 79 79 66 79 79 79 89 83 83 83 83 83 83 83 66 66 66 66 66 66 66 66 66 66 66 66 66 66 66 66 66 66 66 66 66 66 66 66 66 66 66 66 66 66 66 66 66 66 66 66
66 66 79 79 79 79 66 66 66 66 66 79 79 79 79 79 79 79 79 79 79 79 79 79 -9999 -9999 66 66 -9999 79 66 66 79 79 79 79 79 66 79 67 79 79 79 79 79 79 79 79 79 -9999 -9999 79 79 79 79 79 79 79 79 79 79 79 66 -9999 79 79 -9999 67 -9999 67 67 79 -9999 -9999 -9999 67 -9999 79 66 67 -9999 66 -9999 -9999 -9999 66 66 66 -9999 66 -9999 66 -9999 66 66 -9999 66 -9999 -9999 79 79 79 79 79 67 -9999 79 79 -9999 79 -9999 -9999 -9999 -9999 -9999 -9999 86 -9999 67 67 -9999 66 66 66 66 67 -9999 79 66 66 66 -9999 -9999 -9999 -9999 -9999 -9999 -9999 79 67 -9999 66 -9999 67 -9999 -9999 -9999 79 67 79 66 79 -9999 -9999 -9999 -9999 -9999 -9999 -9999 -9999 -9999 -9999 -9999 -9999 -9999 -9999 -9999 -9999 -9999 -9999 -9999 66 66 -9999 -9999 79 66 79 -9999 66 66 -9999 -9999 79 79 -9999 -9999 -9999 66 79 79 -9999 -9999 -9999 -9999 -9999 -9999 66 -9999 -9999 -9999 66 79 79 79 79 79 79 79 79 79 79 -9999 79 79 79 79 79 79 66 66 66 66 66 66 66 66 66 66 66 66 66 66 79 79 79 79 79 79 66 79 89 89 -9999 -9999 83 83 83 83 66 66 66 66 66 66 66 66 66 66 66 66 66 66 66 66 66 66 66 66 66 66 66 66 66 66 66 66 66 66 66 66 66 66 66 66 66 66
66 66 79 79 79 66 66 66 66 66 66 66 79 79 79 79 79 79 79 79 79 79 79 79 79 -9999 66 66 -9999 -9999 66 79 79 67 67 79 67 -9999 79 -9999 79 79 79 79 79 79 79 79 79 79 79 79 79 79 79 79 79 79 79 79 79 79 79 67 -9999 66 -9999 67 -9999 79 79 79 -9999 -9999 -9999 67 66 66 66 66 66 66 -9999 66 79 66 66 66 79 67 -9999 66 66 66 66 66 67 67 -9999 79 -9999 -9999 79 67 67 79 79 -9999 -9999 -9999 66 -9999 -9999 -9999 -9999 -9999 -9999 -9999 67 -9999 -9999 -9999 66 -9999 66 -9999 79 66 66 66 66 66 79 -9999 -9999 -9999 -9999 -9999 -9999 66 -9999 67 -9999 -9999 -9999 -9999 -9999 -9999 79 79 67 -9999 -9999 -9999 -9999 -9999 -9999 -9999 -9999 -9999 -9999 66 -9999 -9999 -9999 -9999 -9999 -9999 -9999 -9999 -9999 66 -9999 -9999 66 79 79 66 -9999 66 66 -9999 -9999 66 66 79 -9999 66 66 -9999 -9999 -9999 -9999 79 -9999 79 -9999 66 -9999 79 79 -9999 -9999 -9999 -9999 -9999 79 79 79 79 79 79 79 79 79 79 79 79 79 66 66 66 66 66 66 66 66 66 66 66 66 66 66 79 79 79 79 79 79 83 83 -9999 -9999 -9999 89 83 83 66 66 66 66 66 66 66 66 66 66 66 66 66 66 66 66 66 66 66 66 66 66 66 66 66 66 66 66 66 66 66 66 66 66 66 66 66 66 66 66
66 66 79 66 66 66 66 66 66 66 66 66 79 79 79 79 79 79 79 79 66 66 79 79 79 -9999 66 66 66 -9999 79 79 79 -9999 67 -9999 -9999 -9999 79 67 67 79 79 79 79 79 79 79 79 79 79 79 79 79 79 79 79 79 79 79 79 79 79 67 79 66 79 79 79 66 66 66 79 -9999 -9999 79 67 67 66 66 66 66 -9999 -9999 -9999 -9999 -9999 -9999 -9999 -9999 -9999 -9999 -9999 -9999 -9999 -9999 -9999 -9999 -9999 79 79 79 79 67 -9999 -9999 -9999 67 -9999 -9999 -9999 -9999 -9999 -9999 -9999 -9999 -9999 -9999 -9999 -9999 -9999 67 67 67 79 66 66 66 66 66 66 -9999 79 -9999 -9999 -9999 -9999 -9999 -9999 -9999 -9999 67 79 66 -9999 66 -9999 -9999 66 -9999 -9999 -9999 -9999 -9999 -9999 -9999 -9999 -9999 -9999 66 -9999 -9999 -9999 -9999 -9999 -9999 79 -9999 -9999 -9999 -9999 -9999 -9999 79 66 79 79 66 -9999 79 79 -9999 -9999 79 -9999 -9999 -9999 -9999 -9999 -9999 79 67 -9999 67 -9999 66 -9999 79 67 79 66 67 67 67 -9999 -9999 79 79 66 79 79 79 79 79 79 79 67 79 -9999 66 66 66 66 66 66 66 66 66 66 66 66 66 66 79 79 79 89 89 89 83 83 83 83 83 83 66 66 66 66 66 66 66 66 66 66 66 66 66 66 66 66 66 66 66 66 66 66 66 66 66 66 66 66 66 66 66 66 66 66 66 66 66 66 66 66 66 66
66 66 66 66 66 66 66 66 66 66 66 66 66 66 79 79 66 79 79 66 66 66 79 79 79 -9999 79 66 66 -9999 79 79 79 79 79 -9999 -9999 -9999 -9999 -9999 79 79 79 79 79 79 79 66 66 79 79 79 79 79 79 79 79 79 79 79 79 79 66 79 79 -9999 -9999 -9999 -9999 -9999 -9999 -9999 -9999 -9999 -9999 -9999 -9999 -9999 -9999 -9999 -9999 -9999 -9999 -9999 -9999 -9999 66 66 79 79 66 79 66 66 -9999 -9999 67 67 -9999 -9999 -9999 -9999 66 66 79 -9999 -9999 -9999 67 66 66 66 66 -9999 -9999 66 -9999 -9999 -9999 -9999 -9999 -9999 -9999 -9999 -9999 66 66 66 66 79 66 -9999 -9999 -9999 -9999 -9999 79 -9999 -9999 -9999 -9999 -9999 -9999 -9999 -9999 -9999 -9999 -9999 -9999 -9999 -9999 -9999 -9999 -9999 -9999 -9999 -9999 -9999 -9999 -9999 -9999 -9999 -9999 -9999 -9999 67 67 -9999 -9999 -9999 -9999 -9999 66 -9999 -9999 79 79 66 -9999 -9999 79 -9999 -9999 -9999 -9999 66 -9999 -9999 -9999 67 -9999 67 67 79 -9999 -9999 79 79 79 79 -9999 -9999 -9999 79 67 -9999 79 79 79 66 79 79 79 79 79 79 79 79 79 66 66 66 66 66 66 66 66 66 66 66 66 66 83 89 89 89 89 89 83 83 83 83 83 66 66 66 66 66 66 66 66 66 66 66 66 66 66 66 66 66 66 66 66 66 66 66 66 66 66 66 66 66 66 66 66 66 66 66 66 66 66 66 66 66 66 66 66
66 66 79 66 66 66 66 66 66 66 66 79 66 66 66 66 66 66 79 66 79 79 79 79 79 -9999 -9999 66 66 -9999 79 67 67 -9999 -9999 -9999 79 79 -9999 -9999 67 79 79 66 79 79 66 66 66 79 66 66 79 79 79 79 79 79 79 79 79 79 66 -9999 -9999 -9999 -9999 -9999 -9999 67 66 -9999 -9999 67 -9999 66 -9999 -9999 67 67 -9999 79 -9999 66 -9999 79 79 79 79 79 86 86 86 86 -9999 -9999 79 -9999 -9999 79 66 -9999 -9999 -9999 -9999 66 79 67 66 -9999 79 79 67 -9999 -9999 -9999 -9999 67 -9999 -9999 -9999 -9999 -9999 -9999 -9999 67 66 66 -9999 -9999 79 -9999 -9999 -9999 -9999 -9999 79 -9999 -9999 -9999 -9999 -9999 -9999 -9999 -9999 -9999 -9999 -9999 -9999 67 79 79 -9999 -9999 -9999 -9999 -9999 79 -9999 -9999 -9999 -9999 -9999 -9999 67 66 66 -9999 -9999 -9999 -9999 -9999 79 -9999 -9999 66 79 79 -9999 -9999 66 -9999 -9999 -9999 -9999 -9999 -9999 67 -9999 -9999 67 79 67 -9999 -9999 -9999 -9999 -9999 -9999 66 -9999 79 79 66 79 -9999 79 79 -9999 -9999 79 79 79 79 79 79 79 79 79 66 66 66 66 66 66 66 66 66 66 66 89 83 83 83 83 83 83 83 83 83 83 66 66 66 66 66 66 66 66 66 66 66 66 66 66 66 66 66 66 66 66 66 66 66 66 66 66 66 66 66 66 66 66 66 66 66 66 66 66 66 66 66 66 66 66 66 66
79 66 66 66 66 66 66 66 66 66 66 66 66 66 66 66 66 66 79 79 79 79 79 79 79 79 -9999 66 66 -9999 -9999 66 79 -9999 -9999 79 79 79 -9999 67 -9999 79 79 79 66 79 79 79 79 79 79 79 79 79 79 79 79 79 79 -9999 66 67 66 79 -9999 -9999 -9999 66 67 67 79 67 66 66 -9999 79 79 -9999 67 67 66 79 -9999 66 -9999 79 -9999 -9999 -9999 -9999 -9999 -9999 -9999 -9999 -9999 66 79 67 -9999 66 66 -9999 -9999 -9999 -9999 -9999 -9999 -9999 66 -9999 79 79 79 -9999 -9999 -9999 -9999 66 -9999 -9999 66 -9999 -9999 -9999 -9999 -9999 -9999 -9999 -9999 -9999 -9999 -9999 -9999 -9999 66 -9999 67 67 -9999 -9999 -9999 -9999 66 -9999 -9999 -9999 -9999 -9999 -9999 67 66 67 79 -9999 -9999 -9999 -9999 79 -9999 79 79 -9999 -9999 -9999 -9999 66 79 -9999 -9999 -9999 -9999 -9999 -9999 66 -9999 79 79 66 79 -9999 66 66 -9999 -9999 -9999 -9999 -9999 -9999 66 67 67 79 79 -9999 79 -9999 -9999 79 79 79 79 79 -9999 -9999 -9999 -9999 -9999 -9999 -9999 -9999 79 79 79 79 79 79 79 79 79 66 66 66 66 66 66 66 66 66 83 83 83 83 83 83 83 83 83 83 83 66 66 66 66 66 66 66 66 66 66 66 66 66 66 66 66 66 66 66 79 66 66 66 66 66 66 66 66 66 66 66 66 66 66 66 66 66 66 66 66 66 66 66 66 66 66 66 66
66 66 66 66 66 66 66 66 66 66 66 66 66 66 66 66 66 66 79 79 79 79 79 79 79 79 -9999 66 66 66 -9999 66 67 -9999 -9999 79 79 79 -9999 67 66 67 79 79 66 66 66 79 79 66 -9999 -9999 67 67 67 67 79 67 67 -9999 -9999 79 67 67 -9999 -9999 -9999 67 -9999 67 79 66 66 66 -9999 79 67 67 67 79 67 79 -9999 66 -9999 79 66 -9999 -9999 -9999 -9999 -9999 -9999 -9999 66 -9999 -9999 79 -9999 67 79 79 66 79 -9999 79 79 -9999 -9999 -9999 -9999 66 66 -9999 -9999 -9999 79 79 67 66 66 -9999 67 -9999 -9999 -9999 -9999 -9999 -9999 -9999 -9999 -9999 -9999 -9999 -9999 -9999 -9999 66 -9999 -9999 67 -9999 -9999 -9999 -9999 -9999 -9999 -9999 -9999 -9999 -9999 -9999 -9999 -9999 -9999 -9999 -9999 -9999 -9999 79 66 66 -9999 -9999 -9999 -9999 -9999 -9999 -9999 -9999 79 -9999 -9999 66 -9999 66 66 66 66 66 66 -9999 -9999 -9999 -9999 -9999 79 79 67 -9999 -9999 79 79 79 79 -9999 -9999 -9999 -9999 -9999 -9999 -9999 -9999 -9999 -9999 -9999 -9999 -9999 -9999 -9999 79 79 79 79 79 79 79 79 79 66 66 66 66 66 66 66 66 89 89 83 83 83 83 83 83 83 83 66 66 66 66 66 66 66 66 66 66 66 66 66 66 66 66 66 66 66 79 79 66 66 66 66 66 66 66 66 66 66 66 66 66 66 66 66 66 66 66 66 66 66 66 66 66 66 66 66 66
66 66 66 66 66 66 66 66 66 66 66 66 66 66 66 66 66 66 79 79 79 79 79 79 79 79 -9999 79 66 66 -9999 79 67 -9999 -9999 -9999 79 79 -9999 -9999 -9999 79 79 79 66 79 79 79 66 66 -9999 -9999 67 -9999 -9999 -9999 -9999 -9999 67 -9999 -9999 79 67 67 -9999 -9999 -9999 -9999 79 67 79 79 -9999 79 -9999 -9999 -9999 79 79 79 -9999 -9999 -9999 66 -9999 66 66 -9999 -9999 -9999 -9999 -9999 -9999 -9999 66 79 79 67 -9999 -9999 67 79 67 67 79 66 79 -9999 66 -9999 -9999 -9999 -9999 -9999 -9999 -9999 -9999 -9999 -9999 79 79 66 67 67 -9999 -9999 -9999 -9999 -9999 -9999 -9999 -9999 -9999 -9999 -9999 -9999 -9999 66 -9999 67 -9999 -9999 79 -9999 -9999 -9999 -9999 -9999 -9999 -9999 -9999 -9999 -9999 -9999 -9999 -9999 -9999 -9999 -9999 -9999 -9999 -9999 -9999 -9999 -9999 -9999 -9999 -9999 -9999 -9999 -9999 -9999 -9999 79 -9999 -9999 66 -9999 -9999 -9999 -9999 -9999 -9999 67 -9999 79 67 67 67 79 67 -9999 -9999 -9999 -9999 -9999 -9999 -9999 -9999 -9999 -9999 -9999 -9999 -9999 -9999 -9999 -9999 -9999 66 -9999 79 79 -9999 79 79 79 79 79 79 66 66 66 66 79 79 79 89 89 89 89 83 83 83 83 83 66 66 66 66 66 66 66 66 66 66 66 66 66 66 66 66 66 66 66 66 66 79 66 66 66 66 66 66 66 66 66 66 66 66 66 66 66 66 66 66 66 66 66 66 66 66 66 66 66 66 66 66
66 66 66 66 66 66 66 66 66 66 66 66 66 66 66 66 66 66 79 79 79 79 79 79 79 79 -9999 -9999 66 66 -9999 79 79 -9999 67 -9999 79 79 79 -9999 -9999 79 79 66 79 79 79 79 66 79 79 67 -9999 -9999 -9999 -9999 -9999 -9999 -9999 -9999 67 67 67 79 67 -9999 -9999 67 79 66 66 66 67 67 -9999 67 67 66 66 67 67 67 -9999 66 -9999 66 66 79 -9999 -9999 -9999 -9999 -9999 -9999 -9999 67 79 -9999 -9999 -9999 79 67 -9999 67 -9999 67 67 67 67 -9999 -9999 -9999 -9999 -9999 -9999 -9999 -9999 -9999 -9999 -9999 66 67 67 66 67 79 79 -9999 -9999 -9999 -9999 -9999 -9999 -9999 -9999 -9999 -9999 -9999 -9999 79 -9999 -9999 -9999 -9999 -9999 -9999 -9999 -9999 -9999 -9999 -9999 -9999 -9999 -9999 -9999 -9999 -9999 -9999 -9999 -9999 -9999 -9999 -9999 -9999 -9999 -9999 -9999 -9999 -9999 79 66 -9999 -9999 -9999 -9999 -9999 66 -9999 -9999 -9999 -9999 67 -9999 67 67 67 79 -9999 -9999 -9999 -9999 -9999 79 79 67 -9999 66 -9999 -9999 -9999 -9999 -9999 -9999 -9999 -9999 -9999 -9999 79 -9999 -9999 79 79 -9999 79 79 79 79 79 66 66 66 66 83 89 89 89 89 89 83 83 83 83 83 66 66 66 66 66 66 66 66 66 66 66 66 66 66 66 66 66 66 66 66 66 66 66 79 66 79 66 66 66 66 66 66 66 66 66 66 66 66 66 66 66 66 66 66 66 66 66 66 66 66 66 66 66 66
66 66 66 66 66 66 66 79 66 66 66 66 66 66 66 66 79 79 79 79 79 79 79 79 79 79 79 -9999 79 66 -9999 -9999 79 79 -9999 -9999 -9999 -9999 -9999 -9999 67 -9999 79 79 79 79 79 66 79 79 -9999 -9999 -9999 79 67 -9999 79 79 -9999 -9999 -9999 -9999 67 79 -9999 -9999 -9999 -9999 -9999 66 66 66 79 67 -9999 -9999 67 -9999 66 79 -9999 -9999 -9999 66 -9999 66 66 -9999 -9999 -9999 66 -9999 -9999 -9999 -9999 66 79 -9999 79 -9999 66 67 79 67 67 -9999 67 -9999 67 -9999 67 79 -9999 -9999 -9999 -9999 -9999 -9999 -9999 -9999 66 -9999 67 67 67 79 -9999 -9999 -9999 -9999 -9999 -9999 -9999 66 66 -9999 -9999 -9999 -9999 79 -9999 -9999 -9999 -9999 -9999 -9999 -9999 -9999 -9999 -9999 -9999 -9999 -9999 -9999 -9999 -9999 -9999 -9999 -9999 -9999 -9999 -9999 -9999 -9999 -9999 -9999 -9999 -9999 79 66 66 -9999 -9999 -9999 66 -9999 -9999 -9999 -9999 79 -9999 -9999 79 67 67 -9999 79 -9999 -9999 -9999 -9999 -9999 67 -9999 -9999 -9999 -9999 -9999 -9999 -9999 -9999 -9999 -9999 67 67 79 -9999 79 -9999 79 79 79 79 79 79 79 79 79 79 66 66 83 83 89 89 83 83 83 83 83 83 66 66 66 66 66 66 66 66 66 66 66 66 66 66 66 66 66 66 66 66 66 66 66 66 66 79 79 79 66 66 66 66 66 66 66 66 66 66 66 66 66 66 66 66 66 66 66 66 66 66 66 66 66 66 66 66
79 66 66 66 66 66 66 79 66 66 66 66 66 66 66 79 79 79 79 79 79 79 79 79 79 79 79 -9999 79 66 66 -9999 -9999 -9999 -9999 -9999 79 79 66 -9999 67 -9999 -9999 79 79 66 79 79 79 79 79 -9999 -9999 -9999 67 -9999 79 -9999 -9999 66 67 -9999 67 79 -9999 -9999 -9999 -9999 79 67 66 -9999 -9999 66 -9999 79 79 79 79 67 67 67 -9999 66 -9999 67 66 66 79 79 66 -9999 -9999 -9999 66 66 79 66 79 -9999 -9999 79 67 79 67 -9999 67 67 67 -9999 67 67 67 -9999 -9999 -9999 -9999 -9999 -9999 -9999 -9999 -9999 66 79 -9999 66 -9999 -9999 -9999 -9999 -9999 -9999 66 -9999 -9999 -9999 66 -9999 66 -9999 -9999 -9999 -9999 -9999 -9999 -9999 -9999 -9999 -9999 -9999 -9999 -9999 -9999 -9999 -9999 -9999 -9999 -9999 -9999 -9999 -9999 66 -9999 -9999 66 -9999 66 67 66 66 66 -9999 -9999 -9999 -9999 -9999 -9999 -9999 -9999 79 79 79 67 67 -9999 -9999 -9999 -9999 -9999 67 -9999 79 67 67 -9999 -9999 -9999 -9999 -9999 -9999 -9999 -9999 -9999 67 -9999 -9999 -9999 -9999 -9999 -9999 66 79 79 79 79 79 81 81 81 81 83 83 83 83 83 83 83 83 66 66 66 66 66 66 66 66 66 66 66 66 66 66 66 66 66 66 66 66 66 66 66 66 66 66 66 66 66 66 66 66 66 66 66 66 66 66 66 66 66 66 66 66 66 66 66 66 66 66 66 66 66 66 66 66 66 66 66
79 79 66 66 66 66 66 66 66 66 66 66 66 66 66 79 79 79 79 79 79 79 79 79 79 79 79 -9999 79 66 66 -9999 79 67 -9999 67 -9999 -9999 66 79 67 67 67 67 -9999 67 79 79 79 79 79 -9999 67 -9999 79 67 67 -9999 -9999 79 -9999 67 -9999 -9999 67 -9999 -9999 -9999 67 66 66 67 67 79 -9999 67 -9999 67 66 66 79 67 -9999 66 -9999 -9999 79 66 66 66 66 -9999 -9999 -9999 -9999 66 79 -9999 -9999 -9999 66 66 79 -9999 -9999 67 79 79 67 -9999 -9999 -9999 79 -9999 -9999 -9999 -9999 -9999 66 -9999 -9999 -9999 -9999 -9999 -9999 -9999 -9999 79 79 67 -9999 -9999 66 -9999 -9999 -9999 66 -9999 -9999 -9999 -9999 -9999 -9999 -9999 -9999 -9999 -9999 -9999 -9999 -9999 -9999 -9999 -9999 -9999 -9999 -9999 -9999 -9999 -9999 -9999 -9999 -9999 -9999 -9999 -9999 -9999 -9999 66 66 79 79 66 -9999 -9999 -9999 -9999 66 -9999 67 79 67 67 -9999 -9999 67 -9999 -9999 67 -9999 -9999 67 67 79 67 -9999 -9999 -9999 -9999 -9999 -9999 -9999 -9999 -9999 -9999 -9999 -9999 -9999 -9999 -9999 79 66 79 79 81 81 81 81 79 -9999 -9999 -9999 83 83 83 83 66 66 66 66 66 66 66 66 66 66 66 66 66 66 66 66 66 66 66 66 66 66 66 66 66 66 66 66 66 66 66 66 66 66 66 66 66 66 66 66 66 66 66 66 66 66 66 66 66 66 66 66 66 66 66 66 66 66 66 66 66 66
79 79 66 66 66 66 66 66 66 66 66 66 66 66 66 79 79 79 79 79 79 79 79 79 79 79 79 -9999 -9999 66 66 -9999 -9999 67 79 67 66 79 66 67 67 67 -9999 -9999 79 67 79 79 79 79 79 -9999 -9999 -9999 67 -9999 67 -9999 -9999 67 -9999 79 79 -9999 -9999 -9999 -9999 -9999 79 67 67 79 -9999 66 -9999 -9999 67 67 67 67 -9999 -9999 -9999 -9999 -9999 -9999 -9999 -9999 79 66 66 -9999 66 -9999 67 67 67 -9999 -9999 -9999 -9999 -9999 -9999 79 66 66 -9999 -9999 66 79 79 -9999 67 -9999 -9999 -9999 -9999 -9999 -9999 -9999 -9999 -9999 -9999 -9999 -9999 -9999 -9999 -9999 -9999 -9999 -9999 -9999 -9999 -9999 -9999 79 67 -9999 -9999 -9999 -9999 -9999 -9999 -9999 -9999 -9999 -9999 -9999 -9999 -9999 -9999 -9999 -9999 -9999 -9999 -9999 -9999 -9999 -9999 -9999 66 -9999 -9999 -9999 -9999 -9999 -9999 79 66 79 -9999 79 -9999 -9999 -9999 -9999 -9999 66 79 67 79 67 -9999 -9999 -9999 -9999 67 66 -9999 79 66 67 67 67 67 79 -9999 -9999 -9999 -9999 -9999 -9999 -9999 -9999 -9999 -9999 79 79 -9999 81 81 81 81 81 81 81 81 -9999 -9999 -9999 -9999 66 66 66 66 66 66 66 66 66 66 66 66 66 66 66 66 66 66 66 66 66 66 66 66 66 66 66 66 66 66 66 66 66 66 79 66 66 66 66 66 66 66 66 66 66 66 66 66 66 66 66 66 66 66 66 66 66 66 66 66 66 66 66 66 66 66
79 79 79 66 66 66 66 66 66 66 66 66 66 66 79 79 79 79 79 79 79 79 79 79 79 66 66 79 -9999 79 66 79 -9999 79 79 -9999 67 66 67 -9999 67 79 79 79 67 67 79 79 79 79 79 67 67 -9999 -9999 -9999 79 -9999 -9999 67 67 67 66 79 67 -9999 -9999 67 67 67 66 66 79 66 -9999 67 67 66 67 67 67 67 -9999 66 -9999 -9999 -9999 -9999 -9999 -9999 -9999 -9999 -9999 -9999 66 -9999 -9999 -9999 -9999 -9999 79 -9999 -9999 -9999 -9999 -9999 66 -9999 66 79 79 66 -9999 -9999 -9999 -9999 -9999 -9999 -9999 66 67 67 79 -9999 -9999 79 -9999 -9999 -9999 -9999 -9999 -9999 -9999 -9999 66 79 -9999 -9999 -9999 -9999 -9999 -9999 -9999 -9999 -9999 -9999 -9999 -9999 -9999 -9999 -9999 -9999 -9999 -9999 -9999 -9999 -9999 -9999 -9999 79 79 -9999 66 -9999 -9999 -9999 -9999 -9999 -9999 -9999 -9999 -9999 -9999 66 -9999 -9999 -9999 79 67 -9999 -9999 67 -9999 -9999 67 67 -9999 -9999 79 67 66 66 67 67 -9999 79 -9999 -9999 -9999 -9999 -9999 -9999 -9999 -9999 -9999 -9999 -9999 79 -9999 81 81 81 81 81 81 81 81 81 79 -9999 -9999 66 66 66 66 66 66 66 66 66 66 66 66 66 66 66 66 66 66 66 66 66 66 66 66 66 66 66 66 66 66 66 66 66 66 66 66 66 66 66 66 66 66 66 66 66 66 66 66 66 66 66 66 66 66 66 66 66 66 66 66 66 66 66 66 66 66
79 79 79 79 66 66 66 66 66 66 66 66 66 66 79 79 79 66 79 79 79 79 79 79 79 66 66 79 -9999 79 66 79 -9999 79 -9999 -9999 67 67 -9999 67 67 -9999 -9999 -9999 -9999 79 -9999 79 79 79 79 -9999 -9999 -9999 -9999 67 79 79 -9999 -9999 -9999 79 66 -9999 -9999 -9999 -9999 -9999 79 67 -9999 79 79 79 -9999 -9999 -9999 67 67 67 -9999 67 -9999 66 -9999 -9999 -9999 -9999 -9999 -9999 -9999 -9999 -9999 -9999 66 66 79 -9999 79 -9999 79 79 -9999 -9999 79 -9999 -9999 -9999 -9999 66 66 66 -9999 66 79 79 67 -9999 -9999 66 66 66 66 67 67 66 79 79 -9999 -9999 -9999 -9999 -9999 -9999 -9999 79 -9999 -9999 -9999 -9999 -9999 -9999 -9999 -9999 -9999 -9999 -9999 -9999 -9999 -9999 -9999 -9999 -9999 -9999 -9999 -9999 -9999 66 79 79 66 79 -9999 -9999 -9999 -9999 -9999 -9999 -9999 -9999 79 66 66 -9999 -9999 -9999 -9999 66 79 67 -9999 -9999 -9999 -9999 -9999 67 67 79 67 79 -9999 -9999 67 79 -9999 79 -9999 -9999 -9999 -9999 79 -9999 66 66 66 -9999 -9999 -9999 -9999 81 81 81 81 81 81 81 81 81 81 81 81 66 66 66 66 66 66 66 66 66 66 66 66 66 66 66 66 66 66 66 66 66 66 66 66 66 66 66 66 66 66 66 66 66 66 66 66 66 66 66 66 66 66 66 66 66 66 66 66 66 66 66 66 66 66 66 66 66 66 66 66 66 66 66 66 66 66
79 79 79 79 79 66 66 66 66 66 66 66 66 79 79 79 79 66 79 66 66 66 79 79 79 79 79 79 -9999 79 79 66 -9999 79 79 -9999 67 79 -9999 -9999 -9999 -9999 67 -9999 -9999 -9999 66 79 79 79 79 67 67 -9999 -9999 -9999 -9999 -9999 -9999 -9999 -9999 79 79 67 67 -9999 -9999 -9999 79 79 79 79 -9999 79 -9999 -9999 79 79 79 66 66 67 -9999 79 -9999 -9999 -9999 -9999 -9999 -9999 -9999 -9999 -9999 -9999 66 66 67 79 79 -9999 66 -9999 -9999 -9999 66 -9999 79 66 -9999 -9999 -9999 -9999 -9999 67 66 -9999 67 79 66 66 66 66 66 66 -9999 79 79 -9999 -9999 -9999 -9999 66 -9999 -9999 -9999 67 -9999 -9999 -9999 -9999 -9999 -9999 -9999 -9999 -9999 -9999 -9999 -9999 -9999 -9999 -9999 -9999 79 -9999 -9999 -9999 -9999 79 66 66 -9999 -9999 67 67 -9999 -9999 -9999 66 -9999 -9999 66 66 66 -9999 -9999 -9999 -9999 -9999 79 -9999 -9999 79 -9999 67 67 -9999 67 -9999 -9999 -9999 -9999 79 -9999 67 67 -9999 -9999 79 79 79 66 -9999 -9999 -9999 -9999 -9999 79 79 -9999 81 81 81 66 81 81 81 81 81 81 81 81 79 66 66 66 66 66 66 66 66 66 66 66 66 66 66 66 66 66 66 66 66 66 66 66 66 66 66 66 66 66 66 66 66 66 66 66 66 66 66 66 66 66 66 66 66 66 66 66 66 66 66 66 66 66 66 66 66 66 66 66 66 66 66 66 66 66
79 79 79 79 79 66 66 66 66 66 66 79 66 66 66 66 66 66 67 66 66 79 79 79 79 79 79 79 -9999 -9999 79 79 -9999 -9999 -9999 -9999 -9999 -9999 -9999 66 -9999 -9999 -9999 -9999 67 67 66 79 79 79 79 67 -9999 79 -9999 -9999 -9999 -9999 -9999 -9999 67 -9999 -9999 67 67 -9999 -9999 -9999 -9999 67 67 67 -9999 -9999 -9999 67 67 67 67 -9999 67 67 -9999 66 -9999 -9999 -9999 -9999 -9999 -9999 -9999 -9999 -9999 -9999 66 66 66 -9999 -9999 -9999 -9999 79 -9999 66 66 79 79 66 66 79 -9999 -9999 -9999 -9999 -9999 66 79 -9999 -9999 66 66 79 79 -9999 66 67 66 79 -9999 -9999 -9999 -9999 -9999 66 66 67 -9999 -9999 -9999 -9999 -9999 -9999 -9999 -9999 -9999 -9999 -9999 -9999 -9999 -9999 -9999 -9999 -9999 -9999 -9999 -9999 -9999 79 79 -9999 79 79 -9999 -9999 -9999 -9999 -9999 -9999 79 66 66 66 66 -9999 -9999 -9999 -9999 -9999 -9999 -9999 -9999 79 -9999 -9999 67 67 79 79 79 67 67 67 67 67 -9999 -9999 -9999 -9999 -9999 -9999 -9999 -9999 -9999 -9999 79 67 -9999 -9999 -9999 81 81 81 66 81 81 81 81 81 81 81 81 79 79 66 66 66 66 66 66 66 66 66 66 66 66 66 66 66 66 66 66 66 66 66 66 66 66 66 66 66 66 66 66 66 66 66 79 66 66 66 66 66 66 66 66 66 66 66 66 66 66 66 66 66 66 66 66 66 66 66 66 66 66 66 66 66 66
81 66 66 81 81 66 66 79 66 66 66 66 66 66 66 79 79 79 79 79 79 79 79 79 79 79 79 79 79 -9999 79 79 66 -9999 -9999 67 67 -9999 -9999 -9999 79 -9999 67 67 66 67 66 79 79 79 66 66 67 67 67 -9999 67 67 -9999 -9999 -9999 67 79 -9999 -9999 -9999 -9999 -9999 66 79 79 -9999 -9999 -9999 -9999 -9999 79 79 66 66 -9999 -9999 -9999 66 -9999 -9999 66 66 -9999 -9999 -9999 -9999 -9999 -9999 66 66 79 66 -9999 -9999 79 67 79 -9999 66 66 66 79 67 -9999 -9999 -9999 66 67 -9999 -9999 -9999 -9999 66 66 66 79 79 67 -9999 -9999 -9999 -9999 -9999 -9999 -9999 -9999 -9999 -9999 -9999 -9999 -9999 -9999 -9999 -9999 -9999 -9999 -9999 -9999 -9999 -9999 -9999 -9999 -9999 -9999 -9999 -9999 -9999 -9999 -9999 -9999 -9999 67 79 -9999 67 79 -9999 66 -9999 -9999 -9999 -9999 79 66 66 -9999 66 67 -9999 -9999 -9999 -9999 66 79 79 67 79 79 66 67 66 67 79 67 67 66 -9999 67 67 -9999 -9999 -9999 -9999 -9999 79 79 67 -9999 -9999 67 67 67 -9999 81 81 66 79 81 81 81 81 81 81 81 81 79 79 79 66 66 66 66 66 66 66 66 66 66 66 66 66 66 66 66 66 66 66 66 66 66 66 66 66 66 66 66 66 79 79 66 79 66 66 66 66 66 66 66 66 66 66 66 66 66 66 66 66 66 66 66 66 66 66 66 66 66 66 66 66 66 66
81 81 81 81 81 81 66 66 66 79 79 79 79 79 79 79 -9999 -9999 -9999 79 67 79 79 79 79 79 79 79 79 -9999 79 79 66 -9999 79 -9999 -9999 67 79 67 79 66 66 67 -9999 79 -9999 67 79 79 66 66 79 79 79 66 66 67 -9999 -9999 67 67 67 67 66 -9999 -9999 67 79 79 67 79 79 79 -9999 79 79 66 66 66 79 67 -9999 -9999 -9999 -9999 -9999 66 -9999 -9999 -9999 -9999 -9999 79 66 66 79 -9999 -9999 -9999 -9999 67 66 66 66 66 66 66 79 -9999 79 79 79 66 -9999 -9999 -9999 -9999 -9999 -9999 -9999 79 -9999 -9999 -9999 -9999 -9999 -9999 -9999 -9999 -9999 -9999 -9999 -9999 -9999 -9999 -9999 -9999 -9999 -9999 -9999 -9999 -9999 -9999 -9999 -9999 -9999 79 -9999 -9999 -9999 -9999 -9999 -9999 -9999 -9999 -9999 67 67 -9999 -9999 67 -9999 -9999 -9999 -9999 -9999 -9999 79 66 66 66 66 66 -9999 -9999 -9999 -9999 66 79 79 66 67 79 67 79 -9999 67 67 -9999 67 -9999 -9999 -9999 -9999 -9999 -9999 79 -9999 -9999 -9999 -9999 -9999 67 79 79 79 79 -9999 81 81 79 79 81 81 81 81 81 81 81 81 79 79 79 79 66 66 66 66 66 66 66 66 66 66 66 66 66 66 66 66 66 66 66 66 66 66 66 66 66 66 66 66 66 79 66 79 79 66 66 66 66 66 66 66 66 66 66 66 66 66 66 66 66 66 66 66 66 66 66 66 66 66 66 66 66 66
81 81 81 81 81 81 -9999 -9999 79 79 79 79 -9999 -9999 -9999 -9999 -9999 -9999 -9999 -9999 67 79 79 79 79 79 79 79 79 -9999 -9999 79 66 -9999 79 79 79 67 -9999 67 66 -9999 -9999 79 -9999 -9999 67 79 79 79 79 79 79 79 79 66 66 79 -9999 -9999 -9999 67 67 -9999 -9999 -9999 -9999 -9999 79 67 66 79 79 79 -9999 -9999 -9999 66 67 67 -9999 -9999 -9999 -9999 -9999 -9999 -9999 -9999 -9999 -9999 66 66 66 66 66 79 79 -9999 -9999 -9999 -9999 67 67 66 66 66 66 66 79 79 79 79 79 67 67 67 -9999 -9999 -9999 -9999 -9999 -9999 -9999 -9999 -9999 -9999 -9999 -9999 -9999 -9999 -9999 -9999 -9999 -9999 -9999 -9999 -9999 -9999 -9999 -9999 -9999 -9999 79 -9999 -9999 -9999 -9999 66 -9999 -9999 -9999 -9999 -9999 -9999 -9999 -9999 -9999 -9999 67 -9999 79 -9999 -9999 -9999 -9999 66 -9999 66 -9999 66 66 66 79 66 -9999 -9999 -9999 -9999 -9999 79 79 67 66 79 -9999 -9999 -9999 67 -9999 -9999 -9999 -9999 -9999 -9999 -9999 67 67 -9999 -9999 67 -9999 67 79 79 79 79 67 67 -9999 81 66 66 -9999 66 81 81 81 81 81 81 81 81 79 79 79 79 66 66 66 66 66 66 66 66 66 66 66 66 66 66 66 66 66 66 66 66 66 66 66 66 66 66 66 66 66 66 79 67 66 66 66 66 66 66 66 66 66 66 66 66 66 66 66 66 66 66 66 66 66 66 66 66 66 66 66 66 66
81 81 81 81 81 81 81 79 79 -9999 -9999 -9999 -9999 -9999 -9999 -9999 -9999 -9999 -9999 -9999 79 79 79 79 79 79 79 79 79 79 -9999 66 79 -9999 -9999 67 -9999 67 79 -9999 79 -9999 67 66 -9999 -9999 67 -9999 66 66 79 79 79 66 66 66 66 79 -9999 67 -9999 79 67 67 -9999 -9999 -9999 -9999 79 67 67 67 -9999 -9999 -9999 79 79 79 67 67 67 79 -9999 -9999 -9999 -9999 79 79 -9999 -9999 66 66 66 66 -9999 -9999 -9999 -9999 -9999 -9999 67 79 66 66 66 66 66 79 67 66 66 67 66 66 79 67 -9999 -9999 66 -9999 -9999 -9999 -9999 -9999 -9999 -9999 -9999 -9999 -9999 -9999 -9999 -9999 -9999 -9999 -9999 -9999 -9999 -9999 -9999 -9999 -9999 -9999 -9999 -9999 -9999 -9999 -9999 67 67 -9999 67 -9999 -9999 -9999 -9999 -9999 -9999 -9999 -9999 -9999 -9999 -9999 67 79 67 -9999 -9999 -9999 -9999 66 66 66 66 79 79 66 -9999 -9999 -9999 66 79 67 -9999 -9999 79 -9999 -9999 -9999 -9999 -9999 -9999 -9999 67 79 -9999 -9999 67 -9999 79 67 79 67 67 79 79 -9999 -9999 79 -9999 81 66 66 81 81 81 81 81 81 81 81 81 81 79 79 79 79 79 79 79 66 66 66 79 79 79 79 66 66 66 66 66 66 66 66 66 66 66 66 66 66 66 66 66 66 66 66 66 79 66 66 66 66 66 66 66 66 66 66 66 66 66 66 66 66 66 66 66 66 66 66 66 66 66 66 66 66 66
81 81 81 81 81 81 81 81 -9999 -9999 -9999 -9999 -9999 -9999 -9999 -9999 -9999 -9999 -9999 -9999 79 79 79 79 79 79 79 79 79 79 -9999 79 66 79 -9999 67 -9999 79 79 79 -9999 -9999 -9999 -9999 -9999 -9999 -9999 -9999 79 66 66 66 66 66 66 66 66 79 -9999 79 67 -9999 66 67 -9999 -9999 -9999 -9999 -9999 79 67 67 79 -9999 -9999 67 67 67 67 67 79 79 -9999 -9999 -9999 66 66 66 86 -9999 66 -9999 -9999 -9999 -9999 -9999 -9999 -9999 -9999 -9999 66 66 66 66 66 66 -9999 -9999 -9999 -9999 -9999 -9999 79 66 66 79 67 -9999 -9999 66 79 -9999 -9999 -9999 -9999 -9999 -9999 -9999 -9999 -9999 -9999 -9999 -9999 -9999 -9999 -9999 -9999 -9999 -9999 -9999 -9999 -9999 -9999 -9999 -9999 -9999 79 67 67 67 79 -9999 -9999 -9999 -9999 -9999 -9999 -9999 67 -9999 66 -9999 -9999 67 67 -9999 79 -9999 -9999 -9999 66 66 66 -9999 79 -9999 -9999 -9999 66 79 67 -9999 -9999 -9999 -9999 -9999 -9999 -9999 79 67 -9999 -9999 67 -9999 67 79 79 79 79 67 67 -9999 79 -9999 79 -9999 79 -9999 -9999 66 66 81 81 81 81 81 81 81 81 81 81 81 79 79 79 79 79 79 79 79 79 79 79 79 79 79 79 79 79 79 66 66 66 66 66 66 66 66 66 66 66 66 66 66 66 66 66 66 66 66 66 66 66 66 66 66 66 66 66 66 66 66 66 66 66 66 66 66 66 66 66 66 66 66 66 66 66
81 81 81 81 81 81 81 81 -9999 -9999 -9999 -9999 -9999 -9999 -9999 -9999 -9999 -9999 -9999 -9999 -9999 79 79 79 79 79 79 79 79 79 -9999 79 66 66 -9999 79 -9999 -9999 -9999 -9999 -9999 79 79 79 79 -9999 -9999 67 79 66 66 66 66 66 79 -9999 -9999 79 -9999 67 -9999 79 67 -9999 -9999 -9999 79 79 67 66 79 79 -9999 -9999 -9999 -9999 -9999 79 67 -9999 79 79 -9999 -9999 -9999 79 -9999 -9999 -9999 -9999 66 -9999 -9999 -9999 -9999 -9999 -9999 -9999 -9999 -9999 66 -9999 66 66 79 66 66 -9999 -9999 -9999 -9999 -9999 -9999 -9999 -9999 -9999 -9999 -9999 -9999 67 -9999 -9999 66 79 -9999 -9999 -9999 -9999 -9999 -9999 -9999 -9999 -9999 -9999 -9999 -9999 -9999 -9999 -9999 -9999 79 -9999 -9999 -9999 -9999 -9999 -9999 79 67 -9999 79 -9999 -9999 -9999 -9999 -9999 -9999 67 -9999 -9999 66 67 -9999 67 -9999 67 -9999 -9999 -9999 -9999 79 79 -9999 79 66 -9999 -9999 -9999 79 79 -9999 -9999 -9999 -9999 -9999 -9999 67 67 -9999 -9999 67 79 79 79 79 67 67 67 -9999 -9999 -9999 67 -9999 -9999 -9999 -9999 -9999 -9999 66 66 79 66 81 81 81 81 81 81 81 81 81 81 79 79 79 79 79 79 79 79 79 79 79 79 79 79 79 79 79 79 66 66 66 66 66 66 66 66 66 66 66 66 66 66 66 79 66 66 66 66 66 66 66 66 66 66 66 66 66 66 66 66 66 66 66 66 66 66 66 66 66 66 66 66 66 66 66
81 81 81 81 81 81 81 81 -9999 -9999 -9999 -9999 -9999 -9999 -9999 -9999 -9999 -9999 -9999 -9999 79 79 79 79 79 79 79 79 79 79 -9999 -9999 66 79 -9999 -9999 -9999 67 67 -9999 79 79 79 79 66 -9999 -9999 -9999 66 79 79 -9999 79 79 67 -9999 79 66 -9999 79 66 -9999 66 -9999 66 -9999 67 -9999 79 66 79 67 79 -9999 79 67 -9999 66 67 79 -9999 -9999 -9999 79 79 -9999 -9999 -9999 -9999 -9999 79 79 79 79 66 -9999 67 -9999 -9999 -9999 66 79 66 66 66 66 -9999 -9999 -9999 -9999 -9999 -9999 -9999 -9999 -9999 -9999 -9999 -9999 -9999 66 -9999 -9999 -9999 -9999 -9999 -9999 -9999 -9999 -9999 -9999 -9999 -9999 -9999 -9999 -9999 -9999 -9999 -9999 79 -9999 -9999 -9999 -9999 -9999 -9999 -9999 -9999 -9999 -9999 -9999 67 -9999 -9999 -9999 -9999 -9999 -9999 66 66 -9999 66 66 79 67 79 79 -9999 -9999 -9999 -9999 -9999 66 66 79 79 -9999 -9999 -9999 -9999 -9999 -9999 -9999 -9999 -9999 -9999 -9999 -9999 67 67 79 79 79 79 79 67 67 -9999 -9999 67 -9999 -9999 -9999 -9999 -9999 -9999 67 -9999 66 66 66 66 66 66 66 66 66 81 81 81 81 81 81 79 79 79 79 79 79 79 79 79 79 79 79 79 79 79 79 79 79 66 66 66 66 66 66 66 66 66 66 66 66 66 66 66 66 66 66 66 66 66 66 66 66 66 66 66 66 66 66 66 66 66 66 66 66 66 66 66 66 66 66 66 66 66 66 66
81 81 81 81 81 81 81 81 81 -9999 -9999 -9999 -9999 -9999 -9999 -9999 -9999 -9999 -9999 -9999 -9999 79 79 79 79 79 79 79 79 79 79 -9999 66 66 -9999 -9999 67 79 -9999 -9999 66 79 79 79 66 -9999 -9999 -9999 66 79 79 -9999 -9999 -9999 -9999 -9999 79 66 -9999 79 67 -9999 66 -9999 79 -9999 -9999 -9999 66 66 66 67 66 -9999 -9999 -9999 -9999 -9999 -9999 -9999 -9999 67 -9999 66 79 79 79 66 66 79 79 66 79 79 66 66 -9999 -9999 79 -9999 -9999 -9999 66 66 66 67 67 -9999 -9999 -9999 -9999 -9999 -9999 -9999 -9999 -9999 -9999 -9999 -9999 -9999 -9999 -9999 -9999 -9999 -9999 -9999 -9999 -9999 -9999 -9999 -9999 -9999 -9999 -9999 -9999 -9999 -9999 79 -9999 -9999 79 67 -9999 -9999 -9999 -9999 -9999 67 79 -9999 -9999 -9999 -9999 -9999 -9999 66 -9999 67 66 67 67 67 67 67 67 67 79 -9999 -9999 -9999 -9999 66 66 66 79 -9999 -9999 -9999 -9999 79 -9999 67 -9999 -9999 -9999 -9999 67 66 67 79 67 67 -9999 67 -9999 -9999 67 67 -9999 -9999 -9999 -9999 -9999 -9999 -9999 -9999 -9999 79 66 66 66 66 66 66 66 66 67 67 79 67 79 79 66 79 79 79 79 79 79 79 79 79 79 79 79 66 79 79 79 79 79 66 66 66 66 66 66 66 66 66 66 66 66 66 66 66 66 66 66 66 66 66 66 66 66 66 66 66 66 66 66 66 66 66 66 66 66 66 66 66 66 66 66 66 66 66 66
81 81 81 81 81 81 81 81 81 -9999 -9999 -9999 -9999 -9999 -9999 -9999 -9999 -9999 -9999 -9999 -9999 79 79 79 79 79 79 79 79 79 79 -9999 79 66 79 -9999 67 79 -9999 -9999 -9999 79 79 79 66 -9999 67 -9999 66 79 66 -9999 -9999 -9999 -9999 -9999 66 66 -9999 79 67 67 79 -9999 79 -9999 -9999 79 -9999 -9999 -9999 -9999 -9999 -9999 -9999 -9999 -9999 67 66 79 -9999 66 -9999 79 -9999 -9999 -9999 -9999 66 -9999 -9999 66 79 79 79 66 66 66 79 -9999 66 66 66 66 -9999 -9999 66 -9999 -9999 -9999 -9999 -9999 -9999 -9999 -9999 -9999 -9999 -9999 -9999 -9999 -9999 -9999 -9999 -9999 -9999 -9999 -9999 -9999 -9999 -9999 -9999 -9999 -9999 -9999 -9999 79 -9999 -9999 -9999 -9999 -9999 66 -9999 -9999 -9999 -9999 -9999 -9999 -9999 -9999 -9999 -9999 -9999 79 79 79 -9999 -9999 67 66 -9999 66 79 -9999 66 79 66 79 -9999 -9999 -9999 79 -9999 -9999 -9999 -9999 -9999 -9999 -9999 -9999 -9999 67 79 79 79 67 67 67 -9999 79 -9999 67 -9999 67 67 -9999 -9999 -9999 -9999 79 -9999 79 -9999 -9999 67 66 66 66 83 83 66 66 66 66 66 66 66 66 79 79 67 79 66 66 79 79 67 67 67 67 67 67 79 79 79 79 79 79 79 79 79 79 79 79 79 79 79 79 79 66 66 66 66 66 66 66 66 66 66 66 66 66 66 66 66 66 66 66 66 66 66 66 66 66 66 66 66 66 66 66 66 66 66 66 66 66 66
81 81 81 81 81 81 81 81 81 81 -9999 -9999 -9999 -9999 -9999 -9999 -9999 -9999 -9999 -9999 -9999 79 79 79 79 79 79 79 79 79 79 -9999 79 79 66 -9999 79 67 67 -9999 -9999 66 -9999 -9999 -9999 -9999 -9999 67 67 79 79 79 79 79 79 79 66 66 -9999 79 67 67 66 -9999 -9999 -9999 -9999 -9999 -9999 67 67 -9999 -9999 -9999 -9999 -9999 -9999 79 67 67 -9999 66 -9999 79 -9999 -9999 -9999 -9999 -9999 -9999 -9999 66 -9999 -9999 79 66 66 79 79 -9999 66 66 66 66 79 79 66 -9999 -9999 -9999 -9999 -9999 -9999 -9999 -9999 66 -9999 -9999 -9999 -9999 -9999 -9999 -9999 -9999 -9999 -9999 -9999 -9999 -9999 -9999 -9999 -9999 -9999 -9999 -9999 -9999 -9999 -9999 -9999 -9999 -9999 79 -9999 -9999 -9999 -9999 -9999 -9999 -9999 -9999 -9999 66 79 67 -9999 -9999 79 -9999 79 79 -9999 79 66 -9999 66 67 67 67 -9999 -9999 -9999 -9999 -9999 -9999 -9999 -9999 -9999 79 -9999 -9999 79 79 79 79 67 79 67 -9999 -9999 67 -9999 -9999 -9999 -9999 -9999 -9999 -9999 -9999 79 79 -9999 -9999 -9999 67 79 66 66 83 83 83 83 79 79 66 66 66 79 79 79 79 67 79 79 66 66 79 79 67 67 67 67 67 67 67 67 67 67 79 79 79 79 67 67 67 79 79 79 67 79 79 79 79 79 79 79 79 79 79 79 79 79 79 79 79 79 79 79 79 79 79 79 79 79 79 79 79 66 66 66 66 66 66 66 66 66 66 66
81 81 81 81 81 81 81 81 81 81 -9999 -9999 -9999 -9999 -9999 -9999 -9999 -9999 -9999 -9999 -9999 79 79 79 79 79 79 79 79 79 79 -9999 -9999 79 66 -9999 79 79 67 -9999 -9999 -9999 -9999 79 -9999 67 -9999 -9999 67 79 79 66 66 66 66 66 66 66 -9999 -9999 -9999 -9999 -9999 -9999 79 79 67 -9999 67 -9999 79 67 79 -9999 79 79 79 79 67 67 67 66 -9999 79 -9999 -9999 -9999 -9999 -9999 -9999 -9999 79 -9999 -9999 -9999 66 66 66 79 -9999 66 66 66 66 79 66 66 66 -9999 -9999 -9999 -9999 -9999 -9999 -9999 -9999 -9999 -9999 -9999 -9999 -9999 -9999 -9999 -9999 -9999 -9999 -9999 -9999 -9999 -9999 -9999 -9999 -9999 -9999 -9999 -9999 -9999 -9999 67 79 79 66 79 -9999 -9999 -9999 -9999 -9999 -9999 -9999 79 79 79 67 -9999 -9999 -9999 -9999 67 66 -9999 -9999 -9999 -9999 66 79 -9999 -9999 -9999 -9999 -9999 -9999 -9999 67 -9999 -9999 67 67 -9999 -9999 67 67 67 67 -9999 -9999 -9999 79 -9999 -9999 -9999 -9999 -9999 -9999 -9999 67 -9999 -9999 79 -9999 67 -9999 -9999 -9999 79 66 66 83 83 83 66 79 79 66 66 66 79 79 79 79 67 79 79 66 66 66 79 79 67 67 67 67 67 67 67 67 67 67 79 79 79 67 79 67 67 67 67 67 67 81 81 81 81 81 81 81 81 81 81 81 81 81 81 81 81 81 81 81 81 81 81 81 81 81 81 79 79 79 79 79 79 79 79 79 79 81 81
81 81 81 81 81 81 81 81 81 81 -9999 -9999 -9999 -9999 -9999 -9999 -9999 -9999 -9999 -9999 79 79 79 79 79 79 79 79 79 79 79 79 -9999 79 79 -9999 -9999 79 79 79 67 -9999 -9999 79 -9999 67 67 67 66 79 79 66 66 -9999 -9999 -9999 -9999 -9999 -9999 79 67 67 67 -9999 67 79 -9999 67 67 67 66 79 67 -9999 -9999 -9999 79 79 79 79 -9999 67 -9999 79 -9999 -9999 -9999 -9999 -9999 -9999 -9999 -9999 -9999 -9999 86 66 66 66 66 -9999 67 66 79 79 -9999 -9999 -9999 -9999 -9999 -9999 -9999 -9999 -9999 -9999 -9999 -9999 -9999 -9999 -9999 -9999 -9999 -9999 -9999 -9999 -9999 -9999 -9999 -9999 66 -9999 -9999 -9999 -9999 -9999 -9999 -9999 -9999 -9999 79 79 79 66 66 79 -9999 -9999 -9999 -9999 -9999 79 67 66 66 66 -9999 -9999 -9999 -9999 -9999 -9999 -9999 79 -9999 -9999 -9999 -9999 -9999 66 -9999 -9999 -9999 -9999 67 67 67 79 67 67 79 -9999 -9999 -9999 79 -9999 79 -9999 -9999 -9999 -9999 -9999 67 -9999 -9999 -9999 79 66 67 67 67 -9999 -9999 -9999 -9999 -9999 79 79 83 83 83 83 79 79 79 66 66 79 67 79 79 79 79 79 79 79 66 66 66 79 79 67 67 67 67 67 67 67 67 67 67 67 79 79 67 79 67 67 67 67 67 81 81 81 81 81 81 81 81 81 81 81 81 81 81 81 81 81 81 81 81 81 81 81 81 81 81 67 67 67 67 79 67 79 79 79 79 67 79
81 81 81 81 81 81 81 81 81 81 81 -9999 -9999 -9999 -9999 -9999 -9999 -9999 -9999 66 79 79 79 79 79 79 79 79 79 79 79 79 -9999 79 66 66 -9999 -9999 79 79 67 67 67 67 79 79 79 79 -9999 -9999 -9999 -9999 -9999 -9999 79 -9999 79 66 66 67 -9999 66 79 79 79 66 66 67 66 67 -9999 -9999 67 -9999 -9999 -9999 67 79 67 67 79 79 -9999 79 -9999 -9999 -9999 -9999 -9999 -9999 -9999 79 86 86 79 66 -9999 -9999 -9999 -9999 -9999 -9999 -9999 -9999 -9999 79 66 66 -9999 -9999 -9999 -9999 -9999 -9999 -9999 -9999 -9999 -9999 -9999 -9999 66 -9999 -9999 -9999 -9999 -9999 -9999 -9999 -9999 -9999 -9999 -9999 -9999 -9999 -9999 -9999 -9999 -9999 -9999 -9999 79 79 66 79 67 -9999 -9999 -9999 -9999 66 -9999 66 66 66 -9999 -9999 79 66 -9999 79 -9999 -9999 -9999 -9999 -9999 66 79 67 -9999 -9999 -9999 67 66 67 67 79 79 -9999 -9999 -9999 67 -9999 79 -9999 -9999 -9999 -9999 -9999 67 -9999 -9999 67 -9999 67 67 67 79 -9999 -9999 -9999 66 -9999 79 67 67 66 83 83 83 66 79 67 66 66 79 -9999 79 79 79 79 79 79 79 79 66 66 79 79 79 79 67 67 67 67 67 79 79 79 67 67 67 79 79 67 67 67 67 67 67 81 81 81 81 81 81 81 81 81 81 81 81 81 81 81 81 81 81 81 81 81 81 81 81 81 81 67 67 79 79 79 79 79 79 79 79 79 79
81 81 81 81 81 81 81 81 81 81 81 66 -9999 -9999 -9999 -9999 -9999 -9999 -9999 79 79 79 -9999 79 79 79 79 79 79 79 79 79 -9999 79 66 66 79 -9999 -9999 -9999 79 79 79 -9999 -9999 -9999 -9999 -9999 -9999 -9999 -9999 -9999 -9999 -9999 -9999 -9999 66 66 79 67 66 67 66 79 79 79 79 79 66 66 79 67 79 -9999 -9999 79 67 79 66 -9999 -9999 79 -9999 79 79 -9999 -9999 -9999 -9999 -9999 -9999 -9999 -9999 -9999 -9999 -9999 -9999 79 66 66 -9999 -9999 -9999 -9999 -9999 79 66 66 -9999 -9999 66 66 79 66 67 -9999 -9999 -9999 -9999 67 79 -9999 -9999 66 66 -9999 -9999 -9999 -9999 -9999 -9999 -9999 -9999 -9999 -9999 -9999 -9999 -9999 -9999 -9999 -9999 -9999 66 79 67 -9999 -9999 -9999 -9999 -9999 -9999 66 -9999 -9999 -9999 67 -9999 -9999 -9999 -9999 -9999 66 -9999 -9999 -9999 -9999 66 79 -9999 -9999 -9999 -9999 79 79 67 79 79 67 -9999 -9999 -9999 -9999 -9999 -9999 -9999 -9999 -9999 -9999 -9999 79 67 67 67 79 67 -9999 -9999 67 79 -9999 -9999 -9999 -9999 -9999 66 66 83 83 83 66 79 79 66 -9999 -9999 -9999 -9999 67 79 79 79 79 79 79 79 66 79 79 79 79 79 79 79 79 79 79 79 79 79 79 79 79 79 79 79 79 79 79 79 81 81 81 81 81 81 81 81 81 81 81 81 81 81 81 81 81 81 81 81 81 81 81 81 81 81 67 79 79 79 79 79 79 79 79 79 79 79
81 81 81 81 81 81 81 81 81 81 81 -9999 -9999 -9999 -9999 -9999 -9999 -9999 -9999 -9999 -9999 -9999 -9999 -9999 -9999 79 79 79 79 79 79 79 -9999 -9999 79 79 79 79 79 -9999 -9999 -9999 -9999 -9999 79 79 79 79 67 -9999 -9999 -9999 -9999 -9999 -9999 -9999 66 66 79 79 79 79 79 79 79 79 79 79 66 66 67 67 66 -9999 79 -9999 -9999 79 66 79 79 67 -9999 79 -9999 -9999 -9999 -9999 -9999 -9999 -9999 79 79 79 66 66 66 66 66 66 79 -9999 -9999 -9999 -9999 -9999 -9999 -9999 -9999 79 66 66 79 66 79 -9999 -9999 -9999 -9999 79 79 -9999 -9999 -9999 66 79 -9999 -9999 -9999 -9999 -9999 -9999 -9999 -9999 -9999 -9999 -9999 -9999 -9999 -9999 -9999 -9999 -9999 79 67 -9999 -9999 -9999 -9999 -9999 -9999 -9999 79 -9999 -9999 -9999 -9999 -9999 -9999 -9999 66 66 -9999 -9999 66 79 -9999 79 -9999 66 -9999 -9999 79 67 67 66 79 -9999 -9999 -9999 -9999 -9999 -9999 -9999 -9999 -9999 79 79 67 67 -9999 67 -9999 -9999 67 79 -9999 -9999 -9999 -9999 79 -9999 67 67 66 83 83 83 66 79 79 79 -9999 -9999 -9999 -9999 -9999 -9999 79 79 79 79 79 79 79 66 79 79 79 79 79 79 79 79 66 66 66 66 66 66 66 66 66 66 66 66 66 66 66 81 81 81 81 81 81 81 81 81 81 81 81 81 81 81 81 81 81 81 81 81 81 81 81 81 67 67 79 79 79 79 79 79 79 67 79 79 79
81 81 81 81 81 81 81 81 81 81 81 81 -9999 -9999 -9999 -9999 -9999 -9999 -9999 -9999 -9999 -9999 -9999 -9999 -9999 79 67 79 79 79 79 79 79 -9999 79 79 79 79 79 79 79 79 79 79 79 79 79 79 79 -9999 -9999 -9999 -9999 -9999 -9999 -9999 79 66 66 66 79 79 79 79 79 79 79 79 79 79 67 67 79 -9999 67 66 66 67 67 66 79 -9999 -9999 -9999 -9999 -9999 79 79 79 79 79 79 79 66 66 66 66 66 66 66 -9999 -9999 -9999 -9999 66 67 79 79 79 79 79 79 79 66 66 79 -9999 -9999 -9999 79 66 -9999 -9999 66 66 66 -9999 -9999 -9999 -9999 -9999 -9999 -9999 -9999 -9999 -9999 -9999 -9999 -9999 -9999 -9999 -9999 -9999 79 79 -9999 -9999 -9999 -9999 -9999 -9999 -9999 -9999 -9999 -9999 79 79 79 79 -9999 79 -9999 -9999 79 79 79 79 79 67 -9999 -9999 79 79 79 79 66 79 79 -9999 -9999 -9999 -9999 -9999 67 67 67 67 -9999 -9999 -9999 67 -9999 79 -9999 -9999 -9999 -9999 79 -9999 -9999 -9999 -9999 66 66 66 83 83 83 66 79 -9999 -9999 -9999 -9999 -9999 -9999 -9999 -9999 -9999 79 79 86 -9999 79 79 66 79 79 79 79 79 79 79 79 79 66 66 66 66 66 66 66 66 66 66 66 66 66 66 81 81 81 81 81 81 81 81 66 66 66 81 81 81 81 81 81 81 81 81 81 81 66 66 66 66 66 66 66 66 66 66 66 66 66 79 79 79
81 81 81 81 81 81 81 81 81 81 81 81 66 -9999 -9999 79 79 -9999 -9999 -9999 -9999 -9999 -9999 79 79 79 79 79 79 79 79 79 79 -9999 -9999 79 79 79 79 79 79 79 79 79 79 79 79 79 79 -9999 -9999 -9999 -9999 -9999 -9999 -9999 -9999 66 66 66 79 79 79 79 79 79 79 79 79 66 66 79 79 -9999 79 79 -9999 -9999 -9999 -9999 -9999 -9999 79 79 79 79 79 79 79 79 79 79 79 79 79 66 66 66 66 66 66 -9999 -9999 -9999 -9999 -9999 66 79 79 79 83 83 89 89 66 66 -9999 -9999 66 66 66 79 79 66 66 66 -9999 -9999 -9999 -9999 -9999 -9999 -9999 -9999 -9999 -9999 -9999 -9999 -9999 -9999 -9999 -9999 66 79 -9999 -9999 -9999 -9999 -9999 -9999 -9999 -9999 -9999 -9999 -9999 66 -9999 -9999 66 -9999 -9999 -9999 -9999 79 79 79 66 -9999 -9999 -9999 -9999 -9999 -9999 79 79 66 79 -9999 -9999 67 -9999 -9999 67 -9999 67 -9999 -9999 67 67 67 -9999 -9999 -9999 -9999 -9999 -9999 -9999 79 79 67 79 79 66 66 66 83 83 66 66 79 -9999 -9999 -9999 -9999 -9999 -9999 -9999 -9999 -9999 67 79 79 86 79 67 79 79 79 79 79 79 79 79 79 79 79 66 66 66 66 66 66 66 66 66 66 66 66 66 66 81 81 81 81 81 81 81 81 66 66 81 81 81 81 81 81 81 81 81 66 66 66 66 66 66 66 66 66 66 66 66 66 66 66 66 66 66
-9999 -9999 -9999 -9999 -9999 -9999 -9999 -9999 -9999 -9999 -9999 -9999 -9999 -9999 -9999 79 79 79 -9999 -9999 -9999 -9999 -9999 -9999 79 79 79 66 66 66 79 79 79 -9999 -9999 79 79 79 79 79 79 79 79 79 79 79 79 79 79 -9999 -9999 -9999 -9999 -9999 -9999 -9999 86 66 66 66 66 66 79 79 79 79 79 79 79 66 79 79 -9999 -9999 -9999 -9999 -9999 79 79 79 79 -9999 79 79 79 79 79 79 79 79 79 79 79 79 66 66 66 66 66 66 66 79 79 66 66 66 66 83 89 89 83 83 89 83 83 83 83 83 83 66 66 66 66 66 66 66 -9999 -9999 -9999 -9999 -9999 -9999 79 79 79 -9999 -9999 -9999 -9999 -9999 -9999 66 66 67 -9999 67 -9999 -9999 -9999 -9999 -9999 -9999 -9999 -9999 66 79 66 -9999 79 -9999 -9999 -9999 -9999 79 79 79 66 66 79 -9999 79 -9999 -9999 -9999 -9999 66 66 67 -9999 -9999 67 -9999 -9999 -9999 67 67 79 -9999 -9999 -9999 -9999 -9999 67 -9999 -9999 67 67 67 67 66 66 66 66 66 66 66 66 66 66 79 66 -9999 -9999 -9999 -9999 -9999 -9999 -9999 -9999 -9999 79 79 86 79 79 67 79 79 79 66 66 79 79 79 79 79 79 66 66 66 66 66 66 66 66 66 66 66 66 66 66 81 81 81 81 81 81 81 66 66 66 81 81 81 81 81 66 66 66 66 66 66 66 66 66 66 66 66 66 66 66 66 66 66 66 66 66
81 81 81 81 81 81 81 81 81 81 81 81 81 -9999 -9999 79 -9999 79 79 79 79 79 79 66 66 -9999 79 79 66 66 79 79 79 -9999 -9999 -9999 79 79 79 79 79 79 79 79 79 79 79 79 79 -9999 -9999 -9999 -9999 -9999 -9999 86 86 66 66 66 66 66 79 79 79 -9999 -9999 -9999 -9999 -9999 -9999 -9999 -9999 -9999 -9999 -9999 79 79 79 79 79 -9999 79 79 79 79 79 79 79 79 79 79 79 79 66 66 79 79 66 66 66 66 66 66 66 79 83 83 89 89 83 83 89 -9999 -9999 -9999 89 -9999 -9999 -9999 89 89 79 66 66 67 -9999 -9999 -9999 -9999 -9999 -9999 79 79 79 -9999 -9999 -9999 -9999 -9999 -9999 -9999 -9999 67 -9999 79 -9999 -9999 -9999 -9999 -9999 -9999 79 79 79 79 79 -9999 -9999 66 -9999 66 -9999 66 79 79 66 66 66 79 67 -9999 -9999 -9999 67 -9999 66 -9999 -9999 67 -9999 -9999 -9999 67 -9999 -9999 -9999 -9999 -9999 -9999 -9999 -9999 67 66 67 67 66 66 66 66 66 66 66 66 66 66 66 66 66 79 79 86 -9999 -9999 -9999 -9999 -9999 -9999 -9999 -9999 79 79 79 -9999 79 79 79 79 79 79 79 79 66 67 67 79 79 66 66 66 66 66 66 66 66 66 66 66 66 66 66 66 66 81 81 81 81 81 66 66 66 81 81 66 66 66 66 66 66 66 79 66 66 66 66 66 66 66 66 66 66 66 66 66 66 66 66
81 81 81 81 81 81 81 81 81 81 81 81 81 -9999 -9999 -9999 -9999 -9999 -9999 66 -9999 66 66 66 -9999 66 79 79 -9999 66 79 79 79 -9999 79 -9999 -9999 79 79 79 79 79 79 79 79 79 79 79 79 -9999 -9999 -9999 -9999 -9999 86 79 86 79 79 79 79 -9999 -9999 -9999 -9999 -9999 -9999 -9999 -9999 79 79 79 66 79 79 79 79 79 79 79 79 -9999 79 79 79 79 83 83 89 89 83 83 -9999 -9999 -9999 83 83 89 89 89 83 83 83 83 83 83 83 83 89 -9999 -9999 -9999 83 83 89 89 89 83 89 83 -9999 -9999 79 79 79 -9999 -9999 -9999 -9999 -9999 -9999 -9999 -9999 67 66 -9999 -9999 -9999 -9999 -9999 -9999 -9999 -9999 -9999 -9999 -9999 -9999 -9999 -9999 -9999 -9999 -9999 79 79 79 67 79 66 -9999 79 -9999 -9999 -9999 -9999 -9999 -9999 79 66 66 67 -9999 -9999 -9999 66 -9999 67 67 79 67 79 67 -9999 -9999 -9999 -9999 -9999 -9999 -9999 -9999 67 67 67 79 66 79 79 66 66 66 66 66 66 66 66 66 66 66 66 67 66 79 86 -9999 -9999 -9999 -9999 -9999 -9999 -9999 -9999 -9999 79 79 -9999 79 79 79 79 66 79 -9999 -9999 67 79 79 66 66 79 79 79 66 66 66 66 66 66 66 66 66 66 66 66 66 81 81 81 81 81 66 66 66 66 66 66 66 66 66 66 66 66 79 79 66 66 66 66 79 66 66 66 66 66 66 66 66 66 66
81 81 81 81 81 81 81 81 81 81 81 81 81 66 -9999 -9999 -9999 79 79 66 -9999 66 -9999 79 -9999 -9999 79 79 79 79 79 79 79 -9999 79 -9999 -9999 -9999 79 79 79 79 79 79 79 79 79 79 79 86 -9999 86 79 79 79 79 -9999 79 -9999 -9999 -9999 -9999 -9999 -9999 -9999 79 79 79 66 66 79 79 79 79 83 83 83 83 83 89 89 -9999 83 83 83 83 83 -9999 -9999 -9999 -9999 89 89 83 83 -9999 -9999 89 83 89 89 83 83 83 -9999 -9999 -9999 83 83 83 83 83 89 -9999 83 89 89 83 89 83 83 83 -9999 79 79 -9999 79 79 79 -9999 -9999 -9999 -9999 -9999 -9999 -9999 -9999 -9999 -9999 -9999 -9999 -9999 -9999 -9999 -9999 -9999 -9999 -9999 -9999 -9999 -9999 -9999 -9999 -9999 79 66 66 79 -9999 -9999 -9999 -9999 66 -9999 -9999 -9999 79 66 66 79 -9999 -9999 -9999 67 66 67 67 67 -9999 79 79 -9999 -9999 -9999 -9999 67 79 67 67 79 79 79 79 79 79 79 79 66 66 79 79 79 79 66 66 66 66 66 79 67 79 67 79 67 79 -9999 -9999 -9999 -9999 -9999 -9999 -9999 -9999 -9999 -9999 -9999 -9999 -9999 -9999 -9999 -9999 -9999 -9999 79 66 66 66 66 79 79 66 66 66 66 66 66 66 66 66 66 66 66 66 66 66 66 66 66 66 66 66 66 66 66 66 66 66 66 66 66 79 79 66 66 66 66 66 66 66 66 66 66 66 66 66 66 66
81 81 81 81 81 81 81 81 81 81 81 81 81 81 -9999 79 -9999 -9999 -9999 -9999 66 67 -9999 -9999 -9999 -9999 66 79 79 79 79 79 -9999 -9999 -9999 -9999 -9999 -9999 -9999 79 79 79 79 79 79 79 79 79 79 79 79 79 79 -9999 -9999 -9999 -9999 -9999 -9999 -9999 -9999 -9999 86 66 79 79 79 79 66 83 83 83 83 83 -9999 -9999 83 83 83 83 -9999 -9999 -9999 -9999 -9999 -9999 -9999 89 89 89 89 79 79 79 79 89 89 -9999 -9999 -9999 -9999 -9999 -9999 -9999 83 83 89 83 83 83 89 83 -9999 -9999 -9999 89 89 89 89 89 83 -9999 89 -9999 -9999 -9999 66 66 79 67 -9999 -9999 -9999 -9999 -9999 -9999 -9999 -9999 -9999 79 67 79 -9999 -9999 -9999 -9999 -9999 -9999 -9999 -9999 -9999 -9999 -9999 -9999 -9999 66 66 79 79 -9999 79 -9999 -9999 -9999 -9999 -9999 66 66 66 79 67 -9999 -9999 -9999 79 -9999 79 67 -9999 79 66 79 -9999 79 79 79 79 79 79 79 79 79 79 79 79 79 79 66 66 79 79 -9999 -9999 79 66 66 66 79 -9999 -9999 -9999 -9999 -9999 -9999 -9999 -9999 -9999 -9999 -9999 66 66 66 79 66 79 67 67 79 66 66 67 67 -9999 79 66 66 66 66 79 66 66 66 66 66 66 66 66 66 66 66 66 83 83 83 83 83 66 66 66 66 66 66 66 66 66 66 66 66 66 66 66 66 66 66 66 66 66 66 66 66 66 66 66 66 66 66 66
81 81 81 81 81 81 81 81 81 81 81 81 81 81 66 79 -9999 -9999 66 -9999 -9999 -9999 -9999 -9999 -9999 -9999 -9999 79 79 79 79 79 -9999 -9999 -9999 79 79 -9999 -9999 -9999 -9999 79 79 79 79 79 79 79 79 -9999 -9999 -9999 -9999 -9999 -9999 79 79 79 79 79 79 -9999 -9999 79 79 79 79 89 83 83 83 83 -9999 -9999 83 83 -9999 -9999 -9999 -9999 83 -9999 89 89 89 89 89 89 89 79 79 79 79 79 79 79 89 89 89 89 89 89 83 89 83 89 89 83 89 83 89 83 -9999 -9999 -9999 89 89 89 83 -9999 89 -9999 83 83 83 -9999 83 79 79 79 -9999 -9999 -9999 -9999 -9999 -9999 -9999 -9999 67 66 67 -9999 79 67 -9999 -9999 -9999 -9999 -9999 -9999 -9999 -9999 -9999 -9999 67 66 66 79 79 -9999 -9999 -9999 -9999 -9999 -9999 -9999 66 66 66 79 -9999 -9999 -9999 -9999 79 67 -9999 67 -9999 -9999 66 79 -9999 -9999 67 79 79 79 79 79 79 79 79 79 66 79 79 66 66 79 -9999 -9999 79 66 79 79 66 -9999 -9999 66 66 66 66 66 66 66 79 66 66 66 66 66 81 81 81 81 81 81 66 66 66 66 79 79 66 66 66 66 66 66 66 66 66 66 66 66 66 66 66 66 66 83 83 83 83 83 83 66 79 66 66 66 79 66 66 66 66 66 66 66 66 66 66 66 66 66 66 66 66 66 66 66 66 66 66 66 66
81 81 81 81 81 81 66 66 81 81 81 81 81 81 81 79 79 -9999 66 -9999 -9999 -9999 -9999 -9999 -9999 -9999 79 79 79 79 79 -9999 -9999 79 79 79 79 79 79 -9999 -9999 -9999 -9999 -9999 -9999 -9999 -9999 -9999 -9999 -9999 -9999 79 79 79 79 79 79 79 79 79 79 -9999 -9999 -9999 -9999 89 89 89 89 83 83 -9999 83 83 83 83 83 89 83 83 89 -9999 89 89 89 89 89 89 83 79 86 79 79 79 79 79 89 89 89 89 89 89 89 89 89 89 89 89 -9999 83 -9999 -9999 -9999 -9999 -9999 83 -9999 83 -9999 -9999 -9999 -9999 89 -9999 -9999 -9999 -9999 -9999 79 79 79 67 -9999 -9999 -9999 -9999 -9999 -9999 -9999 79 79 -9999 -9999 -9999 -9999 -9999 -9999 -9999 -9999 -9999 -9999 -9999 -9999 66 -9999 79 66 66 66 66 -9999 -9999 -9999 79 -9999 -9999 66 66 66 66 -9999 -9999 -9999 -9999 79 -9999 67 67 67 -9999 -9999 -9999 67 -9999 -9999 -9999 79 79 89 89 89 83 89 89 79 79 66 66 66 79 79 66 66 79 79 86 66 -9999 66 66 66 66 66 66 66 66 66 66 66 66 66 66 81 81 81 81 81 81 81 66 66 66 66 66 66 66 66 66 66 66 66 66 66 66 66 66 66 66 66 66 66 66 83 83 83 83 83 83 66 66 66 79 79 66 66 66 66 66 66 66 66 66 66 66 66 79 66 66 66 66 66 66 66 66 66 66 66
81 81 81 81 81 66 66 66 81 81 81 81 81 81 81 79 79 -9999 -9999 -9999 -9999 79 79 -9999 -9999 -9999 79 79 79 79 -9999 -9999 -9999 79 79 79 79 79 79 79 -9999 -9999 -9999 -9999 -9999 -9999 79 79 79 79 79 79 79 79 79 79 79 -9999 -9999 -9999 -9999 -9999 -9999 -9999 -9999 89 89 89 89 83 -9999 83 83 83 89 89 83 83 83 89 -9999 -9999 -9999 89 89 89 89 89 79 86 86 86 79 79 79 79 89 89 89 89 89 89 89 89 89 89 89 89 89 -9999 -9999 -9999 -9999 -9999 -9999 -9999 -9999 -9999 -9999 -9999 -9999 -9999 83 -9999 -9999 -9999 -9999 -9999 -9999 -9999 79 79 79 -9999 79 79 -9999 -9999 -9999 -9999 67 67 -9999 -9999 -9999 -9999 79 -9999 79 -9999 67 66 -9999 -9999 -9999 -9999 67 66 66 79 -9999 -9999 -9999 -9999 -9999 79 66 -9999 66 66 -9999 79 -9999 -9999 -9999 66 79 79 79 79 67 -9999 -9999 -9999 -9999 79 79 89 89 89 89 83 83 83 89 79 66 66 66 66 66 79 79 66 -9999 -9999 -9999 -9999 66 66 66 66 66 66 66 66 66 66 66 66 66 66 81 81 81 81 81 81 81 81 81 81 81 66 66 66 66 66 66 66 66 66 66 66 66 66 66 66 66 66 81 81 66 66 83 83 83 83 66 66 66 66 79 79 79 66 66 66 66 66 66 66 66 66 66 66 66 66 66 66 66 66 66 66 66 66 66
81 81 81 81 81 66 66 66 66 66 81 81 81 81 81 66 66 79 -9999 79 -9999 -9999 -9999 -9999 79 79 79 79 79 -9999 -9999 -9999 79 79 79 67 67 79 79 79 -9999 -9999 -9999 -9999 79 79 79 67 66 79 79 79 79 -9999 -9999 -9999 -9999 -9999 -9999 -9999 -9999 -9999 -9999 -9999 -9999 89 89 89 83 -9999 83 83 89 89 89 -9999 -9999 -9999 -9999 -9999 -9999 -9999 -9999 94 94 94 94 94 86 -9999 79 79 79 79 79 79 89 89 89 89 89 89 89 89 89 89 89 89 -9999 -9999 -9999 -9999 -9999 -9999 -9999 89 89 -9999 89 -9999 -9999 -9999 -9999 -9999 -9999 -9999 -9999 -9999 -9999 -9999 -9999 -9999 89 -9999 89 79 79 79 -9999 79 79 79 -9999 -9999 -9999 -9999 67 67 79 67 67 66 -9999 -9999 -9999 -9999 -9999 -9999 -9999 -9999 -9999 -9999 79 66 66 79 66 -9999 66 66 66 67 79 -9999 -9999 67 67 67 67 79 79 67 -9999 -9999 -9999 79 79 89 83 83 83 83 83 83 83 83 66 66 66 66 66 -9999 -9999 -9999 -9999 79 -9999 79 -9999 -9999 66 66 66 79 79 79 66 66 66 66 66 66 81 81 81 81 81 81 81 81 81 81 81 81 81 81 81 66 66 66 66 66 66 66 66 66 66 66 66 81 81 81 81 81 66 66 83 83 66 66 66 66 79 66 66 66 66 66 66 66 66 66 66 66 66 66 66 66 66 66 66 66 66 66 66 66 66
81 81 81 81 81 66 66 66 66 66 81 81 81 81 81 66 66 79 -9999 -9999 -9999 79 79 79 79 79 79 79 -9999 -9999 -9999 -9999 -9999 79 79 67 67 79 79 79 -9999 -9999 79 79 79 79 79 79 79 79 79 -9999 -9999 -9999 -9999 -9999 -9999 -9999 -9999 -9999 -9999 -9999 -9999 -9999 -9999 89 89 83 -9999 83 83 89 83 89 -9999 -9999 -9999 -9999 -9999 -9999 -9999 -9999 -9999 94 94 94 94 86 86 79 79 79 79 79 79 79 89 89 89 89 89 89 89 89 83 83 83 -9999 -9999 89 83 83 67 67 -9999 -9999 -9999 -9999 79 67 -9999 66 -9999 -9999 -9999 -9999 -9999 -9999 -9999 -9999 -9999 -9999 -9999 -9999 89 89 89 79 -9999 79 79 67 -9999 -9999 -9999 -9999 66 67 67 66 66 66 66 66 66 -9999 -9999 -9999 -9999 -9999 -9999 -9999 66 66 66 66 79 -9999 -9999 66 66 66 66 66 -9999 66 -9999 79 66 66 79 -9999 -9999 -9999 -9999 66 66 66 66 83 83 83 83 83 79 79 79 79 -9999 -9999 -9999 -9999 -9999 -9999 -9999 -9999 -9999 79 67 -9999 66 66 67 -9999 79 -9999 -9999 -9999 79 -9999 67 -9999 -9999 67 81 81 81 81 81 81 81 81 81 81 81 81 81 81 81 81 66 66 66 66 66 66 66 81 81 81 81 81 81 81 81 81 66 66 66 66 66 66 66 66 66 66 66 66 66 66 66 66 66 66 66 66 66 66 66 66 66 66 66 66 66 66 66
81 81 81 81 81 81 81 81 81 81 81 81 81 81 81 81 66 -9999 -9999 79 79 79 79 79 79 79 -9999 -9999 -9999 -9999 -9999 -9999 -9999 79 79 79 79 79 79 -9999 -9999 -9999 79 79 79 79 79 79 79 79 -9999 -9999 -9999 -9999 -9999 -9999 -9999 -9999 -9999 -9999 -9999 -9999 -9999 -9999 89 83 -9999 -9999 83 83 89 89 89 -9999 -9999 -9999 -9999 -9999 -9999 -9999 -9999 -9999 94 94 94 94 94 66 86 79 79 79 79 79 79 89 89 89 89 89 89 89 89 89 83 -9999 83 -9999 83 79 -9999 -9999 67 67 67 -9999 -9999 79 79 -9999 67 67 -9999 67 -9999 -9999 -9999 -9999 -9999 -9999 -9999 -9999 -9999 -9999 83 89 89 89 -9999 -9999 -9999 79 -9999 -9999 -9999 -9999 67 -9999 -9999 66 66 66 66 66 66 66 79 -9999 -9999 -9999 79 66 79 79 66 66 79 66 -9999 66 66 -9999 66 -9999 -9999 79 -9999 67 67 79 67 -9999 -9999 79 -9999 66 66 66 79 -9999 66 79 79 66 66 -9999 -9999 -9999 -9999 79 -9999 67 -9999 -9999 -9999 79 -9999 79 -9999 67 66 66 67 -9999 -9999 -9999 -9999 79 -9999 -9999 67 67 -9999 79 79 79 67 67 81 81 81 81 81 81 81 81 81 81 81 81 81 81 81 66 66 66 81 81 81 81 81 81 81 81 81 81 66 66 66 66 66 66 66 66 66 66 66 66 66 66 66 66 66 66 66 66 79 66 66 66 66 66 66 66 66 66 66
81 81 81 81 81 81 81 81 81 81 81 81 81 81 81 81 81 66 -9999 -9999 79 79 -9999 -9999 -9999 -9999 -9999 -9999 -9999 -9999 -9999 -9999 -9999 -9999 79 79 79 68 68 -9999 -9999 68 68 68 68 79 -9999 -9999 -9999 -9999 -9999 -9999 -9999 -9999 -9999 -9999 -9999 -9999 -9999 -9999 -9999 -9999 -9999 89 89 -9999 83 83 89 89 89 89 89 -9999 -9999 -9999 -9999 -9999 -9999 -9999 -9999 -9999 -9999 -9999 94 89 89 79 79 79 79 79 79 79 79 89 89 89 89 89 89 89 89 89 89 -9999 83 -9999 -9999 67 67 67 -9999 -9999 67 -9999 -9999 -9999 66 67 67 66 67 -9999 -9999 -9999 -9999 -9999 -9999 -9999 -9999 -9999 -9999 -9999 83 83 89 89 89 79 66 79 79 66 -9999 -9999 67 79 79 66 66 79 66 66 79 -9999 -9999 -9999 -9999 66 67 -9999 79 -9999 66 66 79 79 -9999 -9999 79 67 67 67 -9999 -9999 66 79 67 79 -9999 -9999 67 -9999 -9999 79 67 -9999 -9999 -9999 66 66 -9999 -9999 -9999 -9999 79 67 -9999 -9999 -9999 79 79 -9999 67 67 -9999 79 -9999 79 79 67 67 -9999 -9999 -9999 -9999 -9999 -9999 -9999 -9999 66 79 79 79 79 79 79 79 79 66 66 66 81 81 81 81 81 81 81 81 81 81 81 81 81 81 81 81 81 81 81 81 81 81 81 81 66 66 66 66 66 66 66 66 66 66 66 66 66 66 66 66 66 66 66 66 66 66 66 66 66 66 66 66 66 66
81 81 81 81 81 81 81 81 81 81 81 81 81 81 81 81 79 -9999 -9999 -9999 -9999 -9999 -9999 -9999 -9999 -9999 -9999 -9999 -9999 -9999 79 -9999 -9999 -9999 68 68 68 -9999 -9999 -9999 68 68 68 68 68 68 -9999 -9999 -9999 -9999 -9999 -9999 -9999 -9999 -9999 -9999 -9999 -9999 -9999 -9999 -9999 -9999 89 83 -9999 89 83 89 89 89 89 89 89 -9999 -9999 -9999 -9999 -9999 -9999 -9999 -9999 -9999 -9999 -9999 89 89 79 79 79 79 79 79 79 79 89 89 89 89 89 89 89 89 89 89 89 89 79 -9999 79 -9999 79 66 -9999 -9999 -9999 -9999 -9999 -9999 79 67 79 79 79 -9999 -9999 -9999 -9999 -9999 -9999 -9999 -9999 -9999 -9999 -9999 -9999 83 89 89 89 79 66 79 -9999 -9999 -9999 -9999 -9999 -9999 67 79 -9999 -9999 66 66 79 79 66 79 -9999 -9999 67 79 79 66 79 66 66 66 66 -9999 66 66 66 66 79 -9999 79 67 -9999 66 66 66 66 -9999 -9999 -9999 -9999 -9999 -9999 -9999 -9999 -9999 -9999 -9999 -9999 -9999 67 79 67 -9999 -9999 67 67 79 79 -9999 -9999 79 67 79 79 66 79 -9999 -9999 67 -9999 -9999 66 -9999 -9999 -9999 -9999 67 79 79 79 79 79 79 79 66 66 66 66 66 66 81 81 81 81 81 81 66 81 81 81 81 81 81 81 81 81 81 81 81 81 66 66 81 66 66 66 66 66 66 66 66 66 66 66 66 66 66 66 66 66 66 66 66 66 66 66 66 66 66 66
81 81 81 81 81 81 81 81 81 81 81 81 79 -9999 -9999 -9999 -9999 -9999 -9999 66 66 79 79 66 79 -9999 -9999 -9999 -9999 -9999 -9999 79 79 -9999 -9999 -9999 -9999 -9999 -9999 -9999 68 68 68 68 68 68 -9999 -9999 -9999 -9999 -9999 -9999 -9999 -9999 -9999 -9999 -9999 -9999 -9999 -9999 83 83 83 -9999 83 83 89 89 89 89 89 89 89 83 -9999 -9999 -9999 -9999 -9999 83 -9999 -9999 83 89 89 89 89 79 79 79 79 79 79 89 89 89 89 89 89 89 89 89 89 83 89 -9999 -9999 -9999 67 67 67 67 79 79 79 -9999 -9999 67 66 67 -9999 67 -9999 -9999 -9999 -9999 -9999 -9999 -9999 -9999 -9999 -9999 89 -9999 -9999 83 89 89 89 66 66 79 -9999 -9999 -9999 79 -9999 79 79 79 -9999 -9999 66 66 79 79 79 79 -9999 -9999 -9999 67 66 -9999 79 66 79 66 66 -9999 66 66 79 66 -9999 -9999 79 79 67 79 -9999 -9999 -9999 -9999 79 -9999 -9999 -9999 -9999 79 79 -9999 -9999 -9999 67 79 79 66 -9999 -9999 -9999 -9999 67 67 67 -9999 -9999 -9999 -9999 79 79 67 79 67 -9999 67 79 -9999 67 67 -9999 -9999 -9999 -9999 79 79 79 79 79 79 79 79 79 79 66 66 66 66 66 66 66 66 66 66 66 66 66 81 81 81 81 81 81 81 81 81 81 81 81 81 81 66 66 66 66 66 66 66 66 66 66 66 66 66 66 66 66 66 66 66 66 66 66 66 66 66 66
81 81 81 81 81 81 81 79 79 -9999 -9999 -9999 -9999 -9999 79 81 81 -9999 66 -9999 79 67 79 66 66 -9999 -9999 -9999 -9999 -9999 -9999 -9999 68 68 68 -9999 -9999 68 -9999 68 68 68 68 68 68 68 -9999 -9999 -9999 -9999 -9999 -9999 -9999 -9999 -9999 -9999 -9999 -9999 -9999 83 83 -9999 83 83 83 89 89 89 89 83 89 89 68 68 -9999 -9999 48 68 68 83 -9999 -9999 83 83 89 89 89 79 79 79 79 79 89 89 89 89 89 89 89 89 89 89 89 83 83 -9999 -9999 79 -9999 79 79 67 66 66 67 -9999 -9999 -9999 79 67 67 66 66 -9999 -9999 -9999 -9999 -9999 -9999 -9999 -9999 -9999 -9999 83 -9999 -9999 89 89 79 66 79 79 67 -9999 -9999 79 79 79 79 67 -9999 -9999 -9999 79 -9999 79 79 -9999 -9999 -9999 -9999 -9999 79 66 -9999 79 66 66 66 79 79 -9999 66 66 79 -9999 -9999 79 -9999 -9999 -9999 79 -9999 -9999 -9999 -9999 -9999 -9999 -9999 67 79 -9999 -9999 -9999 67 67 67 79 79 -9999 -9999 -9999 67 67 67 79 -9999 -9999 -9999 79 79 67 -9999 -9999 -9999 79 67 -9999 67 79 -9999 67 -9999 -9999 66 79 79 79 79 79 79 79 79 79 79 79 79 66 66 66 66 66 66 66 66 66 66 66 81 81 81 81 81 81 81 81 66 66 81 81 81 81 81 81 66 66 66 66 66 66 66 66 66 66 66 66 66 66 66 66 66 66 66 66 66 81 81
81 81 81 79 -9999 -9999 -9999 -9999 -9999 -9999 79 81 81 81 81 81 79 79 -9999 79 79 79 -9999 79 66 79 79 79 79 79 -9999 -9999 -9999 68 68 68 -9999 -9999 -9999 68 68 68 68 68 68 68 68 -9999 -9999 -9999 -9999 -9999 -9999 -9999 -9999 -9999 -9999 83 83 -9999 83 83 83 83 89 83 83 83 89 89 68 68 68 68 68 68 68 68 68 -9999 -9999 -9999 83 83 89 89 89 89 89 89 89 89 89 89 89 89 89 83 89 89 89 89 89 89 -9999 67 -9999 79 67 66 79 67 79 -9999 -9999 -9999 66 66 79 67 67 -9999 67 -9999 67 -9999 66 -9999 -9999 -9999 -9999 -9999 -9999 -9999 -9999 -9999 83 89 79 79 79 66 79 -9999 -9999 -9999 -9999 -9999 79 67 -9999 -9999 -9999 -9999 -9999 -9999 -9999 -9999 -9999 -9999 -9999 -9999 -9999 79 66 -9999 -9999 -9999 66 -9999 -9999 -9999 79 79 -9999 79 -9999 67 79 -9999 -9999 -9999 -9999 -9999 -9999 -9999 -9999 79 67 67 79 79 -9999 -9999 -9999 -9999 79 67 79 79 -9999 -9999 67 79 67 -9999 -9999 -9999 -9999 67 79 67 79 -9999 -9999 67 -9999 67 67 79 67 67 -9999 67 67 67 79 79 79 79 79 79 79 79 79 79 79 79 79 79 66 66 66 66 66 66 66 66 81 81 81 81 81 81 81 81 66 81 81 81 81 81 81 81 66 66 66 66 66 66 66 66 66 66 66 66 66 66 66 66 66 66 66 66 81 81 81
-9999 -9999 -9999 -9999 -9999 79 81 81 81 81 81 81 79 79 79 79 79 79 79 67 -9999 79 -9999 -9999 66 79 79 79 66 79 68 68 68 68 68 48 -9999 -9999 -9999 68 68 68 68 68 68 68 48 -9999 -9999 -9999 -9999 -9999 -9999 -9999 -9999 89 89 -9999 -9999 83 83 83 89 83 83 83 83 89 83 -9999 -9999 -9999 -9999 -9999 -9999 -9999 45 68 -9999 -9999 -9999 -9999 83 83 89 89 89 89 89 89 89 89 89 89 89 89 89 83 89 89 89 89 89 79 -9999 79 -9999 79 -9999 79 67 67 79 -9999 67 -9999 -9999 -9999 -9999 79 -9999 67 -9999 -9999 -9999 67 66 -9999 -9999 66 -9999 -9999 -9999 -9999 83 79 -9999 66 79 79 79 -9999 -9999 -9999 -9999 67 67 79 67 67 -9999 -9999 -9999 -9999 -9999 -9999 -9999 -9999 79 -9999 -9999 -9999 -9999 -9999 -9999 79 66 -9999 66 -9999 -9999 -9999 67 -9999 67 67 -9999 -9999 -9999 -9999 -9999 -9999 -9999 -9999 -9999 66 -9999 79 79 67 67 -9999 67 -9999 -9999 -9999 79 67 67 79 -9999 -9999 -9999 79 67 -9999 -9999 -9999 -9999 79 79 -9999 67 67 -9999 79 79 79 67 79 -9999 67 -9999 -9999 67 79 67 79 79 79 79 79 79 79 79 79 79 79 79 79 79 79 79 66 66 66 66 66 66 66 66 66 81 81 81 81 66 81 81 81 81 81 81 66 66 66 66 66 66 66 66 66 66 66 66 66 66 66 66 66 66 66 66 81 81 81 81
79 79 81 81 81 81 81 79 79 79 79 79 79 79 79 79 79 79 79 67 -9999 -9999 -9999 -9999 -9999 79 79 79 66 45 45 68 68 68 48 68 68 -9999 -9999 68 68 68 68 68 68 68 68 -9999 -9999 -9999 -9999 -9999 -9999 -9999 83 83 -9999 83 83 83 89 89 89 83 89 89 89 89 68 -9999 -9999 -9999 -9999 -9999 -9999 -9999 -9999 -9999 -9999 -9999 -9999 -9999 45 83 89 89 89 89 89 89 89 89 89 89 89 89 89 89 89 89 89 89 79 -9999 67 -9999 -9999 79 67 79 67 -9999 79 -9999 -9999 -9999 79 79 79 67 79 79 -9999 -9999 -9999 -9999 79 66 -9999 67 -9999 -9999 79 -9999 -9999 -9999 -9999 66 79 79 79 79 79 79 -9999 79 -9999 67 79 -9999 -9999 -9999 -9999 66 -9999 -9999 79 67 -9999 -9999 79 -9999 -9999 -9999 -9999 89 89 79 79 -9999 -9999 -9999 67 -9999 -9999 -9999 -9999 -9999 66 -9999 -9999 -9999 66 79 79 66 -9999 67 -9999 79 67 -9999 -9999 -9999 -9999 67 -9999 67 79 -9999 -9999 -9999 -9999 79 67 -9999 -9999 79 67 67 79 79 67 -9999 -9999 -9999 67 79 79 66 -9999 67 -9999 79 -9999 79 66 79 79 79 79 79 79 79 79 79 79 79 79 79 79 79 79 79 79 79 79 66 66 66 66 66 66 66 66 66 66 81 81 81 81 81 81 66 66 66 66 66 66 66 66 66 66 66 66 81 81 81 66 66 66 66 81 81 81 81 81
81 81 81 81 81 81 81 79 79 -9999 -9999 -9999 79 79 79 79 79 79 79 67 -9999 67 -9999 79 79 79 79 79 45 45 45 45 48 48 48 68 45 68 -9999 -9999 68 68 68 68 68 89 89 -9999 89 -9999 -9999 89 83 83 -9999 83 83 83 89 83 89 89 89 89 89 89 89 68 68 -9999 -9999 -9999 -9999 -9999 -9999 -9999 -9999 -9999 -9999 -9999 -9999 -9999 45 45 89 89 89 89 89 89 89 89 89 89 89 89 89 89 89 89 89 89 67 67 -9999 -9999 -9999 -9999 79 67 67 67 67 67 -9999 -9999 66 67 66 66 79 -9999 -9999 -9999 -9999 -9999 79 66 79 79 -9999 -9999 67 -9999 -9999 -9999 83 89 -9999 79 66 79 79 79 -9999 -9999 -9999 -9999 66 -9999 66 66 66 79 -9999 66 66 -9999 -9999 79 79 67 -9999 -9999 -9999 -9999 89 83 66 79 -9999 -9999 -9999 -9999 79 66 -9999 -9999 -9999 66 79 79 67 67 67 -9999 -9999 -9999 -9999 79 79 67 67 79 -9999 -9999 -9999 67 79 -9999 -9999 -9999 -9999 79 67 -9999 -9999 79 -9999 79 67 67 67 -9999 -9999 -9999 -9999 -9999 67 79 67 -9999 -9999 67 -9999 67 79 79 79 79 79 79 79 79 79 79 79 79 79 79 79 79 79 79 79 79 79 79 79 79 66 66 66 66 66 66 66 66 66 81 81 81 81 66 66 66 66 66 66 66 66 81 81 81 81 81 81 81 66 66 66 66 81 81 81 81 81
81 81 81 81 81 81 81 79 -9999 -9999 -9999 -9999 79 79 79 79 79 79 79 -9999 66 -9999 79 79 79 79 79 79 45 45 45 68 48 68 45 45 45 45 -9999 77 68 89 89 89 89 89 89 89 89 89 89 83 83 83 83 83 89 89 89 83 89 89 89 89 89 89 89 68 68 -9999 -9999 -9999 -9999 -9999 -9999 -9999 -9999 -9999 -9999 -9999 -9999 -9999 45 45 45 83 83 83 83 83 83 89 89 89 89 89 89 89 89 89 79 79 67 79 -9999 -9999 66 -9999 79 79 79 79 -9999 -9999 -9999 79 -9999 79 66 79 79 -9999 -9999 -9999 -9999 -9999 79 66 66 79 66 -9999 66 67 -9999 89 83 83 83 -9999 -9999 66 66 66 79 79 79 -9999 -9999 -9999 -9999 -9999 -9999 -9999 79 66 66 67 -9999 -9999 79 89 89 -9999 -9999 -9999 -9999 -9999 -9999 -9999 -9999 -9999 66 -9999 66 79 -9999 -9999 79 66 66 66 66 79 79 -9999 79 -9999 67 79 79 67 -9999 67 -9999 79 67 67 67 67 -9999 -9999 -9999 67 79 -9999 -9999 66 79 79 66 79 67 -9999 -9999 79 67 -9999 67 79 -9999 -9999 -9999 67 -9999 67 79 79 79 79 79 79 79 79 79 79 79 79 79 79 79 79 79 79 79 79 79 79 79 79 79 79 79 79 66 66 66 66 66 66 66 66 66 66 66 66 66 66 66 66 66 81 81 81 81 81 81 81 66 66 66 66 81 81 81 81 81
81 81 81 81 81 81 81 81 -9999 -9999 -9999 -9999 79 79 79 79 79 79 79 79 66 66 79 79 79 79 68 48 45 45 45 68 45 45 45 45 45 45 -9999 -9999 89 89 89 89 89 89 89 89 89 83 83 83 83 83 89 89 89 89 89 89 89 89 89 89 89 89 68 68 68 -9999 -9999 -9999 -9999 -9999 -9999 -9999 -9999 -9999 -9999 -9999 -9999 -9999 68 45 45 45 83 83 83 -9999 83 -9999 -9999 83 -9999 89 89 89 89 79 79 79 79 -9999 -9999 -9999 -9999 67 79 67 67 79 66 79 -9999 67 67 66 66 67 -9999 -9999 -9999 -9999 -9999 -9999 79 66 67 -9999 -9999 -9999 79 79 67 89 83 83 83 83 83 -9999 -9999 -9999 -9999 -9999 89 -9999 -9999 -9999 83 83 83 83 -9999 -9999 -9999 83 83 83 -9999 -9999 89 83 -9999 -9999 -9999 -9999 66 66 -9999 -9999 -9999 79 67 79 66 -9999 -9999 -9999 -9999 79 66 66 67 67 -9999 -9999 -9999 -9999 79 66 67 -9999 -9999 79 67 67 79 -9999 -9999 -9999 -9999 79 67 67 -9999 -9999 -9999 67 66 67 79 -9999 -9999 79 -9999 -9999 67 79 79 -9999 -9999 67 67 66 79 79 79 79 79 79 79 79 79 79 79 79 79 79 79 79 79 79 79 79 79 79 79 79 79 79 79 79 79 79 79 66 66 66 66 66 66 66 66 66 66 66 66 66 66 81 81 81 81 81 81 81 66 66 66 66 81 81 81 81 81
81 81 81 81 81 81 81 81 -9999 -9999 -9999 -9999 79 79 79 79 79 67 66 79 66 66 79 79 79 68 48 48 45 45 45 45 45 45 45 45 45 45 83 -9999 89 89 89 89 89 89 89 83 83 83 83 83 83 89 89 89 89 89 89 89 89 89 89 89 89 89 68 68 -9999 -9999 -9999 -9999 -9999 -9999 -9999 -9999 -9999 -9999 -9999 -9999 -9999 -9999 -9999 -9999 -9999 -9999 89 83 89 -9999 83 83 83 -9999 -9999 -9999 -9999 67 -9999 79 79 67 79 -9999 -9999 -9999 -9999 -9999 79 67 79 79 67 67 -9999 -9999 79 79 66 -9999 -9999 -9999 -9999 -9999 -9999 79 79 66 66 79 -9999 -9999 -9999 79 79 79 89 83 83 83 83 89 83 -9999 -9999 83 83 -9999 83 83 83 83 83 83 83 83 83 -9999 -9999 83 83 -9999 89 83 -9999 -9999 83 -9999 -9999 67 67 79 66 66 66 67 -9999 -9999 -9999 -9999 -9999 -9999 79 66 79 79 -9999 -9999 -9999 -9999 79 67 67 -9999 -9999 -9999 -9999 79 79 -9999 79 -9999 -9999 67 67 -9999 -9999 67 -9999 79 66 67 -9999 -9999 -9999 -9999 -9999 -9999 -9999 -9999 -9999 -9999 -9999 67 -9999 -9999 79 79 79 79 79 79 79 79 79 79 79 79 79 79 79 79 79 79 79 79 79 79 79 79 79 79 79 79 79 79 79 79 79 79 79 66 66 66 66 66 66 66 66 66 81 81 81 81 81 81 81 81 66 66 81 81 81 81 81 81 81
81 81 81 81 81 81 81 81 -9999 -9999 -9999 -9999 79 -9999 79 79 79 79 79 81 81 66 79 79 68 68 68 68 45 45 45 45 45 45 45 45 45 45 83 -9999 89 89 89 89 89 83 83 83 83 83 83 89 89 83 89 89 89 89 89 89 89 89 83 89 89 68 68 68 -9999 -9999 -9999 -9999 -9999 -9999 -9999 -9999 -9999 -9999 -9999 -9999 -9999 -9999 68 68 68 -9999 -9999 -9999 -9999 -9999 -9999 -9999 83 67 -9999 67 -9999 -9999 -9999 67 -9999 79 67 79 -9999 -9999 67 67 67 66 79 67 -9999 -9999 -9999 67 67 66 67 66 -9999 -9999 -9999 -9999 66 66 66 66 -9999 67 -9999 67 -9999 79 79 79 79 83 83 83 83 83 89 89 83 -9999 83 89 89 83 83 83 83 89 89 89 89 83 83 -9999 -9999 89 89 89 -9999 -9999 -9999 -9999 -9999 -9999 67 79 67 -9999 67 79 -9999 79 -9999 -9999 -9999 -9999 79 79 67 67 67 -9999 -9999 79 -9999 79 79 -9999 -9999 -9999 79 67 79 -9999 79 -9999 -9999 -9999 -9999 -9999 -9999 67 67 -9999 66 -9999 -9999 79 -9999 79 -9999 -9999 67 -9999 -9999 -9999 -9999 67 -9999 -9999 79 79 79 67 79 79 79 79 79 79 67 67 79 79 79 79 79 79 79 79 79 79 79 79 79 79 79 79 79 79 79 79 79 79 79 79 66 66 66 66 66 66 66 81 81 81 81 81 81 81 81 66 66 66 81 81 81 81 81 81 81
81 81 81 81 81 81 -9999 -9999 -9999 -9999 -9999 -9999 -9999 -9999 79 79 79 79 81 81 81 66 66 68 68 68 68 68 45 45 45 45 45 45 45 45 45 45 45 -9999 89 83 83 83 83 83 45 45 45 45 68 68 68 89 89 89 89 89 89 89 89 89 89 89 68 45 45 68 -9999 -9999 -9999 -9999 -9999 -9999 -9999 -9999 -9999 -9999 -9999 -9999 -9999 68 -9999 -9999 -9999 -9999 68 68 -9999 -9999 -9999 -9999 -9999 -9999 -9999 -9999 -9999 -9999 -9999 -9999 -9999 66 -9999 -9999 -9999 -9999 -9999 79 67 79 67 67 67 -9999 -9999 -9999 79 67 -9999 66 79 -9999 79 66 66 79 66 66 66 -9999 -9999 66 -9999 -9999 -9999 -9999 -9999 -9999 79 66 83 83 89 89 89 89 89 -9999 83 83 83 83 89 89 89 89 89 83 -9999 -9999 -9999 -9999 -9999 89 83 -9999 -9999 -9999 79 -9999 -9999 79 -9999 79 66 79 67 66 -9999 -9999 -9999 -9999 79 79 67 79 -9999 -9999 -9999 -9999 67 79 79 67 67 -9999 -9999 79 79 -9999 67 -9999 79 79 67 66 -9999 -9999 -9999 79 67 79 67 -9999 -9999 79 67 -9999 67 67 -9999 -9999 -9999 67 -9999 79 79 79 79 79 79 79 79 79 79 79 67 66 67 79 79 79 79 79 79 79 79 79 79 79 79 79 79 79 79 79 79 79 79 79 79 79 79 66 66 66 66 81 81 81 81 81 81 81 81 81 81 66 66 81 81 81 81 81 81 81 66
81 81 81 81 81 81 -9999 -9999 -9999 -9999 -9999 -9999 -9999 -9999 79 67 79 81 81 81 81 66 45 68 68 68 68 48 45 45 45 45 45 45 45 45 45 66 66 -9999 -9999 45 45 45 45 45 45 45 72 72 68 68 68 68 68 89 89 89 89 89 89 89 89 68 68 68 68 68 -9999 -9999 -9999 -9999 -9999 -9999 -9999 -9999 -9999 -9999 -9999 -9999 48 48 -9999 -9999 -9999 68 79 79 -9999 -9999 -9999 67 -9999 -9999 -9999 -9999 -9999 -9999 -9999 -9999 79 66 67 -9999 -9999 -9999 -9999 79 -9999 79 79 79 79 -9999 -9999 -9999 -9999 79 79 -9999 -9999 -9999 66 66 66 66 66 66 66 66 -9999 -9999 -9999 -9999 -9999 -9999 -9999 -9999 -9999 -9999 -9999 -9999 -9999 -9999 89 89 89 83 -9999 83 83 89 89 89 89 83 83 -9999 83 89 89 -9999 -9999 -9999 -9999 83 83 -9999 79 67 -9999 -9999 67 67 -9999 67 79 -9999 -9999 -9999 -9999 -9999 -9999 79 67 67 67 -9999 -9999 -9999 -9999 79 79 -9999 -9999 -9999 -9999 79 79 79 67 -9999 -9999 -9999 -9999 -9999 -9999 79 79 79 67 67 67 66 -9999 79 67 79 79 79 79 79 66 66 79 79 79 79 79 79 79 79 79 79 79 79 79 67 66 67 79 79 79 79 79 79 79 79 79 79 79 79 79 79 79 79 79 79 79 79 79 79 79 66 66 66 66 81 81 81 81 81 81 81 81 81 81 66 66 66 81 81 81 81 81 81 66
81 81 81 81 81 -9999 -9999 -9999 -9999 -9999 -9999 -9999 -9999 79 79 79 81 81 81 81 81 72 45 45 68 68 68 45 45 45 45 45 45 45 66 66 66 66 66 66 -9999 68 45 45 45 68 72 72 72 72 68 68 45 68 68 68 89 89 89 89 89 68 68 68 68 68 68 68 -9999 48 45 48 -9999 -9999 -9999 -9999 -9999 -9999 68 68 45 68 -9999 45 -9999 79 79 79 -9999 -9999 -9999 -9999 -9999 -9999 -9999 67 79 -9999 67 -9999 -9999 -9999 -9999 -9999 -9999 67 67 79 -9999 -9999 -9999 -9999 66 -9999 79 79 67 67 79 66 -9999 -9999 -9999 -9999 -9999 79 -9999 -9999 67 79 79 -9999 -9999 79 67 67 -9999 -9999 -9999 -9999 -9999 67 -9999 -9999 -9999 79 89 83 83 -9999 83 89 89 83 83 -9999 83 83 89 83 89 83 83 83 83 -9999 -9999 89 79 -9999 -9999 -9999 -9999 79 -9999 79 67 67 66 -9999 -9999 -9999 -9999 -9999 66 67 67 -9999 -9999 -9999 -9999 -9999 79 67 -9999 -9999 -9999 67 67 -9999 67 -9999 -9999 -9999 67 79 -9999 79 79 79 79 79 79 79 -9999 79 79 79 79 79 79 79 79 79 79 79 79 79 79 79 79 79 79 79 79 79 79 79 79 67 66 66 66 67 79 79 79 79 79 79 79 79 79 79 79 79 79 79 79 79 79 79 79 79 66 66 81 81 81 81 81 81 81 81 81 81 81 66 66 66 66 66 66 81 81 66 66
81 81 -9999 -9999 -9999 -9999 -9999 -9999 -9999 -9999 -9999 -9999 79 79 67 81 81 81 81 81 81 72 45 45 45 68 68 45 45 45 45 45 66 66 66 66 66 66 66 66 -9999 68 45 68 72 72 72 72 72 72 68 68 68 68 68 68 68 68 68 68 68 68 68 45 45 68 68 45 45 68 68 68 68 68 45 68 68 68 45 68 68 68 45 -9999 66 79 79 79 -9999 -9999 -9999 79 -9999 -9999 -9999 79 -9999 -9999 -9999 -9999 67 -9999 79 -9999 -9999 -9999 -9999 -9999 -9999 -9999 -9999 -9999 79 -9999 79 79 67 79 67 -9999 -9999 67 66 66 -9999 66 -9999 -9999 -9999 66 66 66 -9999 66 79 67 -9999 79 79 67 67 67 -9999 -9999 -9999 79 -9999 66 66 79 66 -9999 -9999 -9999 -9999 83 83 89 89 89 83 83 83 89 89 89 83 -9999 79 67 -9999 -9999 -9999 -9999 -9999 79 67 -9999 79 -9999 -9999 -9999 -9999 -9999 -9999 66 79 67 67 -9999 -9999 79 79 79 -9999 -9999 -9999 -9999 79 -9999 -9999 -9999 79 79 67 -9999 -9999 -9999 -9999 -9999 -9999 -9999 -9999 -9999 -9999 -9999 -9999 -9999 -9999 -9999 -9999 -9999 -9999 -9999 -9999 -9999 -9999 -9999 79 79 79 79 79 79 79 79 79 79 79 79 79 66 66 66 66 66 66 66 66 79 79 79 79 79 79 79 79 79 79 79 79 79 79 79 66 66 81 81 81 81 81 81 81 66 66 66 66 66 66 66 66 66 66 66 66 66 66
-9999 -9999 -9999 -9999 -9999 -9999 -9999 -9999 -9999 -9999 -9999 -9999 79 79 81 81 81 81 81 81 72 72 72 45 45 68 45 45 45 45 45 66 66 66 66 66 66 66 66 66 -9999 -9999 72 72 72 72 72 72 72 72 68 68 68 68 68 68 68 68 45 45 45 48 45 -9999 45 68 68 68 68 68 68 68 68 68 68 68 68 68 68 68 68 68 45 66 66 79 79 79 79 -9999 -9999 66 66 66 79 79 -9999 79 67 67 -9999 67 -9999 -9999 67 -9999 -9999 67 -9999 -9999 -9999 -9999 -9999 -9999 -9999 -9999 -9999 79 67 79 -9999 -9999 -9999 -9999 66 66 66 -9999 -9999 66 66 -9999 -9999 79 -9999 -9999 67 67 67 67 79 79 79 -9999 -9999 79 79 66 66 79 66 66 66 66 66 79 79 89 89 89 83 83 83 83 89 89 89 83 -9999 66 67 -9999 -9999 -9999 -9999 66 79 -9999 -9999 -9999 -9999 -9999 -9999 -9999 79 66 79 -9999 -9999 -9999 -9999 -9999 -9999 67 -9999 -9999 -9999 -9999 79 79 79 -9999 -9999 -9999 -9999 -9999 79 81 81 81 81 81 66 66 66 79 79 79 79 79 -9999 79 79 79 79 79 79 -9999 -9999 -9999 79 79 79 79 79 79 79 79 79 79 79 79 79 79 66 66 66 66 66 66 67 79 79 79 79 79 79 79 79 79 79 79 79 79 66 66 66 81 81 81 81 81 66 66 66 66 66 66 66 66 66 66 66 66 66 66 66
-9999 -9999 -9999 -9999 -9999 -9999 -9999 -9999 -9999 -9999 79 79 79 79 81 81 81 81 81 81 72 72 72 45 45 68 45 45 45 66 66 66 66 66 66 66 66 79 79 79 79 -9999 72 72 72 72 72 72 72 72 68 68 68 45 45 68 48 48 -9999 68 48 -9999 68 -9999 48 68 68 48 68 68 48 68 68 68 48 68 68 68 68 48 68 68 79 79 79 79 79 -9999 79 -9999 -9999 67 79 66 79 79 -9999 79 -9999 66 -9999 67 67 -9999 67 67 67 66 -9999 66 79 -9999 -9999 79 -9999 -9999 -9999 -9999 -9999 -9999 -9999 79 66 -9999 66 -9999 -9999 -9999 -9999 66 -9999 -9999 -9999 -9999 66 -9999 67 -9999 -9999 66 79 -9999 67 79 -9999 79 79 79 79 79 -9999 79 79 79 79 79 79 79 79 66 83 83 83 83 83 89 89 83 83 -9999 66 67 67 -9999 -9999 -9999 -9999 67 67 79 -9999 -9999 -9999 -9999 79 79 79 67 67 79 -9999 -9999 -9999 67 -9999 79 -9999 79 67 -9999 -9999 -9999 -9999 79 -9999 -9999 79 81 81 81 81 81 81 81 81 81 66 66 79 79 -9999 79 79 79 79 79 67 66 66 -9999 -9999 -9999 -9999 79 79 79 79 79 79 79 79 79 79 79 79 79 79 79 66 66 79 66 66 66 66 79 79 79 79 79 79 79 79 66 66 66 66 81 81 81 81 66 66 66 66 66 66 66 66 66 79 79 79 66 66 83 83
-9999 -9999 -9999 -9999 -9999 -9999 -9999 -9999 -9999 -9999 79 66 79 81 81 81 81 81 81 72 72 72 45 45 45 45 45 45 66 66 66 66 66 79 79 79 79 79 79 79 79 -9999 72 72 72 72 72 72 72 72 45 45 68 45 68 68 -9999 68 -9999 68 -9999 -9999 48 68 45 45 68 48 -9999 68 -9999 -9999 -9999 -9999 45 -9999 68 -9999 48 -9999 68 79 79 79 79 79 79 -9999 79 -9999 67 -9999 -9999 -9999 -9999 79 -9999 -9999 67 67 79 -9999 79 -9999 67 66 79 -9999 66 67 -9999 79 -9999 79 -9999 -9999 -9999 -9999 -9999 -9999 -9999 -9999 -9999 -9999 -9999 -9999 -9999 -9999 67 -9999 -9999 79 -9999 -9999 -9999 67 -9999 67 -9999 79 -9999 -9999 -9999 -9999 -9999 66 -9999 -9999 79 79 -9999 67 79 79 79 79 79 79 79 66 66 79 79 79 89 89 89 89 89 83 -9999 66 67 -9999 67 -9999 79 -9999 -9999 79 -9999 -9999 -9999 79 79 67 67 79 -9999 -9999 -9999 67 79 79 79 79 -9999 -9999 -9999 -9999 -9999 -9999 -9999 -9999 -9999 -9999 -9999 81 81 81 81 81 81 81 81 81 66 66 79 -9999 -9999 79 79 79 79 79 79 66 66 -9999 66 66 -9999 -9999 -9999 -9999 79 79 79 79 79 79 79 79 79 79 79 79 79 79 79 79 66 79 67 67 66 66 66 79 79 66 66 66 66 66 66 81 81 66 66 66 66 66 66 66 66 66 66 66 79 79 79 66 66 83 83
-9999 -9999 -9999 -9999 -9999 -9999 -9999 -9999 -9999 79 79 79 81 81 81 81 81 81 81 72 72 45 45 45 45 48 68 66 66 66 66 79 79 79 79 79 79 79 79 79 79 -9999 68 72 72 72 72 72 72 72 45 45 48 -9999 -9999 48 68 -9999 45 -9999 68 -9999 -9999 -9999 48 45 68 -9999 45 -9999 68 -9999 -9999 48 48 68 -9999 68 -9999 68 79 79 79 79 79 79 67 -9999 -9999 -9999 79 79 79 67 67 -9999 -9999 -9999 67 67 79 -9999 79 -9999 -9999 -9999 79 67 79 67 79 79 -9999 66 67 -9999 -9999 -9999 -9999 -9999 -9999 -9999 -9999 -9999 -9999 -9999 -9999 -9999 -9999 -9999 -9999 79 -9999 -9999 -9999 79 79 79 79 -9999 -9999 -9999 -9999 -9999 -9999 -9999 -9999 79 79 79 -9999 79 79 79 79 -9999 79 79 79 79 79 79 79 79 79 79 -9999 -9999 89 83 -9999 -9999 66 67 67 -9999 -9999 79 79 67 -9999 -9999 79 79 79 79 79 79 79 -9999 -9999 79 79 -9999 -9999 -9999 -9999 79 79 -9999 -9999 -9999 -9999 -9999 -9999 -9999 -9999 79 81 81 81 81 81 81 81 66 66 67 -9999 -9999 -9999 79 -9999 -9999 -9999 67 66 66 66 66 66 79 79 79 79 -9999 -9999 -9999 -9999 79 79 79 79 79 79 -9999 79 79 79 79 79 79 79 79 79 79 79 67 66 66 66 66 66 66 66 66 66 66 66 66 66 66 66 66 66 66 66 66 66 66 66 66 66 66 66 83 83
-9999 -9999 -9999 -9999 -9999 -9999 -9999 -9999 79 79 79 79 81 81 81 81 81 81 81 72 72 68 45 45 45 48 66 66 66 66 79 79 79 79 79 79 79 79 79 79 79 -9999 -9999 72 72 72 72 72 72 72 68 45 -9999 48 48 -9999 -9999 -9999 -9999 -9999 -9999 -9999 48 -9999 68 45 68 -9999 -9999 -9999 -9999 -9999 -9999 -9999 -9999 -9999 -9999 -9999 -9999 79 66 79 79 79 79 79 -9999 67 -9999 79 66 79 79 79 79 -9999 -9999 -9999 79 79 79 79 -9999 -9999 -9999 67 79 79 67 -9999 67 -9999 -9999 -9999 -9999 -9999 67 66 79 -9999 66 -9999 67 67 67 -9999 -9999 -9999 -9999 -9999 -9999 -9999 -9999 -9999 67 79 79 79 -9999 79 -9999 -9999 -9999 -9999 -9999 -9999 -9999 -9999 -9999 67 79 79 79 79 79 79 79 79 79 -9999 -9999 -9999 -9999 -9999 -9999 -9999 -9999 -9999 89 89 89 -9999 -9999 79 79 -9999 -9999 79 79 -9999 -9999 -9999 66 66 -9999 -9999 66 66 79 -9999 -9999 -9999 -9999 -9999 67 67 -9999 -9999 -9999 -9999 -9999 -9999 -9999 -9999 -9999 -9999 -9999 67 81 81 81 81 81 81 81 66 66 79 79 -9999 -9999 79 79 79 -9999 79 66 66 -9999 66 -9999 66 79 79 79 79 81 81 -9999 -9999 -9999 -9999 79 79 79 -9999 79 79 79 79 79 79 79 79 79 79 79 66 66 66 66 66 66 66 66 66 66 66 66 66 83 83 83 83 83 66 66 66 79 79 66 66 66 66 66 66 66
-9999 -9999 -9999 -9999 -9999 -9999 -9999 79 79 79 79 81 81 81 81 81 81 81 81 81 81 79 79 66 66 66 66 66 66 79 79 79 79 79 79 79 79 79 79 79 79 68 -9999 72 72 72 72 72 72 72 72 45 -9999 -9999 -9999 -9999 48 -9999 -9999 45 -9999 -9999 48 -9999 68 45 68 68 -9999 -9999 -9999 45 68 45 -9999 68 68 68 68 79 79 79 79 79 79 79 79 79 -9999 79 66 79 79 67 -9999 -9999 -9999 67 66 79 67 -9999 -9999 79 79 67 79 67 79 67 -9999 -9999 67 -9999 67 67 79 66 67 -9999 -9999 79 67 66 79 67 79 67 79 -9999 -9999 -9999 -9999 -9999 -9999 -9999 -9999 -9999 67 79 -9999 -9999 -9999 -9999 -9999 -9999 -9999 -9999 -9999 67 79 -9999 -9999 -9999 -9999 -9999 -9999 79 -9999 -9999 -9999 -9999 -9999 -9999 -9999 -9999 -9999 -9999 79 89 -9999 -9999 -9999 -9999 -9999 -9999 -9999 -9999 -9999 -9999 79 -9999 66 -9999 -9999 -9999 -9999 -9999 -9999 -9999 -9999 -9999 -9999 -9999 -9999 -9999 -9999 -9999 -9999 -9999 -9999 -9999 -9999 -9999 -9999 -9999 -9999 -9999 81 81 81 81 81 81 66 66 66 79 79 -9999 -9999 -9999 -9999 -9999 -9999 -9999 66 -9999 67 66 79 79 79 79 79 79 81 66 66 66 66 -9999 -9999 -9999 -9999 79 79 79 79 79 79 79 79 79 79 79 66 66 66 66 66 66 66 66 66 66 66 66 83 83 83 83 83 83 89 79 79 79 66 79 66 66 66 66 66 66 66
-9999 -9999 -9999 -9999 -9999 79 79 79 79 79 81 81 81 81 81 81 81 81 81 81 79 79 79 66 66 66 66 66 66 79 79 79 79 79 79 79 79 79 79 79 79 68 -9999 72 72 72 72 72 72 72 72 68 45 48 -9999 -9999 68 -9999 -9999 -9999 -9999 48 -9999 -9999 48 48 68 68 -9999 68 -9999 -9999 -9999 -9999 -9999 68 -9999 45 79 -9999 67 79 79 79 79 79 79 79 -9999 79 79 79 79 67 -9999 -9999 -9999 -9999 79 67 66 79 -9999 -9999 -9999 -9999 79 66 79 67 79 -9999 67 -9999 67 66 67 -9999 -9999 -9999 -9999 79 66 66 79 67 79 79 67 -9999 -9999 66 -9999 79 66 -9999 66 -9999 -9999 -9999 -9999 -9999 -9999 67 67 67 67 67 67 79 -9999 -9999 -9999 -9999 -9999 -9999 -9999 -9999 -9999 -9999 -9999 -9999 -9999 -9999 -9999 -9999 -9999 -9999 -9999 -9999 -9999 83 83 83 66 66 66 66 66 79 79 -9999 -9999 -9999 -9999 -9999 -9999 -9999 -9999 -9999 -9999 -9999 -9999 -9999 -9999 -9999 -9999 -9999 -9999 -9999 -9999 -9999 -9999 -9999 -9999 -9999 -9999 -9999 79 81 81 81 81 81 66 66 79 79 79 79 -9999 -9999 -9999 79 -9999 66 66 67 66 79 79 79 79 79 79 79 81 79 66 66 66 66 -9999 79 -9999 66 66 79 79 -9999 -9999 -9999 79 79 66 66 66 66 66 66 66 66 66 66 66 83 83 83 83 83 83 83 83 89 79 79 79 79 79 79 66 66 66 66 66 66 66
-9999 -9999 -9999 -9999 79 79 79 67 81 81 81 81 81 81 81 81 81 81 81 79 79 79 66 66 66 66 66 66 66 66 79 79 79 79 79 79 79 79 79 79 68 68 -9999 68 72 72 72 72 72 72 72 68 -9999 -9999 48 -9999 68 48 -9999 45 -9999 -9999 48 68 68 48 68 68 48 48 68 68 48 68 -9999 -9999 -9999 -9999 -9999 79 79 79 79 79 79 79 -9999 -9999 -9999 79 -9999 79 79 -9999 -9999 -9999 79 79 67 79 -9999 -9999 -9999 79 67 79 67 66 79 -9999 -9999 -9999 -9999 -9999 67 67 -9999 -9999 -9999 -9999 79 79 79 79 79 79 79 67 67 67 67 79 -9999 79 79 -9999 67 79 79 79 79 79 -9999 -9999 -9999 -9999 -9999 -9999 -9999 -9999 -9999 -9999 -9999 -9999 -9999 -9999 -9999 79 79 79 79 79 79 79 79 67 -9999 -9999 -9999 -9999 -9999 89 83 83 83 66 66 66 66 79 79 79 -9999 -9999 -9999 -9999 -9999 -9999 -9999 -9999 -9999 -9999 -9999 -9999 -9999 -9999 -9999 -9999 -9999 -9999 -9999 -9999 -9999 -9999 -9999 -9999 -9999 -9999 79 81 81 81 81 81 66 66 79 79 79 -9999 -9999 -9999 -9999 -9999 79 66 67 67 67 79 79 79 79 79 79 79 81 81 66 66 66 79 79 79 -9999 79 67 67 79 66 66 67 66 66 66 66 66 66 66 66 66 66 83 83 83 83 83 83 83 83 83 83 89 79 79 79 79 79 79 79 79 66 66 66 66 66 66
-9999 -9999 79 79 79 79 81 81 81 81 81 81 81 81 81 81 81 81 79 79 79 66 66 66 66 81 81 81 66 66 66 79 79 79 79 79 79 79 79 68 68 68 -9999 -9999 72 72 72 72 72 72 72 72 45 68 48 48 68 -9999 -9999 -9999 -9999 68 48 45 45 45 45 45 48 48 -9999 -9999 68 -9999 -9999 -9999 -9999 -9999 -9999 67 67 79 79 79 79 79 -9999 -9999 -9999 79 79 79 79 -9999 -9999 -9999 -9999 79 67 79 -9999 -9999 -9999 -9999 67 67 66 66 79 79 -9999 -9999 67 67 79 79 79 -9999 -9999 -9999 79 79 66 79 79 79 79 79 79 79 -9999 67 -9999 67 67 67 67 79 79 79 66 66 79 79 79 79 79 79 -9999 79 79 79 79 79 67 79 67 66 66 79 66 79 -9999 -9999 -9999 79 -9999 -9999 -9999 -9999 -9999 -9999 -9999 83 83 66 66 66 66 79 79 79 -9999 -9999 -9999 -9999 -9999 -9999 -9999 -9999 -9999 -9999 -9999 -9999 -9999 -9999 -9999 -9999 -9999 -9999 -9999 -9999 -9999 -9999 -9999 -9999 -9999 -9999 79 81 81 81 81 66 66 79 79 79 79 79 -9999 79 79 66 66 66 79 79 66 66 79 79 79 79 79 81 81 81 81 81 66 -9999 67 -9999 -9999 79 79 79 66 66 66 66 66 66 66 66 66 66 66 66 -9999 -9999 83 83 83 83 83 83 83 83 83 79 79 79 79 79 79 79 79 79 79 79 66 66 66 66 66
-9999 79 79 79 79 81 81 81 81 81 81 81 81 81 81 81 81 79 79 79 66 66 66 66 81 81 81 81 81 81 66 66 66 79 79 79 79 68 68 68 68 68 68 -9999 72 72 72 72 72 72 72 72 68 48 68 68 68 68 -9999 -9999 48 -9999 45 45 45 45 45 45 48 68 68 68 48 68 -9999 -9999 -9999 -9999 -9999 -9999 67 79 79 79 79 67 -9999 -9999 -9999 79 79 66 79 66 -9999 67 -9999 79 67 67 67 -9999 79 -9999 -9999 79 79 66 67 67 -9999 67 -9999 79 -9999 79 -9999 -9999 -9999 -9999 -9999 -9999 79 79 79 79 79 79 66 66 -9999 -9999 -9999 79 66 67 -9999 66 79 67 79 67 67 67 67 66 79 79 -9999 79 -9999 67 -9999 -9999 67 -9999 -9999 -9999 -9999 -9999 -9999 67 -9999 -9999 67 -9999 -9999 -9999 -9999 -9999 -9999 -9999 83 83 83 83 66 66 66 66 79 79 -9999 -9999 -9999 -9999 -9999 -9999 -9999 -9999 -9999 -9999 -9999 -9999 -9999 -9999 -9999 -9999 -9999 -9999 -9999 -9999 -9999 -9999 -9999 -9999 -9999 -9999 79 66 66 66 66 66 66 79 79 79 79 79 79 67 79 79 66 79 79 79 79 79 79 79 79 79 79 81 81 81 81 79 66 -9999 -9999 -9999 79 81 79 66 79 66 -9999 66 66 66 66 66 66 66 66 -9999 -9999 83 83 83 83 83 83 83 83 89 79 79 79 79 79 79 79 79 79 79 79 79 79 66 66 66 66
79 66 79 81 81 81 81 81 66 66 66 79 81 81 81 81 79 79 66 66 66 66 66 81 81 81 81 81 81 81 81 66 66 66 66 79 68 68 68 68 68 68 68 -9999 72 72 72 72 72 72 72 72 72 68 68 -9999 48 -9999 -9999 -9999 48 48 48 48 68 68 68 68 68 68 68 48 48 68 -9999 -9999 67 67 79 67 67 79 79 79 79 79 -9999 -9999 -9999 -9999 -9999 -9999 -9999 79 -9999 79 67 67 66 -9999 -9999 -9999 79 67 79 66 79 79 -9999 67 -9999 67 -9999 79 67 79 79 -9999 -9999 -9999 -9999 79 79 79 79 79 79 79 79 -9999 -9999 -9999 -9999 -9999 66 -9999 -9999 79 66 66 67 67 -9999 67 -9999 -9999 -9999 -9999 -9999 79 67 -9999 67 -9999 67 -9999 66 66 79 -9999 -9999 -9999 -9999 -9999 79 79 79 67 -9999 -9999 -9999 -9999 -9999 89 83 83 66 -9999 66 79 79 79 79 -9999 -9999 -9999 -9999 -9999 -9999 -9999 -9999 -9999 -9999 -9999 -9999 -9999 -9999 -9999 -9999 -9999 -9999 -9999 -9999 -9999 -9999 -9999 -9999 66 66 66 66 66 66 66 66 66 79 79 79 79 79 79 79 79 66 79 79 79 79 79 79 79 79 79 79 81 81 81 81 66 66 66 79 -9999 81 81 81 81 79 66 66 66 66 66 66 66 66 66 -9999 83 83 83 83 83 83 89 89 89 89 79 79 79 79 79 79 79 79 79 79 79 79 79 79 79 66 66 66
79 79 81 81 81 81 66 66 66 79 79 79 81 81 81 79 79 79 66 66 66 66 81 81 81 81 81 81 81 81 81 81 66 45 45 45 68 68 68 68 68 68 68 -9999 68 72 72 72 72 72 72 72 72 45 68 68 -9999 -9999 -9999 -9999 -9999 68 45 45 45 68 68 68 48 68 -9999 68 68 -9999 -9999 -9999 -9999 79 79 -9999 79 79 79 79 79 66 79 -9999 79 67 67 -9999 -9999 -9999 -9999 67 -9999 67 79 -9999 -9999 -9999 79 -9999 79 67 67 66 67 79 -9999 67 67 67 66 67 -9999 -9999 -9999 -9999 79 79 79 79 79 79 79 79 79 -9999 -9999 -9999 79 79 66 67 67 79 79 66 67 67 67 67 67 67 -9999 -9999 -9999 -9999 -9999 -9999 -9999 -9999 -9999 -9999 -9999 -9999 -9999 -9999 -9999 -9999 -9999 -9999 -9999 67 79 67 67 -9999 -9999 -9999 -9999 89 83 83 83 -9999 66 66 79 79 79 -9999 -9999 -9999 -9999 -9999 -9999 -9999 -9999 -9999 -9999 -9999 -9999 -9999 -9999 -9999 -9999 -9999 -9999 -9999 -9999 -9999 -9999 -9999 66 66 66 66 66 66 66 66 66 66 66 66 79 79 79 79 79 66 66 79 79 79 79 79 79 79 79 79 79 81 81 81 81 66 66 66 66 -9999 81 81 81 81 81 66 66 66 66 79 79 66 66 -9999 83 83 83 83 83 89 89 89 89 79 79 79 79 79 79 79 79 79 79 79 79 79 79 79 79 79 66 66 66
79 79 81 81 81 66 66 66 79 79 79 79 81 79 79 79 79 66 66 66 66 66 81 81 81 81 81 81 81 81 81 72 72 72 45 45 45 68 68 68 68 68 68 -9999 -9999 72 72 72 72 72 72 72 72 68 68 -9999 48 68 68 -9999 -9999 -9999 48 45 45 68 68 68 68 68 -9999 48 68 68 -9999 -9999 -9999 79 79 -9999 79 79 79 79 67 -9999 -9999 -9999 67 79 79 79 67 79 -9999 66 79 66 79 -9999 -9999 -9999 67 79 79 67 79 79 -9999 67 -9999 -9999 79 79 79 79 -9999 -9999 -9999 67 67 67 79 79 79 79 79 79 -9999 79 -9999 -9999 79 79 -9999 79 66 79 79 67 67 -9999 -9999 -9999 -9999 -9999 -9999 79 -9999 -9999 -9999 -9999 67 -9999 -9999 -9999 -9999 -9999 -9999 67 -9999 79 -9999 -9999 -9999 -9999 79 67 67 -9999 -9999 -9999 -9999 89 89 83 83 83 66 66 79 66 66 -9999 -9999 -9999 -9999 -9999 -9999 -9999 -9999 -9999 -9999 -9999 -9999 -9999 -9999 -9999 -9999 -9999 -9999 -9999 -9999 -9999 -9999 -9999 66 66 66 66 66 66 66 66 66 66 66 66 66 79 79 66 66 66 66 79 79 79 79 79 79 79 79 79 66 81 81 81 81 81 81 81 81 81 81 81 81 81 66 66 66 66 66 66 66 66 -9999 -9999 83 83 83 83 89 89 89 89 79 79 79 79 79 79 79 79 79 79 79 79 79 79 79 79 79 79 66 66 66
79 81 81 81 66 66 66 79 79 66 66 79 79 79 79 79 66 66 66 66 66 81 81 81 81 81 81 81 81 72 72 72 72 72 72 45 45 45 45 68 68 68 68 68 -9999 72 72 72 72 72 72 72 72 72 68 68 68 45 48 -9999 -9999 68 48 68 68 -9999 48 68 45 45 -9999 -9999 -9999 -9999 -9999 -9999 -9999 -9999 -9999 79 79 79 79 79 -9999 79 -9999 79 79 79 79 79 79 -9999 -9999 -9999 -9999 67 79 -9999 -9999 -9999 -9999 67 67 67 67 66 -9999 -9999 -9999 79 67 79 79 79 -9999 -9999 -9999 79 79 79 79 79 79 66 67 67 -9999 -9999 -9999 67 -9999 67 -9999 79 67 79 79 67 -9999 67 -9999 -9999 -9999 -9999 79 79 79 -9999 -9999 79 -9999 -9999 -9999 79 -9999 79 67 79 67 66 67 67 66 67 79 67 79 -9999 -9999 -9999 79 83 89 89 83 83 -9999 83 83 66 66 66 -9999 -9999 -9999 79 66 79 -9999 -9999 -9999 -9999 -9999 -9999 -9999 -9999 -9999 -9999 -9999 -9999 -9999 -9999 -9999 -9999 66 66 66 66 66 66 66 66 66 66 66 66 66 66 66 66 66 66 66 79 79 79 79 79 79 79 79 79 81 81 81 81 81 81 81 81 81 81 81 81 66 66 66 66 66 66 66 -9999 -9999 -9999 -9999 -9999 83 83 83 83 89 89 79 79 79 79 79 79 79 79 79 79 79 79 79 79 79 79 79 79 79 79 79 66 66
81 81 81 66 66 79 79 79 79 66 66 66 66 66 79 79 66 66 66 66 66 81 81 81 81 81 81 81 72 72 72 72 72 72 72 72 72 45 45 45 45 45 45 68 -9999 68 72 72 72 72 72 72 72 72 48 48 68 68 -9999 68 -9999 -9999 48 68 68 48 48 68 45 68 -9999 45 79 -9999 -9999 79 -9999 79 79 -9999 67 79 79 67 -9999 79 -9999 66 79 79 79 67 -9999 -9999 79 79 79 -9999 79 -9999 -9999 67 -9999 79 79 79 67 -9999 67 -9999 -9999 79 79 67 67 66 79 -9999 -9999 -9999 67 67 79 79 67 66 67 -9999 -9999 -9999 -9999 66 -9999 -9999 66 66 66 66 79 67 -9999 67 79 67 79 66 79 79 79 -9999 79 79 67 67 67 79 67 67 67 67 79 67 -9999 -9999 -9999 -9999 79 79 -9999 -9999 -9999 79 66 83 89 89 83 83 83 -9999 -9999 83 89 79 79 -9999 -9999 66 66 79 79 -9999 -9999 -9999 -9999 -9999 -9999 -9999 -9999 -9999 -9999 -9999 -9999 -9999 -9999 -9999 66 66 83 83 83 83 83 83 83 83 66 66 66 66 66 66 66 66 66 79 79 79 79 79 79 79 66 66 66 81 81 81 81 81 81 81 66 66 66 66 66 66 66 66 66 -9999 -9999 -9999 -9999 -9999 -9999 -9999 83 83 83 89 79 79 79 79 79 79 79 79 79 79 79 79 79 79 79 79 79 79 79 79 79 79 79 79 66
81 81 81 66 66 66 66 66 66 66 66 79 66 66 66 66 66 66 66 66 66 81 81 81 81 81 81 72 72 72 72 72 72 72 72 72 72 72 45 45 45 45 45 45 -9999 68 81 81 81 81 81 81 72 72 68 68 45 45 48 48 48 -9999 -9999 -9999 -9999 -9999 48 48 68 68 -9999 79 79 66 -9999 -9999 67 79 79 66 79 79 79 -9999 -9999 79 -9999 66 79 79 79 -9999 -9999 -9999 -9999 67 66 79 -9999 -9999 -9999 67 67 67 67 79 79 -9999 67 -9999 79 -9999 79 66 67 66 -9999 -9999 -9999 67 66 66 67 79 79 67 67 -9999 -9999 67 -9999 -9999 -9999 -9999 66 66 66 79 79 67 67 67 66 79 67 79 67 -9999 79 -9999 79 67 67 79 -9999 -9999 -9999 79 -9999 67 -9999 -9999 -9999 -9999 -9999 -9999 79 66 79 -9999 -9999 66 66 83 89 89 83 83 83 83 -9999 83 83 83 83 79 -9999 66 66 66 79 -9999 -9999 -9999 -9999 -9999 -9999 -9999 -9999 -9999 -9999 -9999 67 79 66 83 83 83 83 83 83 83 83 83 83 83 83 83 66 66 66 66 66 66 66 66 66 79 79 79 79 66 66 66 66 81 81 81 81 66 66 66 66 66 66 66 66 66 66 -9999 -9999 -9999 -9999 -9999 -9999 -9999 83 83 83 66 79 79 79 79 79 79 79 79 79 79 79 79 79 79 79 79 79 79 79 79 79 79 79 79 79 79 79
81 81 66 66 66 66 66 66 66 66 66 66 66 66 66 66 66 66 66 66 81 81 81 81 81 81 81 72 72 72 72 72 72 72 72 72 72 72 72 45 45 45 66 66 -9999 -9999 81 81 81 81 81 81 81 81 72 45 45 45 48 48 45 -9999 -9999 -9999 48 68 -9999 48 68 68 67 67 67 -9999 -9999 67 79 67 67 67 67 79 66 79 66 79 -9999 79 79 79 79 -9999 -9999 -9999 -9999 67 66 79 -9999 -9999 -9999 -9999 67 79 79 66 66 79 66 -9999 67 67 79 66 79 66 -9999 -9999 -9999 79 66 66 67 -9999 -9999 -9999 -9999 -9999 79 -9999 -9999 79 -9999 -9999 79 66 79 67 -9999 67 -9999 67 -9999 -9999 -9999 -9999 79 -9999 79 -9999 -9999 -9999 -9999 -9999 -9999 -9999 -9999 -9999 -9999 -9999 -9999 -9999 -9999 -9999 -9999 79 79 79 79 79 79 79 66 83 89 89 83 83 83 -9999 83 83 83 83 83 79 -9999 -9999 66 66 -9999 -9999 79 -9999 -9999 -9999 -9999 -9999 -9999 -9999 -9999 67 66 66 83 83 83 83 83 83 83 83 83 83 83 83 83 83 83 66 66 66 66 66 66 66 66 66 66 66 66 66 66 66 66 81 81 79 79 66 66 66 66 66 66 66 -9999 -9999 -9999 83 83 83 83 83 66 66 66 66 66 79 79 79 79 79 79 79 79 79 79 79 79 79 79 79 79 79 79 79 79 79 79 79 79 79 79 79 79
81 66 66 66 66 66 66 66 66 66 66 66 66 66 66 81 81 66 66 81 81 81 81 81 81 81 81 72 72 72 72 72 72 72 72 72 72 81 81 81 81 66 66 66 66 -9999 81 81 81 81 81 81 81 81 81 81 45 68 68 -9999 68 -9999 68 -9999 48 48 48 48 68 79 -9999 67 66 -9999 -9999 79 -9999 79 79 -9999 79 79 79 67 -9999 -9999 -9999 -9999 -9999 79 79 -9999 -9999 -9999 79 67 66 67 -9999 -9999 -9999 67 79 79 66 79 79 -9999 -9999 -9999 -9999 67 79 79 79 79 -9999 -9999 -9999 67 -9999 67 67 -9999 -9999 -9999 -9999 -9999 -9999 -9999 -9999 -9999 -9999 -9999 79 79 79 -9999 -9999 67 -9999 -9999 -9999 67 79 -9999 79 -9999 -9999 -9999 -9999 -9999 -9999 -9999 -9999 -9999 -9999 -9999 -9999 -9999 -9999 -9999 -9999 -9999 -9999 -9999 79 79 79 79 79 79 79 83 89 89 83 83 83 -9999 83 83 83 83 83 -9999 -9999 -9999 -9999 66 79 79 79 79 -9999 -9999 -9999 -9999 -9999 -9999 66 66 66 83 83 83 83 83 83 83 83 83 83 83 83 83 83 83 83 83 83 66 66 66 66 66 66 66 66 66 66 66 66 66 66 67 67 67 67 66 66 66 66 -9999 -9999 83 83 83 83 83 83 66 66 66 66 66 66 66 79 79 79 79 79 79 79 79 79 79 79 79 79 79 79 79 79 79 79 79 79 79 79 79 79 79 79 79 79
66 66 66 66 66 66 66 66 66 66 66 66 66 66 81 81 81 81 66 81 81 81 81 81 81 81 72 72 72 72 72 72 72 72 81 81 81 81 81 81 81 81 81 66 66 -9999 79 81 81 81 81 81 81 81 81 81 79 66 48 68 -9999 -9999 -9999 -9999 48 48 68 68 67 67 -9999 67 79 79 -9999 -9999 67 79 -9999 -9999 79 79 79 67 -9999 -9999 -9999 -9999 -9999 -9999 -9999 -9999 -9999 -9999 -9999 79 79 -9999 -9999 -9999 -9999 -9999 79 67 67 79 -9999 -9999 -9999 -9999 -9999 -9999 67 67 67 -9999 -9999 66 79 -9999 67 -9999 -9999 -9999 -9999 -9999 -9999 67 -9999 -9999 -9999 -9999 -9999 -9999 79 66 66 79 79 -9999 -9999 -9999 -9999 -9999 -9999 -9999 -9999 -9999 -9999 -9999 79 -9999 -9999 79 67 79 -9999 67 -9999 67 -9999 -9999 -9999 -9999 79 -9999 67 79 79 79 79 79 79 83 89 83 83 83 83 -9999 89 83 83 83 -9999 -9999 79 79 -9999 -9999 79 79 79 79 79 -9999 79 79 79 66 66 66 66 83 83 83 83 83 83 83 83 83 83 83 83 83 83 83 83 83 83 83 66 66 66 66 66 66 66 66 66 66 66 66 66 79 -9999 -9999 -9999 -9999 -9999 83 83 83 83 83 83 83 83 83 66 66 66 66 66 79 79 79 79 79 79 79 79 79 79 79 79 79 79 79 79 79 79 79 79 79 79 79 79 79 79 79 79 79 79 79 79
66 66 66 66 66 66 66 66 66 66 66 66 66 81 81 81 81 81 81 81 81 81 81 81 81 81 72 72 72 72 72 72 81 81 81 81 81 81 81 81 81 81 81 81 66 -9999 -9999 81 81 81 81 81 81 81 81 81 81 79 79 68 -9999 -9999 -9999 -9999 -9999 -9999 68 -9999 67 67 -9999 -9999 -9999 -9999 -9999 -9999 -9999 -9999 -9999 79 66 79 79 -9999 -9999 -9999 67 -9999 -9999 -9999 -9999 79 -9999 -9999 79 79 79 67 79 -9999 79 79 67 79 -9999 67 67 -9999 -9999 67 67 -9999 -9999 83 -9999 79 -9999 -9999 67 79 -9999 66 -9999 -9999 -9999 79 -9999 79 -9999 -9999 -9999 -9999 -9999 -9999 66 66 66 79 -9999 -9999 -9999 -9999 67 67 79 -9999 67 -9999 -9999 -9999 79 -9999 -9999 -9999 67 -9999 -9999 67 -9999 67 79 67 67 67 79 79 79 66 79 79 66 66 66 83 89 83 83 83 83 83 -9999 -9999 83 -9999 -9999 79 66 79 66 -9999 79 66 79 66 79 79 66 66 66 66 66 66 66 83 83 83 83 83 83 83 83 83 83 83 83 83 83 83 83 83 83 83 83 66 66 66 66 66 66 66 66 66 66 83 83 83 89 89 83 89 83 83 83 83 83 83 83 83 83 66 79 79 79 79 79 79 79 79 79 79 79 79 79 79 79 79 79 79 79 79 79 79 79 79 79 79 79 79 79 79 79 79 79 79 79 79 79
79 79 66 66 66 66 66 66 66 66 66 66 81 81 81 81 81 81 81 81 81 81 81 81 81 81 72 72 72 72 72 72 81 81 81 81 81 81 81 81 81 81 81 81 81 79 -9999 81 81 81 81 81 81 81 81 81 81 81 66 66 66 -9999 -9999 -9999 68 -9999 -9999 79 79 79 -9999 67 -9999 -9999 -9999 79 -9999 79 79 -9999 66 79 79 -9999 -9999 -9999 79 79 79 -9999 -9999 -9999 -9999 -9999 -9999 -9999 -9999 -9999 -9999 -9999 -9999 -9999 -9999 66 67 67 66 -9999 -9999 66 -9999 83 89 -9999 -9999 -9999 -9999 -9999 -9999 -9999 -9999 -9999 -9999 79 -9999 79 67 67 -9999 -9999 -9999 -9999 -9999 -9999 79 79 79 79 -9999 -9999 -9999 -9999 79 -9999 -9999 -9999 67 66 67 -9999 67 79 67 67 79 67 66 66 66 67 79 67 67 -9999 -9999 -9999 79 79 79 79 79 66 66 89 89 89 83 83 83 83 83 83 83 -9999 66 79 66 66 66 -9999 -9999 66 66 66 66 66 66 66 66 66 66 66 66 66 83 83 83 83 83 83 83 83 83 83 83 83 83 83 83 83 83 83 83 83 83 66 66 83 83 83 83 83 83 83 83 -9999 -9999 89 89 -9999 -9999 -9999 -9999 -9999 -9999 83 83 83 66 79 79 79 79 79 79 79 79 79 79 79 79 79 66 79 79 79 79 79 79 79 79 79 79 79 79 79 79 79 79 79 79 79 79 79 79 79 79
66 66 66 66 66 66 66 66 66 66 66 79 81 81 81 81 81 81 81 81 81 81 81 81 81 81 72 72 72 72 72 72 81 81 81 81 81 81 81 81 81 81 81 81 81 81 -9999 79 81 81 81 81 81 81 81 81 81 81 79 79 79 -9999 -9999 -9999 -9999 -9999 79 -9999 79 79 79 79 79 79 -9999 79 79 79 79 67 79 79 -9999 -9999 -9999 -9999 -9999 -9999 -9999 -9999 -9999 -9999 -9999 79 -9999 -9999 -9999 79 79 -9999 -9999 66 -9999 -9999 -9999 -9999 -9999 -9999 -9999 83 -9999 -9999 -9999 -9999 -9999 -9999 -9999 -9999 -9999 -9999 -9999 -9999 67 67 67 67 -9999 -9999 -9999 -9999 -9999 -9999 -9999 -9999 79 79 79 67 79 67 79 67 67 79 67 67 66 67 67 -9999 79 -9999 67 -9999 -9999 67 -9999 67 -9999 -9999 -9999 -9999 -9999 -9999 -9999 -9999 67 79 79 79 79 79 79 89 89 89 83 83 83 83 66 66 66 -9999 66 66 79 66 66 66 -9999 -9999 66 66 66 66 66 66 66 66 66 66 66 66 66 66 83 83 83 83 83 83 83 83 83 83 83 83 83 83 83 83 83 83 83 83 83 83 83 83 83 83 83 83 83 -9999 -9999 89 89 -9999 -9999 -9999 -9999 -9999 -9999 83 83 66 79 79 79 79 79 79 79 79 79 79 79 79 79 79 66 66 79 79 79 79 79 79 79 79 79 79 79 79 79 79 79 79 79 79 79 79 79 79 66
66 66 66 66 66 66 66 66 66 66 66 79 81 81 81 72 72 72 72 81 81 81 81 81 81 72 72 72 72 72 72 72 72 81 81 81 81 81 81 81 81 81 81 81 81 81 -9999 -9999 81 81 81 81 81 81 81 81 81 81 79 79 79 -9999 -9999 -9999 -9999 67 79 79 67 79 79 67 67 -9999 -9999 -9999 -9999 -9999 -9999 -9999 -9999 -9999 -9999 -9999 79 79 79 79 -9999 -9999 -9999 -9999 79 66 -9999 -9999 -9999 -9999 -9999 -9999 -9999 67 -9999 -9999 83 89 -9999 -9999 -9999 83 -9999 89 83 -9999 89 -9999 -9999 -9999 -9999 -9999 -9999 -9999 -9999 67 79 67 79 67 -9999 -9999 -9999 -9999 67 -9999 79 67 -9999 67 -9999 67 -9999 67 67 -9999 67 -9999 -9999 -9999 -9999 -9999 79 -9999 67 79 -9999 67 79 -9999 -9999 67 79 -9999 -9999 -9999 -9999 67 79 79 79 79 79 79 79 89 89 83 83 83 83 66 66 66 -9999 -9999 66 79 79 -9999 -9999 -9999 66 -9999 -9999 66 66 66 66 66 66 66 66 66 66 66 66 66 66 66 66 83 83 83 83 83 83 83 83 83 83 83 83 83 83 83 83 83 83 83 83 83 83 83 83 83 -9999 -9999 -9999 -9999 89 -9999 -9999 -9999 -9999 83 83 66 66 79 79 79 79 79 79 79 79 79 79 79 79 79 79 66 66 66 66 79 79 79 79 79 79 79 79 79 79 79 79 79 79 79 79 79 79 79 79 79 66
66 66 66 66 66 66 66 66 66 66 66 66 81 81 72 72 72 72 72 72 81 81 81 81 81 72 72 72 72 72 72 72 72 81 81 81 81 81 81 81 81 81 81 81 81 81 79 -9999 81 81 81 81 81 81 81 81 81 81 81 79 79 -9999 -9999 -9999 67 79 -9999 -9999 -9999 -9999 -9999 -9999 -9999 -9999 79 79 79 79 79 79 79 79 79 -9999 -9999 -9999 66 79 67 -9999 -9999 -9999 79 79 79 79 79 79 -9999 -9999 67 83 89 89 83 -9999 -9999 -9999 -9999 -9999 89 89 83 89 89 -9999 -9999 -9999 -9999 -9999 -9999 67 79 66 67 79 67 -9999 -9999 -9999 -9999 -9999 79 -9999 79 67 -9999 67 -9999 -9999 79 -9999 79 -9999 67 79 67 67 -9999 -9999 -9999 -9999 -9999 -9999 -9999 -9999 -9999 -9999 -9999 -9999 -9999 -9999 -9999 -9999 -9999 -9999 79 79 79 79 79 79 79 79 89 83 83 83 66 66 66 79 -9999 79 67 67 67 -9999 66 -9999 -9999 66 -9999 -9999 86 86 -9999 -9999 79 66 66 66 66 66 66 66 66 66 66 66 66 66 66 66 83 83 83 83 83 83 83 83 83 83 83 83 83 83 83 83 83 83 83 83 -9999 -9999 -9999 -9999 89 -9999 -9999 83 83 83 66 79 79 79 79 79 79 79 79 79 79 79 79 79 79 79 66 66 66 66 66 66 79 79 79 79 79 79 79 79 79 79 79 79 79 79 79 79 79 79 79 79 66
66 66 66 66 66 66 66 66 66 66 66 66 81 81 72 72 72 72 72 72 81 81 81 81 81 72 72 72 72 72 72 72 72 81 81 81 81 81 81 81 81 81 81 81 81 81 81 -9999 79 81 81 81 81 81 81 81 81 81 81 79 79 79 79 -9999 -9999 -9999 -9999 66 79 79 79 79 79 79 79 79 79 79 79 79 79 79 -9999 79 67 67 79 79 79 79 79 79 79 79 79 79 79 79 -9999 89 83 89 89 89 89 -9999 89 -9999 89 89 83 83 -9999 -9999 -9999 -9999 67 67 -9999 67 -9999 77 77 86 -9999 79 67 -9999 -9999 -9999 -9999 -9999 67 -9999 79 67 79 -9999 -9999 -9999 -9999 -9999 -9999 -9999 -9999 -9999 -9999 -9999 -9999 -9999 -9999 -9999 -9999 -9999 -9999 -9999 -9999 -9999 -9999 -9999 79 -9999 79 -9999 79 -9999 -9999 79 79 79 79 79 79 79 89 89 83 83 66 66 79 79 -9999 66 -9999 -9999 66 66 -9999 -9999 -9999 66 -9999 -9999 -9999 -9999 -9999 -9999 86 79 79 66 66 66 66 66 66 66 66 66 66 67 -9999 66 66 66 66 83 83 83 83 83 83 83 83 83 83 83 83 83 83 83 83 83 83 83 89 -9999 89 89 83 83 83 66 79 79 79 79 79 79 79 79 79 79 79 79 66 66 79 79 66 66 66 66 66 66 66 79 79 79 79 79 79 79 79 79 79 79 79 79 79 79 79 79 79 79 66
66 66 66 66 66 66 66 66 66 66 66 66 81 72 72 72 72 72 72 72 81 81 81 81 81 72 72 72 72 72 72 72 81 81 81 81 81 81 81 81 81 81 81 81 81 81 81 -9999 -9999 81 81 81 81 81 81 81 81 81 81 79 66 79 79 -9999 79 79 66 66 66 66 79 66 66 66 66 66 66 66 66 79 79 79 66 66 66 66 79 79 79 79 79 79 79 79 79 79 89 89 -9999 89 89 89 89 83 83 83 89 -9999 -9999 -9999 -9999 -9999 -9999 -9999 -9999 -9999 79 -9999 77 77 86 77 -9999 77 77 77 -9999 -9999 -9999 -9999 -9999 -9999 -9999 -9999 -9999 67 -9999 -9999 -9999 -9999 -9999 -9999 -9999 -9999 66 66 79 79 79 -9999 79 -9999 -9999 79 -9999 67 79 -9999 67 -9999 66 67 79 79 67 66 66 79 79 79 79 79 79 79 79 89 83 83 66 66 79 79 -9999 66 66 66 66 79 -9999 -9999 -9999 -9999 -9999 -9999 -9999 -9999 -9999 -9999 -9999 79 66 66 66 66 66 66 66 66 66 -9999 66 66 -9999 79 79 66 66 66 66 83 83 83 83 83 83 83 83 83 83 83 83 83 83 83 83 83 83 83 83 83 83 83 66 79 79 79 79 79 79 79 79 79 79 66 66 79 79 79 79 79 66 66 66 66 66 66 66 66 79 79 79 79 79 79 79 79 79 79 79 79 79 79 79 79 79 66 66
66 66 66 79 66 66 66 66 66 66 79 66 45 72 72 72 72 72 72 72 81 81 81 81 81 72 72 72 72 72 72 72 81 81 81 81 81 81 81 81 81 81 81 81 81 81 81 79 -9999 81 81 81 81 81 81 81 81 81 81 81 81 81 81 -9999 79 79 66 66 66 66 66 66 66 66 66 66 66 66 66 79 79 66 66 66 66 66 79 79 79 79 79 79 79 79 79 89 89 -9999 -9999 89 89 89 89 83 89 -9999 -9999 -9999 -9999 -9999 -9999 -9999 -9999 -9999 -9999 -9999 67 77 77 77 77 86 -9999 77 77 -9999 -9999 -9999 -9999 67 -9999 -9999 -9999 -9999 -9999 79 -9999 -9999 -9999 -9999 79 67 -9999 -9999 -9999 79 79 79 79 -9999 79 79 79 67 67 67 67 67 67 66 66 67 79 -9999 -9999 -9999 67 79 79 79 79 79 79 79 79 89 83 83 66 66 79 79 -9999 66 66 66 66 67 -9999 -9999 -9999 -9999 -9999 -9999 -9999 -9999 86 86 79 79 66 66 66 66 66 79 79 66 66 67 -9999 -9999 -9999 67 79 66 66 66 66 66 66 83 83 83 83 83 66 66 66 66 66 66 89 89 83 83 89 89 89 89 79 66 79 79 79 79 79 79 79 79 79 79 79 79 79 79 79 79 79 79 66 66 66 66 66 66 66 66 66 79 79 79 79 79 79 79 79 79 79 79 79 79 79 79 79 66 66
66 79 79 79 66 66 66 66 66 79 79 79 72 72 72 72 72 72 72 72 81 81 81 81 81 72 72 72 72 72 72 81 81 81 81 81 81 81 81 81 81 81 81 81 81 81 81 79 -9999 79 79 79 81 81 81 81 81 81 81 81 81 81 81 -9999 79 79 66 66 66 66 66 66 66 66 66 66 66 66 66 66 79 79 79 79 79 79 79 79 79 79 79 79 79 79 79 89 89 -9999 -9999 89 89 -9999 -9999 -9999 -9999 -9999 -9999 89 -9999 -9999 -9999 -9999 -9999 -9999 -9999 -9999 -9999 -9999 -9999 -9999 -9999 -9999 86 86 77 77 86 -9999 86 77 -9999 -9999 67 -9999 -9999 79 79 67 67 67 66 67 67 67 66 79 79 67 67 -9999 -9999 79 67 79 67 -9999 79 -9999 79 -9999 67 67 67 -9999 67 79 67 79 79 79 79 79 79 79 79 89 89 83 66 79 79 79 -9999 66 79 79 79 -9999 -9999 -9999 -9999 -9999 -9999 -9999 79 -9999 -9999 66 66 66 66 66 -9999 79 -9999 -9999 -9999 79 -9999 -9999 -9999 -9999 -9999 -9999 -9999 66 66 66 66 66 66 66 66 66 66 66 66 66 79 66 66 66 79 79 79 79 79 79 79 67 79 66 79 79 79 79 79 79 79 79 79 79 66 66 79 79 79 79 79 79 66 66 66 66 66 66 66 66 66 79 79 79 79 79 79 79 79 79 79 79 79 79 79 66 66 66 79
66 66 66 66 66 66 66 66 79 79 79 68 72 68 68 68 68 45 72 81 81 81 81 81 81 81 81 72 72 72 81 81 81 81 81 81 81 81 81 81 81 81 81 81 81 81 81 81 -9999 -9999 -9999 -9999 79 79 79 81 81 81 81 81 81 81 81 -9999 79 79 66 66 66 66 66 66 66 66 66 66 66 66 66 66 79 79 79 79 79 79 79 79 79 79 79 79 79 79 -9999 -9999 -9999 -9999 -9999 -9999 -9999 -9999 -9999 -9999 -9999 -9999 89 89 -9999 -9999 -9999 -9999 -9999 -9999 -9999 -9999 -9999 -9999 -9999 -9999 -9999 77 -9999 77 -9999 -9999 77 -9999 86 -9999 -9999 -9999 -9999 -9999 -9999 79 -9999 79 -9999 -9999 79 -9999 67 67 -9999 79 -9999 79 -9999 79 -9999 -9999 -9999 -9999 -9999 -9999 -9999 -9999 -9999 -9999 -9999 -9999 -9999 -9999 -9999 -9999 -9999 79 79 79 79 79 79 79 79 89 89 83 66 66 66 66 -9999 66 79 79 66 -9999 66 66 -9999 -9999 -9999 66 66 79 -9999 66 66 66 66 67 -9999 67 -9999 -9999 -9999 -9999 -9999 -9999 -9999 -9999 79 79 -9999 66 66 66 66 66 79 66 66 66 66 66 66 79 79 79 66 66 79 79 79 79 79 79 79 67 79 79 79 79 79 79 79 79 79 79 79 79 79 66 79 79 79 79 79 79 66 66 66 66 66 66 66 66 66 79 79 79 79 79 79 79 79 79 79 79 79 79 66 66 66 66 79
66 66 66 66 66 66 66 79 79 79 68 72 45 48 45 -9999 -9999 68 72 81 81 81 81 81 81 81 81 81 81 81 81 81 81 81 81 81 81 81 81 81 81 81 81 81 81 81 -9999 -9999 -9999 -9999 -9999 -9999 -9999 -9999 -9999 79 79 79 79 81 81 81 79 -9999 79 79 66 66 66 66 66 66 66 66 66 66 66 -9999 66 66 79 79 79 79 79 79 79 -9999 -9999 -9999 -9999 -9999 -9999 -9999 -9999 79 79 79 79 66 79 -9999 -9999 -9999 89 -9999 -9999 79 -9999 -9999 -9999 -9999 -9999 -9999 79 -9999 -9999 77 -9999 77 86 77 77 77 77 77 77 86 86 -9999 -9999 -9999 67 -9999 -9999 79 -9999 79 -9999 79 -9999 -9999 -9999 -9999 -9999 -9999 -9999 -9999 -9999 -9999 -9999 -9999 -9999 -9999 -9999 -9999 -9999 -9999 -9999 -9999 -9999 -9999 -9999 -9999 -9999 -9999 -9999 79 79 79 79 79 79 79 89 89 83 83 66 66 66 66 -9999 -9999 -9999 67 79 -9999 67 -9999 -9999 -9999 -9999 66 66 66 -9999 -9999 66 66 67 67 -9999 -9999 -9999 -9999 -9999 -9999 67 -9999 -9999 79 66 79 67 79 66 79 79 79 79 79 79 79 79 79 79 79 79 79 79 66 66 66 79 79 79 79 79 67 79 79 79 79 79 79 79 79 79 66 66 79 79 79 79 79 79 79 79 66 66 66 66 66 66 66 66 66 66 79 79 79 79 79 79 79 79 79 79 79 79 79 66 66 66 79 79
66 66 66 66 66 66 79 79 79 81 72 72 68 -9999 45 48 -9999 45 81 81 81 81 81 81 81 81 81 81 81 81 81 81 81 81 81 81 81 81 81 81 81 81 81 -9999 -9999 -9999 -9999 66 66 -9999 79 66 66 66 -9999 -9999 -9999 -9999 -9999 -9999 -9999 -9999 -9999 -9999 -9999 -9999 -9999 -9999 -9999 -9999 -9999 66 66 66 66 66 -9999 -9999 -9999 -9999 -9999 -9999 -9999 -9999 -9999 -9999 -9999 -9999 67 79 66 66 66 67 66 79 66 66 79 66 66 -9999 -9999 89 89 -9999 -9999 79 79 -9999 -9999 -9999 -9999 79 -9999 -9999 -9999 -9999 67 67 -9999 67 -9999 -9999 -9999 67 -9999 -9999 66 67 67 -9999 -9999 -9999 -9999 79 67 -9999 -9999 -9999 -9999 -9999 -9999 -9999 -9999 -9999 -9999 -9999 -9999 -9999 -9999 79 79 79 -9999 -9999 -9999 -9999 -9999 -9999 -9999 -9999 -9999 -9999 -9999 79 -9999 79 79 79 79 79 79 79 89 89 83 66 66 66 66 66 79 -9999 79 -9999 79 -9999 -9999 -9999 -9999 -9999 -9999 66 66 66 66 -9999 -9999 79 -9999 66 -9999 -9999 -9999 -9999 79 79 67 -9999 66 66 66 66 67 79 -9999 67 79 79 79 79 79 79 79 79 79 79 79 79 67 79 66 66 66 66 66 79 79 67 79 79 79 79 79 79 79 79 79 66 79 79 79 79 79 79 79 79 79 66 79 66 66 66 66 66 66 79 79 79 79 79 79 79 79 79 79 79 79 79 79 79 66 66 79 79 79
66 66 66 66 66 66 79 81 72 72 72 72 68 68 45 68 45 45 81 81 81 81 81 81 81 81 81 81 81 81 81 81 81 81 81 81 81 81 66 -9999 -9999 -9999 -9999 -9999 66 66 79 66 66 -9999 -9999 66 66 66 66 66 66 66 66 66 66 66 66 66 66 66 66 66 66 66 -9999 -9999 -9999 -9999 -9999 -9999 -9999 66 66 79 79 79 79 79 79 67 66 79 79 66 67 66 66 79 67 67 67 67 79 79 79 -9999 89 89 89 -9999 -9999 79 79 -9999 -9999 -9999 -9999 -9999 79 66 -9999 67 67 79 67 79 67 79 -9999 -9999 -9999 -9999 -9999 -9999 -9999 -9999 -9999 -9999 -9999 79 79 -9999 -9999 79 67 -9999 -9999 -9999 -9999 -9999 -9999 79 -9999 -9999 -9999 79 79 79 79 -9999 -9999 -9999 79 79 79 66 79 66 67 79 79 67 79 79 79 79 79 79 89 83 66 66 66 66 66 66 79 -9999 -9999 -9999 -9999 -9999 -9999 -9999 -9999 -9999 -9999 -9999 66 66 66 66 -9999 -9999 66 66 66 79 -9999 -9999 66 66 66 -9999 -9999 -9999 67 79 -9999 67 -9999 79 79 79 79 79 79 79 79 79 79 -9999 -9999 79 67 79 -9999 66 66 66 66 79 79 67 79 79 79 79 79 79 79 79 79 79 79 79 79 79 79 79 79 66 66 79 79 66 66 66 66 79 79 79 79 79 79 79 79 79 79 79 79 79 79 79 66 66 66 66 79 79 79
66 66 66 66 79 81 81 72 72 72 72 72 68 68 45 -9999 68 81 81 81 81 81 81 81 81 81 81 81 81 81 81 81 81 81 81 81 -9999 -9999 -9999 -9999 79 -9999 66 66 66 66 -9999 -9999 66 79 -9999 79 66 66 66 67 79 66 66 66 66 66 66 66 66 66 66 66 66 66 66 66 66 66 66 66 66 66 66 67 79 79 79 79 67 67 79 79 79 79 79 67 66 67 67 67 -9999 -9999 79 79 -9999 -9999 89 89 89 -9999 -9999 79 -9999 -9999 -9999 -9999 79 66 -9999 -9999 -9999 -9999 -9999 -9999 -9999 -9999 -9999 -9999 -9999 -9999 -9999 79 79 -9999 -9999 -9999 -9999 -9999 -9999 79 79 -9999 79 -9999 79 79 -9999 79 67 79 -9999 66 79 79 -9999 -9999 79 66 66 79 79 79 79 79 79 79 79 79 79 79 79 79 79 79 79 79 79 89 83 83 66 66 66 66 66 66 79 -9999 -9999 66 67 -9999 -9999 -9999 -9999 66 -9999 -9999 79 -9999 -9999 66 66 -9999 79 79 -9999 79 66 79 66 66 -9999 79 -9999 -9999 79 67 -9999 -9999 -9999 -9999 -9999 -9999 66 79 79 79 79 79 79 67 -9999 67 -9999 67 67 66 66 66 66 79 79 67 79 79 79 79 79 79 79 79 79 66 79 79 79 79 79 79 66 66 79 79 79 79 79 79 79 79 79 79 79 79 79 79 79 79 79 79 79 79 79 79 66 66 66 66 79 79 79
79 79 79 81 81 72 72 72 72 72 72 72 48 45 45 -9999 81 81 81 81 81 81 81 81 81 81 66 81 81 81 81 81 81 -9999 -9999 -9999 -9999 81 81 79 79 -9999 66 79 66 66 79 -9999 66 66 -9999 79 66 66 66 79 79 79 79 66 66 66 66 66 66 66 66 66 66 66 66 66 66 66 66 66 66 66 66 66 79 66 79 67 79 67 79 79 79 79 79 67 67 67 67 79 -9999 79 66 -9999 -9999 79 79 89 89 89 -9999 79 66 -9999 -9999 -9999 -9999 -9999 -9999 67 -9999 -9999 -9999 -9999 -9999 -9999 -9999 -9999 -9999 -9999 -9999 79 79 -9999 67 79 -9999 -9999 67 79 -9999 67 79 79 66 67 66 79 79 67 79 66 79 79 79 -9999 -9999 -9999 -9999 -9999 -9999 -9999 -9999 67 67 79 79 79 79 79 79 79 79 79 79 79 79 83 83 66 66 66 66 66 66 66 79 -9999 -9999 -9999 66 79 -9999 -9999 -9999 79 -9999 -9999 -9999 -9999 -9999 79 -9999 -9999 -9999 79 79 66 -9999 -9999 66 66 79 -9999 -9999 79 79 67 -9999 -9999 -9999 -9999 79 -9999 -9999 79 79 79 67 67 67 -9999 -9999 -9999 67 67 67 66 66 66 66 79 79 79 67 79 79 79 79 79 79 79 66 66 66 79 79 79 79 79 79 79 79 79 79 79 79 79 79 79 79 79 79 79 79 79 79 79 79 79 79 79 79 66 66 66 79 79 79 79 79
72 72 72 72 72 72 72 72 72 72 72 72 68 45 45 -9999 -9999 81 81 81 81 81 81 81 81 81 66 66 81 81 -9999 -9999 -9999 -9999 -9999 81 81 81 81 79 66 -9999 66 66 66 66 79 -9999 66 66 -9999 -9999 66 66 66 66 66 79 79 66 66 66 66 66 66 66 66 66 66 66 79 79 66 66 66 66 66 66 66 66 79 79 79 66 66 79 79 79 79 79 79 79 79 67 67 79 79 79 -9999 -9999 79 79 79 89 89 89 -9999 79 67 67 -9999 -9999 -9999 -9999 -9999 79 -9999 79 67 67 79 -9999 79 79 79 79 -9999 79 66 79 66 79 79 79 67 79 79 79 79 79 79 79 79 79 79 79 79 79 79 79 79 79 79 79 79 79 79 79 79 -9999 67 79 79 79 79 79 79 79 79 79 66 66 83 83 66 66 66 66 66 66 66 66 86 -9999 -9999 -9999 -9999 79 -9999 -9999 -9999 79 -9999 -9999 -9999 -9999 66 -9999 -9999 79 -9999 -9999 66 79 79 66 66 66 79 79 -9999 -9999 -9999 -9999 -9999 67 79 79 -9999 79 -9999 79 79 67 79 67 79 67 79 -9999 -9999 -9999 -9999 79 66 66 66 79 79 79 79 79 66 79 66 66 66 79 66 66 66 79 79 79 79 79 79 79 79 79 79 79 79 79 79 79 79 79 79 79 79 79 79 79 79 79 79 79 79 79 66 66 66 79 79 79 79
72 72 72 72 72 72 72 72 72 72 72 72 68 45 66 66 -9999 81 81 81 81 81 81 66 66 81 -9999 -9999 -9999 -9999 -9999 66 66 66 -9999 81 81 81 81 66 -9999 -9999 66 66 66 66 -9999 -9999 66 66 66 -9999 66 66 66 66 66 66 79 66 66 66 66 66 66 66 66 66 66 79 66 66 66 66 66 79 66 66 66 66 79 79 79 66 66 79 79 79 79 79 79 79 66 66 66 79 79 -9999 -9999 79 79 79 79 89 89 89 -9999 79 -9999 -9999 -9999 67 -9999 67 66 79 -9999 -9999 67 67 67 -9999 79 67 66 67 -9999 79 79 79 79 79 79 79 79 79 79 79 79 79 79 79 79 79 79 79 79 79 79 66 66 79 79 79 79 79 79 66 79 67 -9999 67 79 79 79 79 79 79 79 79 66 83 83 83 66 66 66 66 66 66 66 79 -9999 -9999 -9999 67 -9999 66 -9999 -9999 -9999 -9999 -9999 -9999 79 -9999 -9999 -9999 79 79 66 -9999 -9999 -9999 -9999 -9999 -9999 66 79 -9999 -9999 -9999 -9999 -9999 -9999 -9999 67 -9999 79 67 -9999 -9999 67 -9999 79 67 67 67 67 -9999 -9999 -9999 -9999 79 79 79 79 79 79 79 79 79 79 66 66 66 66 66 66 66 66 79 66 66 66 79 79 79 79 79 79 79 79 79 79 79 79 79 79 79 79 79 79 79 79 79 79 79 79 66 66 66 66 79 79 79 79
72 72 72 72 72 72 72 72 72 72 72 72 81 81 81 81 -9999 81 81 81 81 81 81 -9999 -9999 -9999 -9999 81 -9999 81 81 66 66 66 -9999 81 81 81 81 -9999 -9999 -9999 66 66 66 66 79 66 66 66 66 -9999 -9999 66 66 66 66 66 66 66 66 66 83 83 83 83 66 66 66 79 79 79 79 66 79 79 66 66 66 66 79 79 79 79 66 66 66 79 66 79 66 67 66 66 66 79 -9999 -9999 66 66 79 79 79 89 89 89 -9999 79 79 79 67 79 -9999 67 67 66 79 -9999 79 67 -9999 -9999 -9999 67 66 -9999 -9999 -9999 66 79 67 79 79 79 66 79 79 79 79 66 79 79 79 67 67 67 79 79 79 79 66 79 79 -9999 -9999 79 79 67 66 66 66 66 79 79 79 79 79 79 79 79 89 83 83 83 66 66 66 66 79 86 -9999 -9999 -9999 -9999 -9999 -9999 -9999 -9999 -9999 -9999 -9999 -9999 -9999 66 -9999 -9999 79 79 79 79 79 66 -9999 66 79 79 66 -9999 -9999 -9999 67 -9999 -9999 79 67 79 79 66 66 -9999 -9999 -9999 -9999 -9999 -9999 67 67 67 67 67 -9999 -9999 67 79 79 67 66 79 79 79 79 79 79 66 66 66 66 66 66 66 66 66 66 66 66 66 66 66 79 79 79 79 79 79 79 79 79 79 79 79 79 79 79 79 79 79 79 79 66 66 66 66 66 66 79 79 79
72 72 72 72 72 72 72 72 72 72 81 81 81 81 81 81 -9999 81 81 81 -9999 -9999 -9999 -9999 81 81 81 66 -9999 81 81 66 66 66 -9999 81 81 -9999 -9999 -9999 66 -9999 -9999 66 66 66 66 66 66 66 66 66 -9999 66 66 66 79 66 66 66 66 66 66 83 83 83 66 66 66 66 79 79 66 66 66 66 66 66 66 66 67 67 79 66 66 79 79 79 79 79 79 79 67 79 67 66 -9999 -9999 79 66 66 79 79 89 89 89 -9999 89 79 66 79 67 67 67 79 66 66 -9999 66 67 79 -9999 79 79 66 79 67 66 79 79 79 79 79 79 79 79 79 79 79 79 79 79 66 67 -9999 67 79 79 79 79 79 79 79 79 66 66 79 79 66 66 66 79 79 79 79 79 79 79 79 89 83 83 83 83 66 66 66 66 79 86 79 -9999 -9999 -9999 -9999 -9999 -9999 -9999 -9999 -9999 -9999 79 79 -9999 -9999 66 79 79 79 79 79 79 -9999 -9999 -9999 -9999 -9999 -9999 79 -9999 -9999 -9999 -9999 -9999 -9999 -9999 -9999 66 66 79 -9999 -9999 -9999 -9999 79 67 79 66 67 -9999 -9999 -9999 -9999 67 -9999 -9999 66 66 79 79 79 79 79 66 66 66 79 79 79 79 79 79 66 66 79 66 66 66 79 66 79 79 79 79 79 79 79 79 79 79 79 79 79 79 79 79 79 79 66 66 66 66 66 66 79 79 79
72 72 72 72 72 72 72 72 72 72 81 81 81 81 81 81 -9999 -9999 -9999 -9999 -9999 81 81 81 81 81 81 66 -9999 81 81 66 66 66 -9999 -9999 -9999 -9999 79 66 66 79 81 81 81 79 66 66 66 66 66 66 -9999 -9999 66 66 66 66 66 66 66 66 66 66 83 83 83 66 66 66 66 79 79 66 66 66 66 66 66 66 79 79 79 66 79 79 79 79 79 79 79 79 66 66 67 -9999 -9999 79 79 66 66 79 79 89 89 89 -9999 89 79 79 79 -9999 -9999 -9999 -9999 66 66 -9999 79 66 79 79 79 66 66 66 79 79 79 79 79 79 79 79 79 79 79 79 79 79 79 79 79 -9999 -9999 -9999 -9999 -9999 67 79 -9999 -9999 79 67 66 66 79 79 79 79 79 79 79 79 79 79 79 79 89 83 83 83 83 66 66 66 66 66 79 79 66 -9999 -9999 -9999 66 -9999 -9999 -9999 -9999 -9999 79 -9999 -9999 -9999 66 66 66 79 79 79 79 66 66 -9999 -9999 79 -9999 -9999 79 67 79 66 66 -9999 -9999 79 67 79 66 66 -9999 -9999 79 -9999 -9999 -9999 79 79 79 79 79 67 -9999 -9999 -9999 -9999 -9999 -9999 79 79 79 79 66 66 66 79 79 79 79 79 79 79 66 66 66 66 66 66 79 66 66 79 79 79 79 79 79 79 79 79 79 79 79 79 79 79 79 66 66 66 66 79 79 79 66 79 79
72 72 72 72 72 72 72 72 81 81 81 81 81 -9999 -9999 -9999 -9999 -9999 81 81 81 81 81 81 81 81 81 81 -9999 81 81 66 66 66 79 79 79 79 79 81 81 81 66 81 81 79 -9999 -9999 -9999 66 66 66 66 -9999 66 66 66 66 66 66 66 66 66 66 83 83 66 66 66 66 66 66 79 79 79 79 79 79 79 79 79 79 79 66 79 79 79 79 79 79 79 79 67 66 66 -9999 66 79 79 79 66 79 79 89 89 89 -9999 -9999 79 79 79 67 79 67 67 66 66 79 -9999 66 79 66 66 66 66 79 79 79 79 67 67 79 79 79 79 67 79 -9999 79 67 79 79 67 -9999 -9999 -9999 -9999 -9999 67 -9999 -9999 67 67 67 79 79 79 79 79 79 79 79 79 79 79 66 66 79 83 83 83 83 83 66 66 66 66 66 79 79 79 79 79 79 66 66 66 -9999 -9999 -9999 -9999 -9999 79 79 79 66 66 79 79 79 79 66 66 66 -9999 67 67 79 67 79 67 -9999 67 67 -9999 79 -9999 67 79 79 66 67 67 -9999 -9999 67 67 79 67 66 79 67 -9999 -9999 -9999 -9999 79 -9999 -9999 -9999 79 79 66 66 66 79 79 67 79 79 -9999 -9999 -9999 -9999 -9999 -9999 -9999 -9999 -9999 -9999 -9999 67 79 79 79 66 66 67 66 79 79 79 79 79 79 79 66 66 66 66 66 79 79 79 66 79 79
72 72 72 81 81 81 81 81 81 81 -9999 -9999 -9999 -9999 81 81 79 -9999 81 81 81 66 81 81 81 81 81 66 -9999 81 81 66 66 66 66 79 79 79 81 81 81 81 66 81 81 79 79 -9999 -9999 66 66 66 66 -9999 -9999 66 66 66 66 79 79 79 79 66 66 66 66 66 66 66 66 79 67 79 79 79 79 79 79 79 79 79 66 66 67 79 79 79 79 79 79 79 79 66 -9999 -9999 66 79 79 67 79 66 66 89 89 89 89 -9999 79 79 79 79 66 79 79 66 66 67 67 66 79 66 66 66 79 79 79 79 79 -9999 -9999 67 -9999 79 67 67 67 -9999 79 -9999 79 66 79 67 -9999 -9999 -9999 -9999 79 67 -9999 -9999 -9999 -9999 67 79 67 -9999 67 67 66 66 79 79 79 66 66 79 83 83 83 83 83 66 66 66 66 66 79 79 79 66 79 79 66 66 66 66 -9999 -9999 -9999 66 66 66 66 66 79 79 66 66 66 66 66 66 -9999 -9999 66 67 67 79 67 79 67 79 -9999 -9999 67 67 79 79 67 79 -9999 67 -9999 -9999 -9999 67 79 66 79 79 -9999 -9999 79 81 81 81 81 -9999 -9999 -9999 -9999 -9999 -9999 -9999 -9999 -9999 -9999 -9999 -9999 79 79 66 66 66 81 81 66 66 -9999 -9999 -9999 -9999 -9999 -9999 -9999 -9999 79 79 66 67 67 67 67 66 66 66 66 79 79 79 79 79 79 -9999 -9999
72 81 81 81 81 81 -9999 -9999 -9999 -9999 -9999 66 66 66 81 81 81 -9999 81 81 81 66 81 81 81 81 81 81 -9999 81 81 66 66 66 66 66 79 79 81 81 81 81 81 81 81 79 -9999 66 -9999 79 66 66 66 66 -9999 66 66 66 66 66 79 79 79 66 66 66 79 66 66 66 66 79 79 79 79 79 79 79 79 79 79 79 79 67 67 67 66 67 79 79 66 79 66 66 -9999 66 67 67 67 79 67 66 66 89 89 89 89 -9999 -9999 79 79 66 66 79 66 66 79 79 79 79 79 79 79 79 -9999 79 79 79 67 67 67 -9999 -9999 -9999 79 -9999 -9999 -9999 -9999 -9999 79 66 79 -9999 -9999 -9999 -9999 67 67 67 79 -9999 -9999 -9999 67 -9999 -9999 79 -9999 67 66 66 66 66 66 66 66 79 66 83 83 83 83 66 66 66 66 66 66 66 79 79 79 79 66 66 66 -9999 -9999 -9999 -9999 -9999 66 66 66 79 79 66 66 66 66 66 66 66 66 -9999 -9999 -9999 -9999 79 79 66 79 -9999 -9999 -9999 -9999 -9999 79 67 67 79 67 -9999 -9999 -9999 79 79 -9999 79 67 -9999 -9999 79 81 81 81 81 81 67 66 66 66 66 66 81 79 79 66 -9999 -9999 79 79 81 81 81 81 81 81 81 81 81 81 66 81 81 81 -9999 -9999 -9999 -9999 -9999 -9999 -9999 66 66 66 66 79 -9999 -9999 -9999 -9999 -9999 -9999 -9999 79
81 81 81 -9999 -9999 -9999 -9999 67 79 -9999 79 66 66 66 81 81 81 -9999 81 81 81 66 81 81 81 81 81 81 -9999 81 81 66 66 66 66 66 79 79 81 81 81 81 66 81 81 81 79 79 79 79 79 66 66 66 -9999 -9999 66 66 66 66 66 79 79 66 66 66 79 66 66 66 66 79 79 79 79 79 79 79 79 79 79 79 67 66 66 67 66 79 79 79 79 79 79 67 -9999 66 67 67 67 67 67 66 66 83 89 89 89 89 -9999 -9999 79 66 66 79 79 79 79 79 79 79 79 79 79 79 79 79 79 79 67 -9999 -9999 -9999 67 79 67 -9999 -9999 -9999 -9999 -9999 67 79 79 67 -9999 -9999 -9999 79 79 -9999 66 -9999 67 67 66 -9999 -9999 -9999 -9999 -9999 66 66 66 66 66 66 66 79 79 83 83 83 83 66 66 66 66 66 66 66 66 79 79 66 -9999 -9999 79 -9999 -9999 66 79 -9999 66 66 66 66 66 66 66 66 66 66 66 66 66 66 -9999 -9999 -9999 79 79 -9999 79 67 79 79 -9999 67 -9999 67 79 67 79 79 -9999 -9999 -9999 -9999 -9999 -9999 -9999 -9999 79 81 81 81 81 81 81 66 66 66 81 66 66 81 81 79 -9999 79 79 79 79 81 81 81 81 81 81 81 81 81 81 81 81 81 81 66 79 66 66 66 66 -9999 -9999 -9999 -9999 -9999 -9999 -9999 79 79 79 79 79 79 79
-9999 -9999 -9999 -9999 81 81 81 67 67 -9999 -9999 -9999 79 79 81 81 66 -9999 66 81 81 66 81 81 81 81 81 81 -9999 81 81 66 79 79 66 66 66 79 81 81 81 66 66 66 81 81 79 79 79 81 81 66 66 66 66 -9999 66 66 66 66 66 66 66 79 66 66 79 79 66 66 79 79 79 79 66 79 79 66 79 79 67 79 -9999 66 66 79 79 79 79 79 79 79 79 -9999 -9999 66 -9999 67 67 67 66 66 66 83 89 89 89 89 89 -9999 79 66 66 79 79 79 79 79 79 79 79 79 79 -9999 67 -9999 79 -9999 67 -9999 -9999 -9999 -9999 -9999 66 67 -9999 -9999 79 79 79 79 -9999 -9999 -9999 -9999 66 66 79 -9999 -9999 -9999 -9999 79 66 67 66 -9999 -9999 -9999 79 79 79 66 66 79 79 79 79 66 83 83 83 66 66 66 66 66 66 66 66 -9999 -9999 66 -9999 -9999 -9999 -9999 -9999 86 86 -9999 -9999 79 79 66 66 66 66 66 66 66 66 66 66 66 66 -9999 79 -9999 -9999 79 67 79 79 -9999 -9999 -9999 -9999 67 -9999 79 79 79 79 -9999 -9999 -9999 -9999 -9999 79 81 81 81 81 81 81 81 81 81 66 66 81 66 66 81 81 79 -9999 -9999 -9999 79 81 81 81 81 81 81 81 81 81 81 81 81 81 81 81 66 79 66 66 66 66 66 66 66 66 79 79 79 79 79 79 79 79 79 67
-9999 81 81 81 81 81 67 67 79 66 -9999 -9999 79 79 81 81 -9999 -9999 81 81 81 66 81 81 81 81 81 81 -9999 81 81 66 66 81 66 66 66 66 81 81 81 66 66 66 81 81 81 81 81 81 81 81 66 66 66 -9999 66 66 66 66 66 66 66 66 79 79 79 79 79 79 79 79 79 79 79 79 79 79 79 79 79 -9999 -9999 66 66 79 79 66 79 79 79 79 79 -9999 66 66 67 79 66 66 66 66 66 66 89 89 89 89 83 -9999 -9999 79 79 79 79 79 79 79 79 79 79 79 -9999 -9999 -9999 -9999 67 79 -9999 -9999 -9999 -9999 -9999 79 79 -9999 -9999 -9999 67 67 66 67 67 -9999 -9999 -9999 67 67 -9999 67 -9999 67 67 79 79 -9999 -9999 -9999 -9999 67 66 79 79 66 79 79 79 79 79 66 83 83 83 66 66 66 66 66 66 66 66 66 -9999 -9999 -9999 -9999 -9999 79 86 -9999 -9999 66 -9999 79 79 66 66 66 66 66 66 66 66 66 66 66 66 -9999 -9999 79 67 79 79 79 79 -9999 -9999 -9999 -9999 67 79 79 67 66 -9999 -9999 -9999 -9999 -9999 79 81 81 81 81 81 81 81 81 81 81 81 66 81 81 66 66 66 66 66 66 66 79 81 91 91 91 72 72 72 72 72 72 72 72 72 72 45 45 79 66 66 66 66 66 81 81 66 66 79 79 79 79 79 79 79 79 79
81 81 81 81 81 81 66 -9999 -9999 -9999 -9999 -9999 79 81 81 81 -9999 66 81 81 81 66 66 66 66 79 79 66 -9999 81 81 66 -9999 81 81 81 66 66 66 66 81 81 66 81 81 81 81 81 81 81 81 81 81 66 66 -9999 -9999 66 66 66 66 66 66 66 79 79 79 79 79 79 79 67 79 79 79 79 79 79 79 79 79 79 -9999 66 66 79 79 -9999 79 -9999 79 79 79 -9999 66 66 67 79 66 -9999 66 66 66 66 89 89 89 89 83 83 -9999 -9999 -9999 66 79 79 79 79 79 79 79 79 -9999 -9999 -9999 -9999 -9999 67 67 -9999 -9999 -9999 -9999 79 79 -9999 -9999 -9999 67 79 79 79 67 -9999 -9999 -9999 66 66 -9999 -9999 -9999 -9999 -9999 66 67 67 -9999 -9999 -9999 79 79 79 79 66 79 79 79 79 79 66 83 83 83 66 66 66 66 66 66 66 66 79 66 -9999 -9999 -9999 -9999 79 79 -9999 79 66 -9999 79 79 79 66 66 66 66 66 66 66 66 66 66 67 67 -9999 -9999 79 67 79 79 79 79 67 67 -9999 -9999 -9999 79 79 79 67 -9999 -9999 79 81 81 81 81 81 81 81 81 81 81 81 81 81 81 67 81 81 81 81 66 66 66 66 81 91 91 91 91 91 72 72 72 72 72 72 72 72 72 45 45 45 45 45 45 81 81 81 81 81 66 79 79 79 79 79 79 79 79 79
72 81 81 81 81 81 66 79 79 -9999 -9999 -9999 66 81 81 81 -9999 66 81 81 66 66 66 -9999 -9999 66 66 -9999 -9999 81 81 66 66 81 81 81 81 81 81 66 66 66 66 66 81 81 81 81 81 81 81 81 81 66 66 66 -9999 79 66 66 66 66 66 66 79 79 79 79 79 79 79 79 79 79 79 79 79 79 79 79 79 79 79 66 66 79 -9999 -9999 -9999 -9999 -9999 79 79 -9999 66 79 66 66 66 66 66 66 66 66 89 89 89 83 83 83 83 79 -9999 -9999 66 67 79 79 79 79 79 67 -9999 -9999 79 67 67 79 -9999 -9999 -9999 67 79 79 67 -9999 -9999 -9999 -9999 66 67 66 -9999 -9999 -9999 -9999 79 67 -9999 -9999 -9999 67 66 67 -9999 -9999 -9999 -9999 -9999 79 79 79 66 66 79 79 79 79 66 83 83 83 83 83 66 66 66 66 66 66 66 66 66 66 -9999 79 79 79 79 -9999 -9999 -9999 -9999 66 79 79 66 66 66 66 66 66 66 66 66 66 67 -9999 79 -9999 -9999 79 79 79 79 79 79 -9999 -9999 -9999 67 -9999 -9999 -9999 -9999 -9999 79 81 81 81 81 81 81 81 81 81 81 81 81 81 81 81 66 66 81 81 81 81 81 81 81 91 91 91 91 91 91 91 91 91 72 72 72 72 72 72 72 72 72 45 72 72 72 72 72 81 81 66 79 79 79 79 79 79 79 79 79
72 72 81 81 81 66 -9999 67 79 -9999 -9999 67 66 81 81 81 -9999 67 81 81 81 66 79 66 -9999 79 -9999 -9999 66 81 81 66 66 81 81 81 81 81 81 81 66 66 66 81 81 81 81 81 81 81 81 81 81 66 66 66 -9999 -9999 66 66 66 66 66 66 79 79 79 79 79 79 79 79 79 66 66 79 79 66 66 66 79 66 66 66 66 79 -9999 -9999 -9999 -9999 -9999 79 79 -9999 66 79 79 -9999 79 79 66 66 66 79 79 89 89 83 83 83 83 66 79 -9999 -9999 -9999 79 79 66 79 79 -9999 -9999 -9999 -9999 -9999 67 79 67 -9999 -9999 -9999 67 66 -9999 67 -9999 -9999 -9999 66 79 79 -9999 -9999 -9999 79 67 67 -9999 -9999 79 -9999 66 66 67 -9999 -9999 -9999 67 79 79 79 66 79 79 79 79 79 66 83 83 83 83 83 66 66 66 66 66 66 66 66 79 79 79 79 66 66 -9999 -9999 66 79 66 66 66 66 66 66 66 66 66 79 79 79 79 -9999 67 -9999 67 -9999 -9999 79 67 79 79 79 79 -9999 67 -9999 -9999 -9999 -9999 -9999 79 79 81 81 81 81 81 81 81 81 81 81 81 81 81 81 81 81 81 67 81 81 81 81 81 81 81 91 91 91 91 91 91 91 91 91 91 91 72 72 72 72 72 72 72 72 72 72 72 72 72 72 81 81 79 79 79 79 79 79 79 79 79
72 72 81 81 81 66 66 79 79 79 81 81 81 81 81 81 -9999 66 81 81 81 66 66 66 66 -9999 66 66 81 81 81 66 66 81 81 81 81 81 81 81 81 66 66 66 81 81 81 81 81 81 81 81 81 81 66 66 66 -9999 -9999 66 66 66 66 66 66 79 66 79 79 66 66 66 79 66 66 66 79 66 66 66 79 79 79 79 66 79 -9999 -9999 -9999 -9999 -9999 66 79 -9999 79 79 79 -9999 -9999 79 66 66 66 66 79 89 89 83 83 83 83 83 66 66 79 -9999 -9999 -9999 -9999 -9999 66 79 79 -9999 -9999 79 67 79 -9999 -9999 66 66 79 79 -9999 -9999 -9999 -9999 79 67 79 79 -9999 -9999 -9999 79 79 79 -9999 -9999 -9999 -9999 79 79 -9999 -9999 -9999 -9999 79 79 79 79 66 79 79 79 79 79 83 83 83 83 83 83 66 66 66 66 66 66 66 66 79 79 79 66 66 66 -9999 -9999 -9999 -9999 -9999 66 66 66 66 66 66 79 -9999 79 -9999 -9999 79 67 -9999 79 67 -9999 -9999 -9999 67 -9999 79 67 79 79 67 -9999 -9999 -9999 -9999 79 81 81 81 81 81 81 81 81 81 81 81 81 81 81 81 81 81 81 81 81 66 66 81 81 81 81 81 81 91 91 91 91 91 91 91 91 91 91 91 91 72 72 72 72 72 72 72 72 72 72 72 72 72 72 79 79 79 79 79 79 79 79 79
72 72 81 81 81 66 79 81 81 81 81 81 81 81 81 81 -9999 66 81 81 66 66 79 79 79 66 -9999 66 81 81 81 66 66 81 81 81 81 81 81 81 81 81 66 66 66 66 81 81 81 81 81 81 81 81 81 66 66 66 -9999 66 66 66 66 66 66 79 66 79 79 79 79 66 79 79 79 79 79 79 79 79 79 79 79 79 66 67 79 66 79 66 66 66 79 -9999 79 79 66 79 79 66 66 66 66 66 66 89 89 83 83 83 83 83 66 66 66 79 79 79 79 -9999 -9999 -9999 -9999 -9999 79 79 66 79 -9999 -9999 79 79 79 67 67 -9999 -9999 -9999 79 79 67 -9999 -9999 -9999 79 79 79 -9999 -9999 -9999 -9999 79 66 79 -9999 -9999 -9999 -9999 79 79 79 66 66 79 79 79 79 66 83 83 89 89 89 83 66 66 66 66 66 66 66 66 66 66 66 66 79 66 -9999 -9999 -9999 -9999 -9999 66 66 66 -9999 79 66 66 -9999 79 79 -9999 -9999 66 79 79 -9999 -9999 67 -9999 -9999 67 67 79 67 79 79 -9999 -9999 -9999 79 81 81 81 81 81 81 81 81 81 81 81 81 81 81 81 81 81 81 81 81 81 66 67 81 81 81 81 81 81 81 91 91 91 91 91 91 91 91 91 91 91 91 91 72 72 72 72 72 72 72 72 72 72 72 72 72 79 79 79 79 79 79 79 79
72 81 81 81 81 66 81 81 81 81 81 81 81 81 81 81 -9999 81 81 81 81 79 79 79 66 66 66 66 81 81 81 66 66 81 81 81 81 81 81 81 81 81 66 66 81 81 66 66 81 81 81 81 81 81 81 66 66 66 -9999 -9999 66 66 66 66 66 79 79 79 79 79 79 79 79 79 79 79 79 79 79 79 79 79 79 66 66 66 66 -9999 -9999 -9999 -9999 -9999 -9999 -9999 79 66 66 -9999 -9999 66 66 66 66 66 66 89 89 83 83 83 83 83 83 66 66 79 79 79 79 79 79 79 79 -9999 -9999 -9999 -9999 -9999 -9999 -9999 -9999 -9999 79 -9999 -9999 -9999 -9999 -9999 -9999 -9999 79 -9999 -9999 -9999 -9999 -9999 67 79 -9999 -9999 -9999 79 67 -9999 -9999 -9999 67 67 79 79 79 79 79 79 79 79 79 66 83 83 89 89 89 83 66 79 79 79 66 66 66 66 66 66 66 66 79 79 -9999 79 -9999 66 79 66 66 79 67 67 -9999 -9999 79 67 67 79 -9999 -9999 79 -9999 79 -9999 67 -9999 -9999 79 79 -9999 -9999 79 -9999 -9999 -9999 -9999 81 81 81 81 81 81 81 81 81 81 81 81 81 81 81 81 81 81 81 81 81 81 81 81 81 81 81 81 81 81 81 81 81 91 91 91 91 91 91 89 89 91 91 91 91 91 72 72 72 72 72 72 72 72 72 72 72 68 68 68 68 68 68 68 68
81 81 81 81 66 66 81 81 81 81 81 81 81 81 81 81 -9999 81 81 81 81 81 81 81 81 81 66 66 81 81 81 66 81 81 81 81 81 81 81 81 81 81 66 66 81 81 81 66 66 81 81 81 81 81 81 66 66 66 66 -9999 66 66 66 66 66 79 79 79 79 79 79 79 79 79 66 66 79 79 66 66 79 79 66 66 66 66 66 66 66 66 66 66 79 -9999 79 79 79 -9999 -9999 79 79 66 66 66 66 66 83 83 83 83 83 83 83 83 66 79 79 79 79 79 79 79 79 79 66 66 79 -9999 -9999 -9999 -9999 -9999 79 79 67 -9999 -9999 67 67 79 -9999 -9999 -9999 -9999 -9999 79 66 -9999 -9999 -9999 67 67 79 -9999 -9999 -9999 -9999 79 79 79 79 66 79 79 79 79 79 66 83 83 89 83 83 83 79 79 79 66 66 66 66 66 66 66 66 66 66 66 66 66 67 66 79 67 67 67 -9999 -9999 -9999 -9999 -9999 79 79 -9999 -9999 -9999 79 -9999 79 -9999 -9999 -9999 -9999 -9999 79 -9999 -9999 -9999 -9999 79 -9999 67 79 81 81 81 81 81 81 81 81 81 81 81 81 81 81 81 81 81 81 81 81 81 81 81 81 81 81 81 81 81 81 81 81 81 81 91 91 91 91 91 89 89 89 91 91 91 91 72 72 72 72 72 72 72 72 72 72 45 68 68 68 68 68 68 68
81 81 81 81 66 66 81 81 81 81 81 81 81 81 81 81 -9999 66 81 81 81 81 81 81 81 81 81 81 81 81 81 66 81 81 81 81 81 81 81 81 81 81 66 66 81 81 81 66 66 66 81 81 81 81 81 66 66 66 66 -9999 -9999 66 66 66 66 66 66 66 79 79 66 66 79 79 66 66 79 79 66 66 79 79 79 66 66 66 79 66 66 66 66 66 66 -9999 66 66 66 66 66 66 66 66 66 66 66 66 83 83 83 83 83 83 83 83 83 66 67 79 79 79 79 79 79 79 79 79 -9999 79 -9999 79 79 -9999 -9999 -9999 -9999 -9999 79 66 67 66 -9999 -9999 -9999 -9999 67 67 67 -9999 -9999 -9999 -9999 79 79 -9999 -9999 -9999 79 66 66 79 -9999 79 79 66 66 79 79 66 83 83 89 83 83 83 66 79 79 66 66 66 66 66 66 66 66 66 66 66 66 67 79 67 -9999 67 -9999 67 -9999 -9999 -9999 67 -9999 79 79 79 67 -9999 -9999 -9999 -9999 -9999 -9999 79 66 -9999 -9999 -9999 -9999 79 67 79 79 67 79 81 81 81 81 81 81 81 81 81 81 81 81 81 81 81 81 81 81 81 81 81 81 81 81 81 81 81 81 81 81 81 81 81 81 81 91 91 91 91 89 89 89 89 89 91 91 91 72 72 72 72 72 72 72 72 72 45 45 68 68 68 68 68 68
81 81 81 81 66 66 81 81 81 81 81 81 81 81 81 81 -9999 81 81 81 81 81 81 81 81 81 81 81 81 81 81 66 66 81 81 81 81 81 81 81 81 81 66 66 81 81 81 66 66 66 66 66 66 66 66 66 66 66 66 66 -9999 79 66 66 66 66 66 66 79 79 66 66 79 79 66 79 79 79 79 79 79 79 79 79 66 66 79 66 66 66 66 66 66 -9999 66 66 66 66 66 66 66 66 66 66 66 66 66 83 83 83 83 83 83 83 83 66 79 79 79 79 79 79 79 66 79 67 79 -9999 -9999 -9999 -9999 66 -9999 79 -9999 -9999 -9999 -9999 -9999 66 79 -9999 -9999 79 79 79 -9999 67 -9999 -9999 67 79 79 -9999 -9999 -9999 -9999 66 -9999 67 -9999 79 -9999 79 79 79 79 66 83 83 83 83 83 83 66 66 66 66 66 66 66 66 66 66 67 67 -9999 66 79 67 -9999 -9999 -9999 -9999 67 -9999 -9999 -9999 -9999 -9999 -9999 66 79 -9999 -9999 -9999 -9999 66 79 -9999 -9999 79 79 79 -9999 -9999 79 79 -9999 66 79 -9999 79 79 81 81 81 81 81 81 81 81 81 81 81 81 81 81 81 81 81 81 81 81 81 81 81 81 81 81 81 81 81 81 81 81 81 81 81 91 91 91 91 89 89 89 83 83 83 91 91 72 72 72 72 72 72 72 72 72 45 68 68 68 68 68 68
81 81 81 81 66 81 81 81 81 81 81 81 81 81 81 81 -9999 66 81 81 81 81 81 81 81 81 81 66 66 66 66 66 66 81 81 81 81 81 81 81 81 81 66 66 81 81 81 81 66 66 66 66 66 66 66 66 66 66 66 81 -9999 -9999 66 66 66 66 66 66 79 79 79 79 79 79 79 79 79 79 79 79 79 79 79 66 66 66 79 66 66 66 66 66 66 -9999 66 66 66 66 66 66 79 79 79 66 66 66 66 66 83 83 83 83 83 83 83 83 89 79 79 79 79 79 79 79 79 79 -9999 -9999 -9999 79 66 66 -9999 -9999 -9999 79 -9999 79 -9999 -9999 -9999 -9999 -9999 79 79 79 79 -9999 -9999 -9999 79 67 79 67 -9999 -9999 -9999 66 -9999 -9999 -9999 -9999 -9999 67 79 79 79 66 83 83 83 83 83 83 66 66 66 66 66 66 66 66 79 79 -9999 -9999 -9999 66 -9999 67 -9999 -9999 -9999 -9999 67 -9999 -9999 -9999 79 79 -9999 -9999 -9999 -9999 79 79 66 79 -9999 67 67 66 79 66 -9999 -9999 79 79 79 66 79 -9999 -9999 79 79 81 81 81 81 81 81 81 81 81 81 81 81 81 81 81 81 81 81 81 81 81 81 81 81 81 81 81 81 81 81 81 81 81 81 81 91 91 91 89 89 89 83 83 83 83 91 91 72 72 72 72 72 72 45 45 45 68 68 68 68 68 68
81 81 81 66 66 81 81 81 81 81 81 81 81 81 81 81 -9999 66 81 81 66 66 81 81 81 81 81 66 66 66 66 66 66 81 81 81 81 81 81 81 81 81 66 66 81 81 81 81 66 66 81 81 81 81 81 81 81 81 81 81 81 -9999 -9999 66 66 66 66 79 67 79 79 79 79 79 66 66 66 79 66 66 66 79 79 66 66 66 66 66 66 66 66 66 79 -9999 -9999 66 79 79 79 79 79 79 79 66 66 66 66 66 66 83 83 83 83 83 83 83 83 79 79 79 79 79 79 79 79 67 79 -9999 -9999 -9999 66 66 67 66 -9999 -9999 -9999 79 79 67 79 -9999 -9999 -9999 -9999 -9999 -9999 -9999 -9999 -9999 66 79 -9999 -9999 -9999 -9999 67 66 67 67 -9999 -9999 -9999 79 66 66 66 66 83 83 83 83 83 83 66 66 66 66 66 66 66 79 67 67 -9999 -9999 -9999 -9999 67 -9999 67 -9999 -9999 -9999 67 67 79 -9999 -9999 -9999 -9999 -9999 -9999 -9999 67 79 66 -9999 67 79 67 -9999 79 79 79 -9999 -9999 66 79 79 -9999 -9999 -9999 -9999 66 81 81 81 81 81 81 81 81 81 81 81 81 81 81 81 81 81 81 81 81 81 81 81 81 81 81 81 81 81 81 81 81 81 81 81 81 81 91 91 89 89 89 83 83 83 83 91 91 88 86 77 77 77 77 86 68 68 68 68 68 45 45
81 81 81 66 66 81 81 81 81 81 81 81 81 81 81 81 -9999 66 81 81 66 66 81 81 81 81 81 81 66 66 66 66 81 81 81 81 81 81 81 81 81 81 66 66 66 81 81 81 81 66 81 81 81 81 81 81 81 81 81 81 81 79 -9999 66 66 66 66 79 79 79 66 66 66 79 66 66 66 66 66 66 66 79 66 66 79 66 66 66 66 66 66 66 79 79 -9999 66 66 79 79 79 79 79 79 79 66 66 66 66 66 66 66 83 83 83 83 83 83 83 79 79 66 79 66 66 66 66 66 -9999 66 79 79 -9999 -9999 -9999 -9999 79 67 79 79 -9999 -9999 -9999 -9999 67 79 79 -9999 -9999 -9999 -9999 -9999 79 -9999 -9999 -9999 -9999 79 79 67 67 -9999 -9999 67 67 66 66 66 66 83 83 83 83 83 83 83 66 66 66 66 66 79 79 79 -9999 -9999 -9999 79 79 67 67 67 -9999 -9999 79 67 -9999 -9999 -9999 -9999 67 67 79 -9999 -9999 -9999 -9999 66 66 66 -9999 67 67 79 79 -9999 79 -9999 -9999 66 79 -9999 -9999 66 66 66 81 81 81 81 81 81 81 81 81 81 81 81 81 81 81 81 81 81 81 81 81 81 81 81 81 81 81 81 81 81 81 81 81 81 81 81 81 81 81 79 89 89 86 77 77 77 86 86 77 77 77 77 77 77 77 77 45 45 45 45 45 45
81 81 81 66 66 81 81 81 81 81 81 81 81 81 81 81 -9999 81 81 81 66 66 81 81 81 81 81 81 81 66 66 66 81 81 81 81 81 81 81 81 81 81 66 66 66 81 81 81 81 66 81 81 81 81 81 81 81 81 81 81 81 81 -9999 -9999 66 66 66 66 66 66 66 66 66 66 66 66 66 66 66 66 66 66 66 66 66 66 66 66 66 66 66 66 67 66 -9999 66 66 79 79 79 79 79 79 79 66 66 66 66 66 66 66 66 66 66 83 83 83 83 66 79 79 66 66 66 66 66 66 79 79 79 66 79 67 -9999 79 -9999 79 66 -9999 79 -9999 66 79 79 79 -9999 -9999 -9999 -9999 79 -9999 -9999 -9999 -9999 79 79 79 67 66 -9999 -9999 -9999 79 79 66 66 66 66 83 83 83 83 83 83 83 66 66 66 66 66 79 79 79 -9999 -9999 -9999 67 -9999 67 79 -9999 -9999 -9999 -9999 -9999 -9999 67 67 -9999 -9999 67 67 -9999 -9999 -9999 66 67 -9999 67 -9999 -9999 79 79 79 -9999 -9999 79 -9999 66 79 79 79 66 66 81 81 81 81 81 81 81 81 81 81 81 81 81 81 81 81 81 81 81 81 81 81 81 81 81 81 81 81 81 81 81 81 81 81 81 81 81 81 81 81 81 79 86 86 77 77 77 77 86 77 77 86 77 77 77 77 77 45 45 45 68 72 72
81 81 81 66 66 81 81 81 81 81 81 81 81 81 81 81 -9999 81 81 81 66 66 81 81 81 81 81 81 81 81 66 66 81 81 81 81 81 81 81 81 81 81 66 66 66 81 81 81 81 66 81 81 81 81 81 81 81 81 81 81 81 81 79 -9999 -9999 66 66 66 66 66 66 66 66 66 66 66 66 66 66 66 66 66 66 66 66 66 66 66 81 79 79 67 67 79 -9999 -9999 66 79 79 79 79 79 -9999 -9999 66 66 66 66 66 66 66 66 66 66 66 83 83 83 66 66 79 66 66 66 66 66 66 79 79 79 79 79 79 79 79 66 79 79 -9999 -9999 -9999 -9999 -9999 66 79 79 -9999 -9999 -9999 79 79 -9999 -9999 -9999 -9999 -9999 -9999 -9999 79 -9999 -9999 67 79 79 66 66 66 66 83 83 83 83 83 83 83 83 66 79 79 79 79 79 79 67 -9999 -9999 -9999 -9999 -9999 67 -9999 -9999 -9999 -9999 67 -9999 -9999 67 67 79 66 66 -9999 79 -9999 -9999 -9999 -9999 -9999 -9999 67 66 66 79 79 79 79 -9999 -9999 79 79 81 66 81 81 81 81 81 81 81 81 81 81 81 81 81 81 81 81 81 81 81 81 81 81 81 81 81 81 81 81 81 81 81 81 81 81 81 81 81 81 81 81 81 81 81 77 77 77 77 77 86 86 86 86 86 86 86 86 86 86 86 45 72 81 81 72
81 81 66 66 81 81 81 81 81 81 81 81 81 81 81 81 -9999 81 81 81 66 66 81 81 81 81 81 81 81 81 81 66 81 81 81 81 81 81 81 81 81 81 66 66 66 81 81 81 81 66 66 81 81 81 81 81 81 81 81 81 81 81 81 79 -9999 79 66 66 66 66 66 66 66 66 66 66 66 66 66 66 66 66 66 66 81 81 81 81 81 79 79 67 -9999 79 79 -9999 66 79 79 79 -9999 -9999 -9999 79 66 66 66 66 66 66 66 66 66 66 66 66 66 66 66 67 67 79 79 66 66 66 66 79 79 79 79 79 79 79 79 66 66 79 79 67 -9999 66 -9999 79 -9999 67 -9999 -9999 -9999 79 79 -9999 -9999 -9999 67 -9999 79 -9999 -9999 -9999 -9999 -9999 79 79 66 66 66 66 83 83 89 83 83 83 83 83 66 79 66 79 79 79 79 79 -9999 -9999 -9999 79 -9999 -9999 -9999 67 -9999 67 -9999 67 79 79 79 79 79 79 -9999 -9999 79 -9999 -9999 -9999 -9999 67 -9999 -9999 66 67 79 66 66 66 -9999 -9999 81 81 81 81 81 81 81 81 81 81 81 81 81 81 81 81 81 81 81 81 81 81 81 81 81 81 81 81 81 81 81 81 81 81 81 81 81 81 81 81 81 81 81 81 81 81 66 88 88 88 88 86 86 86 86 86 86 86 86 86 86 86 77 66 81 81 81
66 81 66 66 81 81 81 81 81 81 81 81 81 81 81 79 -9999 81 81 81 66 66 81 81 81 81 81 81 81 81 81 66 81 81 81 81 81 81 81 81 81 81 66 66 66 81 81 81 81 66 66 81 81 81 81 81 81 81 81 81 81 81 81 81 -9999 -9999 66 66 66 66 66 66 66 66 66 66 66 66 81 81 81 81 81 81 81 81 81 81 81 79 79 79 -9999 79 66 -9999 66 66 79 -9999 -9999 -9999 79 67 66 66 66 66 66 66 66 66 66 66 66 66 66 66 66 66 67 67 79 66 66 66 66 79 79 79 79 79 79 79 79 66 66 66 79 79 79 66 79 67 79 -9999 -9999 -9999 -9999 79 79 -9999 -9999 -9999 -9999 79 79 -9999 -9999 -9999 66 -9999 79 79 66 66 66 66 89 89 89 89 89 89 83 83 83 66 66 66 79 79 79 79 79 79 -9999 -9999 -9999 79 67 79 67 67 79 67 67 79 79 79 79 79 67 67 -9999 -9999 -9999 -9999 -9999 67 -9999 -9999 79 67 79 66 66 79 79 -9999 79 81 81 81 81 81 81 81 81 81 81 81 81 81 81 81 81 81 81 81 81 81 81 81 81 81 81 81 81 81 81 81 81 81 81 81 81 81 81 81 81 81 81 81 81 81 81 81 88 88 88 88 88 86 86 86 86 86 86 86 86 86 86 79 81 81 81
66 66 66 66 81 81 81 81 81 81 81 81 81 81 79 79 -9999 81 81 81 66 66 81 81 81 81 81 81 81 81 81 66 81 81 81 81 81 81 81 81 81 81 66 66 66 81 81 81 81 66 66 81 81 81 81 81 81 81 81 81 81 81 81 81 79 -9999 -9999 66 66 66 66 66 66 66 81 81 81 81 81 81 81 81 81 81 81 81 81 81 81 79 -9999 79 79 79 79 -9999 -9999 66 79 67 79 79 79 66 66 66 66 66 66 66 66 66 66 66 66 66 66 66 66 66 66 66 66 66 66 66 66 79 79 79 79 79 79 79 79 66 66 66 79 79 79 79 79 -9999 67 -9999 -9999 -9999 79 79 -9999 -9999 -9999 -9999 -9999 67 79 -9999 -9999 -9999 -9999 79 79 79 79 66 66 66 79 83 83 89 89 89 83 83 83 83 66 66 66 66 66 66 79 79 79 79 67 79 -9999 67 79 79 79 79 79 66 79 79 79 79 79 79 -9999 -9999 -9999 79 -9999 -9999 67 79 67 79 67 67 79 66 -9999 -9999 -9999 79 81 81 81 81 81 81 81 81 81 81 81 81 81 81 81 81 81 81 81 81 81 81 81 81 81 81 81 81 81 81 81 81 81 81 81 81 81 81 81 81 81 81 81 81 81 81 88 88 88 88 88 88 88 86 86 86 86 86 86 86 86 86 79 67 66
66 66 66 66 79 79 81 81 81 81 81 81 81 79 79 79 -9999 81 81 81 66 66 81 81 81 81 81 81 81 81 81 66 81 81 81 81 81 81 81 81 81 81 66 66 66 81 81 81 81 66 66 81 81 81 81 81 81 81 81 81 81 81 81 81 81 79 -9999 66 66 81 81 81 81 81 81 81 81 81 81 81 81 81 81 81 81 81 81 81 81 79 -9999 -9999 66 -9999 79 67 -9999 -9999 66 66 66 79 66 66 66 66 66 66 66 66 66 66 66 66 66 66 66 66 66 66 66 66 66 66 66 66 66 66 66 79 79 79 79 79 66 66 66 66 79 79 79 79 79 67 -9999 -9999 -9999 -9999 67 67 67 -9999 -9999 -9999 -9999 79 -9999 -9999 -9999 66 67 79 79 79 79 66 66 66 79 89 83 89 94 89 83 83 83 83 66 66 66 66 66 66 66 79 79 -9999 67 66 -9999 67 67 79 79 79 -9999 79 66 79 79 79 79 67 -9999 -9999 -9999 -9999 67 79 67 79 -9999 67 -9999 67 -9999 -9999 -9999 81 -9999 -9999 81 81 81 81 81 81 81 81 81 81 81 81 81 81 81 81 81 81 81 81 81 81 81 81 81 81 81 81 81 81 81 81 81 81 81 81 81 81 81 81 81 81 81 81 81 81 81 88 88 88 88 88 88 88 86 86 86 86 86 86 86 86 79 66 66
66 66 66 79 79 -9999 -9999 -9999 -9999 -9999 -9999 -9999 -9999 -9999 -9999 -9999 -9999 81 81 81 66 66 66 66 81 66 66 66 66 66 66 66 81 81 81 81 66 66 66 66 66 66 66 66 81 81 81 81 81 66 66 81 81 81 81 81 81 81 81 81 81 81 81 81 81 81 -9999 -9999 81 81 81 81 81 81 81 81 81 81 81 81 81 81 81 81 81 81 81 81 79 79 -9999 -9999 66 66 67 79 79 -9999 66 66 66 66 66 66 66 66 -9999 -9999 66 66 66 66 66 66 66 66 66 66 66 66 66 66 83 83 83 83 83 83 66 66 67 79 79 66 66 66 66 66 79 79 79 79 79 67 67 -9999 67 -9999 79 79 -9999 -9999 -9999 -9999 67 67 79 -9999 -9999 -9999 -9999 66 79 79 79 66 66 66 79 89 83 89 94 89 83 83 83 83 83 66 66 66 66 66 66 66 79 -9999 67 67 67 79 79 79 67 67 79 -9999 67 79 79 79 79 79 79 -9999 67 -9999 67 79 79 -9999 -9999 67 -9999 -9999 -9999 81 81 81 81 -9999 -9999 81 81 81 81 81 81 81 81 81 81 81 81 81 81 81 81 81 81 81 81 81 81 81 81 81 81 81 81 81 81 81 81 81 81 81 81 81 81 81 81 81 81 81 81 81 81 81 81 88 88 88 88 88 86 86 86 86 86 77 86 86 86 79 67
66 66 66 79 79 -9999 -9999 67 86 -9999 66 79 79 79 79 86 66 81 81 81 81 81 81 81 81 81 81 66 66 66 66 81 81 81 81 66 66 66 66 66 66 66 66 81 81 81 81 81 81 66 66 81 81 81 81 81 81 81 81 81 81 81 81 81 81 81 79 -9999 -9999 81 81 81 81 81 81 81 81 81 81 81 81 81 81 81 81 81 81 81 79 -9999 -9999 -9999 -9999 79 79 79 66 -9999 -9999 -9999 66 66 66 79 -9999 -9999 -9999 -9999 66 66 66 66 66 66 66 66 66 66 66 66 66 66 83 83 83 83 83 89 89 83 83 79 79 67 66 66 66 66 79 79 79 79 79 66 -9999 79 -9999 67 67 67 79 -9999 -9999 -9999 79 79 -9999 79 -9999 67 79 79 79 79 79 66 66 66 66 79 83 89 89 83 83 83 83 83 83 66 66 66 79 66 66 66 79 67 67 67 -9999 79 67 79 -9999 67 67 67 79 79 79 79 79 79 67 67 -9999 -9999 -9999 79 -9999 79 -9999 -9999 -9999 81 81 81 81 81 81 81 -9999 79 81 81 81 81 81 81 81 81 81 81 81 81 81 81 81 81 81 81 81 81 81 81 81 81 81 81 81 81 81 81 81 81 81 81 81 81 81 81 81 81 81 81 81 81 81 81 81 81 81 88 88 88 88 86 86 86 86 86 77 77 79 79 81
79 66 66 79 79 79 -9999 67 67 79 66 79 79 79 79 79 66 81 81 81 66 66 81 81 81 81 81 81 79 79 81 81 81 81 81 66 66 81 81 81 81 81 81 81 81 81 81 81 81 66 81 81 81 81 81 81 81 81 81 81 81 81 81 81 81 81 81 79 -9999 79 81 81 81 81 81 81 81 81 81 81 81 81 81 81 81 81 81 81 81 66 -9999 -9999 -9999 -9999 -9999 79 79 67 -9999 -9999 66 66 66 66 -9999 -9999 -9999 -9999 66 66 66 66 66 79 66 66 66 66 66 66 66 66 66 66 66 66 66 83 83 83 83 89 83 83 66 66 66 66 79 79 79 79 79 66 79 67 67 66 66 -9999 -9999 -9999 -9999 -9999 66 79 -9999 -9999 -9999 -9999 67 79 79 79 79 66 66 66 66 66 83 89 83 83 83 -9999 -9999 83 83 83 66 66 66 66 66 66 66 66 -9999 -9999 79 79 67 -9999 -9999 -9999 -9999 -9999 -9999 67 67 79 79 79 79 66 -9999 -9999 -9999 79 -9999 -9999 -9999 81 81 81 81 81 81 81 81 81 -9999 -9999 79 81 81 81 81 81 81 81 81 81 81 81 81 81 81 81 81 81 81 81 81 81 81 81 81 81 81 81 81 81 81 81 81 81 81 81 81 81 81 81 81 81 81 81 81 81 81 81 81 81 81 81 88 88 88 88 81 81 79 81 81 81 81
81 79 67 79 66 66 79 66 66 66 66 79 79 79 -9999 86 66 81 81 81 66 66 81 81 81 81 81 81 79 79 79 81 81 81 81 66 66 81 81 81 81 81 81 81 81 81 81 81 81 66 81 81 81 81 81 81 81 81 81 81 81 81 81 81 81 81 81 81 -9999 -9999 81 81 81 81 81 81 81 81 81 81 81 81 81 81 81 81 81 81 66 67 67 -9999 -9999 -9999 66 67 66 66 66 -9999 79 79 66 66 79 66 -9999 -9999 66 66 66 66 66 66 79 66 66 66 66 66 66 66 66 66 66 66 66 66 83 89 89 83 83 83 83 83 66 66 79 79 79 79 79 79 79 79 79 79 67 67 -9999 -9999 -9999 -9999 67 -9999 67 -9999 79 79 79 79 79 79 79 79 66 66 66 66 66 83 83 89 -9999 -9999 -9999 83 83 83 66 66 66 66 66 66 66 66 79 79 -9999 -9999 -9999 -9999 66 -9999 -9999 -9999 -9999 -9999 67 67 79 79 -9999 -9999 79 67 -9999 -9999 -9999 81 81 81 81 81 81 81 81 81 81 81 81 -9999 -9999 79 81 81 81 81 81 81 81 81 81 81 81 81 81 81 81 81 81 81 81 81 81 81 81 81 81 81 81 81 81 81 81 81 81 81 81 81 81 81 81 81 81 81 81 81 81 81 81 81 81 81 81 81 81 81 81 81 81 81 81 81 81
66 81 81 81 81 66 81 66 66 66 66 67 66 66 66 66 66 81 81 81 66 66 81 81 81 81 81 81 81 79 79 81 81 81 81 66 66 81 81 81 81 81 81 81 81 81 81 81 81 66 81 81 81 81 81 81 81 81 81 81 81 81 81 81 81 81 81 81 81 -9999 -9999 81 81 81 81 81 81 81 81 81 81 81 81 81 81 81 81 81 66 79 67 67 -9999 -9999 -9999 -9999 66 66 66 -9999 -9999 79 66 79 -9999 -9999 -9999 -9999 66 66 79 79 66 66 66 66 66 66 66 66 66 66 66 66 66 66 66 66 66 83 83 83 83 83 83 83 83 66 79 79 79 79 79 79 79 67 79 79 79 -9999 79 -9999 -9999 79 67 -9999 -9999 -9999 -9999 -9999 79 79 79 79 79 79 66 66 66 66 66 83 83 -9999 -9999 -9999 -9999 83 83 83 83 79 79 66 66 66 66 66 79 79 -9999 -9999 66 -9999 79 -9999 -9999 -9999 -9999 -9999 -9999 67 -9999 67 79 67 -9999 -9999 -9999 81 81 81 81 81 81 81 81 81 81 81 81 81 81 81 -9999 -9999 79 81 81 81 81 81 81 81 81 81 81 81 81 81 81 81 81 81 81 81 81 81 81 81 81 81 81 81 81 81 81 81 81 81 81 81 81 81 79 79 79 79 79 81 81 81 81 81 81 81 81 81 81 81 81 81 81 81 81 81 81
66 81 81 81 81 81 81 81 81 81 81 81 66 66 66 66 66 81 81 81 66 66 81 81 81 81 81 81 81 81 79 79 81 81 81 66 66 81 81 81 81 81 81 81 81 81 81 81 66 66 81 81 81 81 81 81 81 81 81 81 81 81 81 81 81 81 81 81 81 81 -9999 -9999 81 81 81 81 81 81 81 81 81 81 81 81 81 81 81 81 67 -9999 79 79 67 67 -9999 79 66 79 66 66 -9999 -9999 66 79 -9999 -9999 -9999 -9999 66 -9999 66 66 79 66 66 79 66 66 66 66 66 66 66 66 66 66 66 66 66 66 83 83 83 83 83 83 83 83 79 79 79 79 79 79 79 66 66 66 67 -9999 79 66 -9999 67 -9999 -9999 67 -9999 79 -9999 79 79 79 79 79 79 66 66 66 66 66 83 89 -9999 -9999 -9999 -9999 89 83 83 83 66 79 66 66 66 66 66 79 67 -9999 -9999 67 -9999 67 67 -9999 -9999 -9999 -9999 79 -9999 67 -9999 -9999 -9999 -9999 81 81 81 81 81 81 81 81 81 81 81 81 81 81 81 81 81 81 -9999 -9999 81 81 81 81 81 81 81 81 81 81 81 81 81 81 81 81 81 81 81 81 81 81 81 81 81 81 81 81 81 81 81 81 81 81 81 81 79 -9999 -9999 -9999 -9999 -9999 -9999 -9999 79 79 81 81 81 81 81 81 81 81 81 81 81 81 81 81
79 81 81 81 81 81 81 81 81 81 81 81 81 81 81 66 66 81 81 81 66 66 81 81 81 81 81 81 81 81 81 79 81 81 81 66 66 81 81 81 81 81 81 81 81 81 81 81 66 66 81 81 81 81 81 81 81 81 81 81 81 81 81 81 81 81 81 81 81 81 79 -9999 79 81 81 81 81 81 81 81 81 81 81 81 81 81 81 66 79 -9999 79 79 67 -9999 -9999 -9999 66 79 66 66 66 -9999 66 79 79 -9999 -9999 79 66 -9999 -9999 -9999 -9999 -9999 79 79 79 79 79 79 79 79 79 79 66 66 66 66 66 66 66 83 83 83 83 83 83 83 83 83 79 79 79 79 79 66 79 79 79 79 79 79 79 67 -9999 -9999 -9999 -9999 67 -9999 66 79 79 79 79 79 66 66 66 66 66 89 89 -9999 -9999 -9999 -9999 83 83 83 83 66 66 66 66 66 66 66 79 -9999 67 -9999 79 -9999 67 66 79 67 67 -9999 -9999 -9999 -9999 -9999 -9999 66 81 81 81 81 81 81 81 81 81 81 81 81 81 81 81 81 81 81 81 81 -9999 -9999 81 81 81 81 81 81 81 81 81 81 81 81 81 81 81 81 81 81 81 81 81 81 81 81 81 81 81 81 81 81 81 81 81 81 81 79 -9999 -9999 -9999 -9999 -9999 -9999 -9999 79 79 79 81 81 81 81 81 81 81 81 81 81 81 81 81
66 81 81 81 81 81 81 81 81 81 81 81 81 81 81 66 66 81 81 81 66 66 81 81 81 81 81 81 81 81 81 81 79 81 81 66 66 81 81 81 81 81 81 81 81 81 81 81 66 66 66 81 81 81 81 81 81 81 81 81 81 81 81 81 81 81 81 81 81 81 81 -9999 -9999 79 81 81 81 81 81 81 81 81 81 81 81 81 66 -9999 79 79 -9999 79 79 79 67 -9999 -9999 66 66 66 67 -9999 -9999 66 -9999 -9999 -9999 -9999 66 -9999 -9999 -9999 -9999 -9999 86 -9999 -9999 -9999 -9999 -9999 -9999 79 -9999 79 79 79 66 66 66 66 66 66 83 83 83 89 83 83 83 83 83 89 79 79 79 66 66 79 79 79 79 79 79 79 -9999 67 -9999 67 -9999 66 79 79 79 79 79 79 66 66 66 66 66 89 83 -9999 -9999 -9999 -9999 83 83 83 83 83 66 66 66 66 66 66 79 67 -9999 -9999 -9999 -9999 67 66 79 67 -9999 -9999 -9999 -9999 79 79 79 66 66 81 81 81 81 81 81 81 81 81 81 81 81 81 81 81 81 81 81 81 81 -9999 79 81 81 81 81 81 81 81 81 81 81 81 81 81 81 81 81 81 81 81 81 81 81 81 81 81 81 81 81 81 81 81 81 81 81 81 -9999 79 79 79 -9999 67 79 79 79 79 81 81 81 81 81 81 81 81 81 81 81 81 81
66 81 81 81 81 81 81 81 81 81 81 81 81 81 81 66 66 66 66 66 66 66 81 81 81 81 81 81 81 81 81 81 79 81 81 66 66 81 81 81 81 81 81 81 81 81 81 81 81 66 66 81 81 81 81 81 81 81 81 81 81 81 81 81 81 81 81 81 81 81 81 81 -9999 -9999 81 81 81 81 81 81 81 81 81 81 81 81 66 -9999 79 79 -9999 79 79 66 -9999 -9999 -9999 66 66 66 79 79 -9999 -9999 79 66 79 66 66 66 79 -9999 -9999 -9999 -9999 -9999 -9999 -9999 -9999 -9999 -9999 79 79 79 79 66 66 66 66 66 66 66 66 83 83 83 83 89 89 83 83 89 89 79 79 66 66 79 79 79 79 79 79 66 -9999 -9999 -9999 67 -9999 67 79 79 79 79 79 79 66 66 66 66 66 66 89 -9999 83 83 83 83 83 83 83 83 66 66 66 66 66 66 79 67 66 -9999 -9999 -9999 67 66 67 79 -9999 -9999 -9999 79 79 66 66 66 66 81 81 81 81 81 81 81 81 81 81 81 81 81 81 81 81 81 81 81 81 -9999 -9999 79 81 81 81 81 81 81 81 81 81 81 81 81 81 81 81 81 81 81 79 79 81 81 81 81 81 81 81 81 81 81 81 81 81 81 -9999 -9999 66 66 67 66 79 79 79 79 79 79 81 81 81 81 81 81 81 81 81 81 81
79 81 81 81 81 81 81 81 81 81 81 81 81 81 81 66 66 66 66 66 66 66 66 66 66 66 66 66 81 81 81 81 81 79 81 66 66 81 81 81 81 81 81 81 81 81 81 81 66 66 66 81 81 81 81 81 81 81 81 81 81 81 81 81 81 81 81 81 81 81 81 81 81 -9999 -9999 81 81 81 81 81 81 81 81 81 81 81 66 -9999 -9999 67 67 79 67 79 79 -9999 -9999 -9999 67 67 66 66 66 -9999 66 66 79 66 66 66 66 67 -9999 67 -9999 -9999 -9999 -9999 -9999 -9999 -9999 -9999 79 79 66 66 66 66 66 66 66 66 66 66 83 83 83 89 89 89 89 83 89 89 89 66 66 79 79 79 79 79 66 66 79 66 79 -9999 66 79 79 79 79 79 79 79 66 66 66 66 66 66 89 83 83 83 83 83 83 83 83 83 66 66 66 66 66 66 66 67 67 -9999 -9999 -9999 -9999 -9999 67 67 -9999 -9999 79 -9999 79 66 66 66 66 66 81 81 81 81 81 81 81 81 81 81 81 81 81 81 81 81 81 81 81 81 -9999 -9999 79 81 81 81 81 81 81 81 81 81 81 81 81 81 81 81 79 79 79 79 81 81 81 81 81 81 81 81 81 81 81 81 81 81 81 -9999 66 66 66 66 -9999 -9999 79 79 79 79 79 79 81 81 81 81 81 81 81 81 81
79 81 81 81 81 81 81 81 81 81 81 81 81 81 81 66 81 81 81 81 81 81 81 66 66 66 66 66 66 66 81 66 66 66 66 66 66 66 66 81 81 81 81 81 81 81 81 81 66 66 66 66 81 81 81 81 81 81 81 81 81 81 81 81 81 81 81 81 81 81 81 81 81 81 -9999 -9999 81 81 81 81 81 81 81 81 81 81 66 79 -9999 -9999 -9999 -9999 79 79 67 79 79 -9999 -9999 -9999 67 -9999 67 -9999 -9999 -9999 -9999 -9999 79 79 79 67 -9999 -9999 -9999 -9999 -9999 -9999 -9999 -9999 -9999 79 67 79 66 66 66 66 66 66 66 66 66 66 83 83 83 83 89 89 89 89 89 89 89 83 66 79 79 79 79 79 79 66 79 79 79 67 67 67 79 79 79 79 79 79 66 66 66 66 66 66 83 89 83 83 83 83 83 83 83 83 66 66 79 67 66 66 66 79 79 -9999 -9999 -9999 66 66 79 67 -9999 -9999 67 -9999 79 66 66 66 66 66 81 81 81 81 81 81 81 81 81 81 81 81 81 81 81 81 81 81 81 81 81 -9999 -9999 79 79 81 81 81 81 81 81 81 81 81 81 81 -9999 -9999 -9999 79 79 79 79 81 81 81 81 81 81 81 81 81 81 81 81 81 81 -9999 -9999 -9999 -9999 -9999 -9999 -9999 79 79 -9999 -9999 79 79 81 81 81 81 81 81 81 81 81
66 66 66 79 79 66 79 81 81 81 81 81 81 81 81 66 81 81 81 81 81 81 81 81 81 81 81 81 81 81 81 81 81 81 66 66 66 66 66 66 66 66 66 66 66 66 66 66 66 66 66 66 66 66 81 81 81 81 81 81 81 81 81 81 81 81 81 81 81 81 81 81 81 81 79 -9999 79 81 81 81 81 81 81 81 81 66 66 79 -9999 -9999 79 66 67 79 67 67 -9999 67 -9999 66 79 -9999 79 66 -9999 -9999 -9999 -9999 -9999 79 79 -9999 -9999 -9999 -9999 -9999 -9999 79 -9999 -9999 -9999 -9999 -9999 67 66 66 66 66 66 66 66 66 66 66 66 66 83 83 89 89 89 89 89 89 89 83 83 89 79 79 79 79 79 66 79 79 79 79 79 79 79 79 79 79 79 79 66 66 66 66 66 66 89 83 83 83 83 83 83 83 83 83 66 66 66 66 66 66 66 79 67 67 -9999 -9999 -9999 -9999 -9999 -9999 -9999 79 67 -9999 66 66 66 66 66 66 81 81 81 81 81 81 81 81 81 81 81 81 81 81 81 81 81 81 81 81 81 81 -9999 -9999 79 79 81 81 81 81 81 81 81 81 -9999 -9999 -9999 -9999 -9999 -9999 79 79 79 79 81 81 81 81 81 81 81 81 81 81 81 81 81 -9999 -9999 -9999 -9999 -9999 -9999 -9999 -9999 -9999 -9999 -9999 66 79 79 81 81 81 81 81 81 81 81
66 66 66 79 79 66 66 66 66 66 66 66 66 66 66 66 81 81 81 81 81 81 81 81 81 81 81 81 81 81 81 81 81 81 66 66 66 -9999 66 66 66 66 66 66 66 66 66 66 66 66 66 66 66 66 66 66 66 81 81 81 81 81 81 81 81 81 81 81 81 81 81 81 81 81 81 -9999 -9999 79 81 81 81 81 81 81 81 66 66 66 79 -9999 -9999 79 67 67 79 79 67 -9999 -9999 -9999 79 -9999 79 66 -9999 -9999 -9999 -9999 -9999 66 66 66 66 -9999 -9999 -9999 79 79 -9999 -9999 -9999 -9999 -9999 66 66 66 66 66 66 66 79 79 86 79 66 66 66 66 89 89 89 89 89 89 89 83 83 89 89 89 79 79 79 66 79 79 79 79 79 79 79 79 79 79 79 66 66 66 66 66 66 66 89 83 83 83 83 83 83 83 83 83 66 66 66 66 66 66 66 66 79 67 -9999 67 -9999 67 -9999 -9999 79 -9999 -9999 67 66 66 66 66 66 66 66 81 81 81 81 81 81 81 81 81 81 81 81 81 81 81 81 81 81 81 81 81 81 -9999 -9999 79 81 81 81 81 81 81 81 -9999 -9999 -9999 -9999 -9999 -9999 86 79 79 79 79 81 81 81 81 81 81 81 81 81 81 81 81 81 -9999 -9999 -9999 -9999 -9999 -9999 -9999 -9999 -9999 -9999 -9999 -9999 -9999 79 79 81 81 81 81 81 81 81
66 67 79 -9999 -9999 79 66 66 66 66 66 66 66 66 66 66 81 81 81 81 81 81 81 81 81 81 81 81 81 81 81 81 81 81 66 66 66 -9999 -9999 -9999 66 66 66 66 66 66 66 66 66 66 66 66 66 66 66 66 66 66 81 81 81 81 81 81 81 81 81 81 81 81 81 81 81 81 81 81 -9999 -9999 79 81 81 81 81 81 81 66 66 66 66 79 -9999 79 -9999 67 79 79 67 -9999 67 -9999 79 67 -9999 -9999 -9999 -9999 -9999 -9999 -9999 -9999 -9999 66 66 -9999 -9999 67 67 -9999 -9999 -9999 79 79 -9999 79 79 66 66 66 66 66 79 -9999 86 79 66 66 66 66 66 79 79 89 89 89 89 89 83 83 89 89 89 89 79 66 79 79 79 79 79 79 79 79 79 79 79 66 66 66 66 66 66 66 83 83 83 83 83 83 83 83 83 83 66 66 66 66 66 66 66 66 79 -9999 -9999 67 79 67 67 -9999 67 79 -9999 79 66 66 66 66 66 66 66 66 81 81 81 81 81 66 66 66 66 66 66 66 66 66 81 81 66 79 79 79 79 79 -9999 -9999 81 81 81 81 81 -9999 -9999 -9999 -9999 -9999 -9999 -9999 -9999 -9999 -9999 79 79 79 81 81 81 81 81 81 81 81 81 81 81 81 81 -9999 86 -9999 -9999 -9999 -9999 -9999 -9999 -9999 -9999 -9999 -9999 -9999 79 66 81 81 81 81 81 81 81
66 66 -9999 -9999 -9999 -9999 66 66 66 66 66 66 66 66 66 81 81 81 81 81 81 81 81 81 81 81 81 81 81 81 81 81 81 66 66 66 66 66 -9999 -9999 -9999 66 66 66 66 66 66 66 66 66 66 66 66 66 66 66 66 66 66 66 81 81 81 81 81 81 81 81 81 81 81 81 81 81 81 81 81 -9999 -9999 81 81 81 81 81 66 66 66 66 79 79 -9999 -9999 67 -9999 79 79 67 79 67 -9999 -9999 -9999 -9999 79 -9999 79 -9999 -9999 -9999 -9999 -9999 -9999 -9999 -9999 -9999 -9999 -9999 -9999 79 66 66 79 -9999 67 67 -9999 66 66 66 66 79 -9999 86 86 67 66 66 66 66 66 79 79 79 89 89 83 83 89 89 89 89 89 89 79 79 79 79 79 79 79 79 79 79 79 66 66 66 66 66 66 66 66 83 83 83 83 83 83 83 83 83 83 66 66 66 66 66 66 66 66 66 66 66 66 66 66 66 66 66 66 66 66 66 66 66 66 66 66 66 66 67 67 67 79 79 66 66 66 66 66 66 66 66 66 81 81 66 66 81 81 81 81 81 -9999 -9999 81 81 -9999 -9999 -9999 -9999 -9999 -9999 -9999 -9999 -9999 -9999 -9999 -9999 -9999 81 81 81 81 81 81 81 81 81 81 81 81 81 81 81 -9999 -9999 86 -9999 -9999 -9999 -9999 -9999 -9999 -9999 -9999 -9999 79 79 -9999 81 81 81 81 81 81 81
66 66 66 -9999 -9999 66 66 66 66 66 66 66 66 66 66 81 81 81 81 81 81 81 81 81 81 81 81 81 81 81 81 81 81 66 66 66 66 66 66 -9999 66 66 66 66 66 66 66 66 66 66 66 66 66 66 66 66 66 66 66 66 66 66 66 81 81 81 81 81 81 81 81 81 81 81 81 81 81 81 -9999 -9999 81 81 81 81 66 66 66 79 79 79 79 -9999 67 -9999 -9999 79 79 67 -9999 -9999 -9999 -9999 67 -9999 -9999 79 -9999 -9999 -9999 -9999 -9999 66 66 67 -9999 -9999 -9999 -9999 79 66 66 79 -9999 -9999 -9999 -9999 66 66 66 66 79 -9999 86 -9999 79 66 66 66 66 66 79 79 66 66 66 66 83 83 83 83 89 83 89 83 66 66 66 66 66 66 66 66 66 66 66 66 66 66 66 66 66 83 83 83 83 83 83 83 83 83 83 83 66 66 66 66 66 66 66 66 66 66 66 66 66 66 66 66 66 66 66 66 66 66 81 66 66 81 81 81 81 81 81 81 81 81 81 81 81 81 81 81 81 81 81 81 81 81 81 81 81 81 81 81 -9999 -9999 -9999 -9999 79 79 -9999 -9999 -9999 -9999 -9999 -9999 -9999 -9999 -9999 -9999 79 81 81 81 81 81 81 81 81 81 81 81 81 81 79 67 -9999 66 66 79 -9999 -9999 -9999 -9999 -9999 66 79 79 -9999 -9999 -9999 81 81 81 81 81 81
66 66 66 66 66 86 -9999 -9999 66 66 66 66 66 66 66 81 81 81 81 81 81 81 81 81 81 81 81 81 81 81 81 81 81 66 66 66 66 66 66 66 66 66 66 66 66 66 66 66 66 66 66 66 66 66 66 66 66 66 66 66 66 66 66 66 81 81 81 81 81 81 81 81 81 81 81 81 81 81 81 -9999 -9999 81 81 66 66 66 66 79 79 79 66 -9999 -9999 67 79 79 -9999 -9999 -9999 -9999 67 -9999 -9999 67 79 79 79 -9999 -9999 -9999 -9999 -9999 66 66 66 79 -9999 -9999 79 79 79 -9999 -9999 -9999 -9999 -9999 79 79 79 79 -9999 -9999 86 -9999 79 66 66 66 66 66 66 66 66 66 66 66 66 66 83 83 83 83 89 83 66 66 66 66 66 66 66 66 66 66 66 66 66 66 66 66 66 83 83 83 89 89 89 89 89 83 83 83 83 66 66 66 66 66 66 81 81 81 81 81 81 81 81 81 81 81 81 81 81 81 81 81 81 81 81 81 81 81 81 66 66 81 81 81 81 81 81 81 81 81 81 81 81 81 81 81 81 81 81 81 -9999 -9999 -9999 79 79 -9999 -9999 -9999 67 -9999 -9999 -9999 -9999 -9999 -9999 -9999 -9999 81 81 81 81 81 81 81 81 81 81 79 66 79 79 66 -9999 66 66 66 66 66 66 66 66 -9999 -9999 -9999 -9999 -9999 81 81 81 81 81 81 81
81 66 66 66 66 79 -9999 -9999 -9999 66 66 66 66 66 66 81 81 81 81 81 81 81 81 81 81 81 81 81 81 81 81 81 81 66 66 66 66 66 66 66 66 66 66 66 66 66 66 66 66 66 66 66 66 66 66 66 66 66 66 66 66 66 66 66 66 81 81 81 81 81 81 81 81 81 81 81 81 81 81 81 -9999 79 81 66 66 66 66 79 79 79 66 66 -9999 -9999 -9999 -9999 -9999 67 -9999 -9999 79 79 66 67 79 79 81 81 -9999 -9999 -9999 -9999 79 66 66 79 -9999 -9999 -9999 -9999 -9999 -9999 -9999 -9999 -9999 66 79 79 79 79 -9999 -9999 -9999 79 66 66 66 81 81 81 79 79 79 79 79 79 79 79 79 79 89 89 89 89 89 66 66 66 66 66 66 66 66 66 66 66 66 66 66 66 83 83 83 83 89 89 89 89 89 83 83 83 83 66 66 66 66 66 66 81 81 81 81 81 81 81 81 81 81 81 81 81 81 81 81 81 81 81 81 81 81 81 81 81 81 66 81 81 81 81 81 81 81 81 81 81 81 81 81 81 81 81 81 81 81 -9999 79 79 -9999 -9999 67 79 79 66 -9999 -9999 -9999 -9999 -9999 -9999 -9999 79 81 81 81 81 81 66 66 79 79 79 -9999 -9999 67 79 -9999 66 79 79 79 -9999 -9999 -9999 -9999 -9999 81 81 81 81 81 81 81 81 81 81 81
81 81 81 81 81 79 79 -9999 -9999 -9999 66 66 66 66 81 81 81 81 81 81 81 81 81 81 81 81 81 81 81 81 81 81 81 66 66 66 66 66 66 66 66 66 66 66 66 66 66 66 66 66 66 66 66 66 66 66 66 66 66 66 66 66 66 66 66 66 66 81 81 81 81 81 81 81 81 81 81 81 81 81 -9999 -9999 66 66 66 66 66 66 79 66 79 66 66 66 79 79 -9999 -9999 67 79 79 66 66 66 81 81 81 81 -9999 -9999 -9999 -9999 -9999 79 79 79 -9999 -9999 -9999 -9999 -9999 -9999 -9999 -9999 -9999 66 67 79 -9999 -9999 -9999 79 79 79 66 66 81 81 81 81 81 79 79 79 79 79 79 79 79 79 79 89 89 89 89 66 66 66 66 66 66 66 66 66 66 66 66 66 66 66 83 83 83 89 89 89 89 89 89 83 83 83 66 66 66 66 66 66 66 81 81 81 81 81 81 81 81 81 81 81 81 81 81 81 81 81 81 81 81 81 81 81 81 66 66 81 81 81 81 81 81 81 81 81 81 81 81 81 81 81 81 81 81 81 81 -9999 -9999 79 79 79 79 86 66 66 -9999 -9999 -9999 -9999 -9999 -9999 -9999 79 81 81 81 81 66 66 66 79 79 -9999 -9999 -9999 -9999 79 -9999 66 -9999 -9999 -9999 -9999 66 81 81 81 81 81 81 81 81 81 81 81 81 81 81
81 81 81 81 81 81 81 79 79 -9999 -9999 66 66 66 81 81 81 81 81 81 81 81 81 81 81 81 81 81 81 81 81 81 66 66 66 66 66 66 66 66 66 66 66 66 66 66 66 66 66 66 66 66 66 66 66 66 66 66 66 66 66 66 66 66 66 66 66 66 81 81 81 81 81 81 81 81 81 81 81 81 81 -9999 -9999 66 66 66 66 66 79 79 79 79 66 66 79 67 66 79 79 66 79 81 81 81 81 81 81 81 81 -9999 -9999 -9999 -9999 -9999 66 66 -9999 -9999 -9999 -9999 -9999 -9999 -9999 -9999 -9999 -9999 -9999 -9999 -9999 -9999 -9999 -9999 79 66 66 81 81 81 81 81 81 81 81 79 79 79 79 79 79 79 79 89 89 89 89 89 66 66 67 66 66 66 66 66 66 66 66 66 66 83 83 83 83 89 89 89 89 83 89 83 83 83 66 66 66 66 66 66 66 81 81 81 81 81 81 81 81 81 81 81 81 81 81 81 81 81 81 81 81 81 81 81 81 66 66 81 81 81 81 81 81 81 81 81 81 81 81 81 81 81 81 81 81 81 81 81 -9999 -9999 -9999 79 66 79 79 66 -9999 -9999 -9999 -9999 -9999 -9999 -9999 79 81 81 81 81 66 66 79 79 -9999 -9999 -9999 -9999 -9999 -9999 -9999 -9999 -9999 81 81 81 81 81 81 81 81 81 81 81 81 81 81 81 81 81 81
81 81 81 81 81 81 81 81 81 79 79 79 67 66 81 81 81 81 81 81 81 81 81 81 81 81 81 81 81 81 81 81 66 66 79 79 66 66 66 66 66 66 66 66 66 66 66 66 79 66 66 66 66 66 79 79 79 66 66 66 66 66 66 66 66 66 66 66 66 66 81 81 81 81 81 81 81 81 81 81 81 79 -9999 -9999 66 66 66 66 66 66 66 79 79 79 79 66 66 66 66 66 81 81 81 81 81 81 81 81 81 81 -9999 -9999 79 -9999 66 66 66 -9999 -9999 -9999 -9999 -9999 -9999 -9999 79 -9999 -9999 -9999 -9999 -9999 -9999 -9999 79 67 81 81 81 81 81 81 81 81 81 81 81 79 79 79 79 79 79 79 89 89 89 89 66 66 66 66 79 66 66 66 66 66 66 66 83 83 83 83 83 83 83 89 89 83 83 83 83 83 66 79 79 66 66 66 66 81 81 81 81 81 81 81 81 81 81 81 81 81 81 81 81 81 81 81 81 81 81 81 81 81 81 81 81 81 81 81 81 81 81 81 81 81 81 81 81 81 81 81 81 81 81 81 -9999 -9999 -9999 79 66 66 -9999 -9999 -9999 -9999 -9999 -9999 -9999 -9999 -9999 81 81 81 81 81 81 66 66 79 -9999 -9999 -9999 -9999 -9999 -9999 81 81 81 81 81 81 81 81 81 81 81 81 81 81 81 81 81 81 81 81 81
81 81 81 81 81 81 81 81 81 81 81 79 67 66 81 81 81 81 81 81 81 81 81 81 81 81 81 81 81 81 81 81 66 66 79 79 66 66 66 66 66 66 66 66 66 66 66 66 66 66 66 66 66 79 79 79 79 79 79 66 66 66 66 66 66 66 66 66 66 66 66 66 81 81 81 81 81 81 81 81 81 81 66 -9999 -9999 66 66 66 66 66 66 66 66 67 79 79 66 66 66 81 81 81 81 81 81 81 81 81 81 81 -9999 -9999 79 -9999 -9999 66 79 -9999 -9999 -9999 -9999 -9999 -9999 -9999 79 -9999 -9999 -9999 -9999 -9999 -9999 -9999 79 81 81 81 81 81 81 81 81 81 81 81 81 81 81 79 79 79 79 79 79 89 89 89 79 66 66 66 66 66 66 66 66 66 66 83 83 83 83 83 83 83 83 89 89 83 83 83 83 66 66 66 66 66 66 66 66 81 81 81 81 81 81 81 81 81 81 81 81 81 81 81 81 81 81 81 81 81 81 81 81 81 81 81 81 81 81 81 81 81 81 81 81 81 81 81 81 81 81 81 81 81 81 81 81 -9999 -9999 79 79 66 79 79 -9999 -9999 -9999 -9999 -9999 -9999 79 79 81 81 81 81 81 81 66 -9999 -9999 -9999 -9999 81 81 81 81 66 66 81 81 81 81 81 81 81 81 81 81 81 81 81 81 81 81 81 81
81 81 81 81 81 81 81 81 81 81 81 66 66 66 81 81 81 81 81 81 81 81 81 81 81 81 81 81 81 81 81 79 66 79 79 79 79 66 66 66 79 79 79 66 66 66 66 66 66 66 66 66 79 79 79 79 79 79 79 79 66 66 66 66 66 66 66 66 66 66 66 66 66 66 66 81 81 81 81 81 81 66 66 79 -9999 79 66 66 66 66 66 66 66 66 66 66 66 81 81 81 81 81 81 81 81 81 81 81 81 81 81 -9999 -9999 79 -9999 -9999 79 -9999 -9999 -9999 -9999 -9999 -9999 -9999 79 -9999 -9999 -9999 -9999 -9999 -9999 -9999 79 81 81 81 81 81 81 81 81 81 81 81 81 81 81 81 81 79 79 79 79 79 89 89 79 66 66 66 66 66 66 66 66 66 83 83 83 83 83 83 83 83 83 89 89 89 83 83 83 66 66 66 66 66 66 66 81 81 81 81 81 81 81 81 81 81 81 81 81 81 81 81 81 81 81 81 81 81 81 81 81 81 81 81 81 81 81 81 81 81 81 81 81 81 81 81 81 81 81 81 81 81 81 81 81 81 -9999 79 79 79 79 79 -9999 -9999 79 -9999 66 79 -9999 -9999 81 81 81 81 -9999 -9999 -9999 -9999 81 81 81 81 81 81 81 66 66 79 81 81 81 81 81 81 81 81 81 81 81 81 81 81 81 81 81
81 81 81 81 81 81 81 81 81 81 81 66 66 66 81 81 81 81 81 81 81 81 81 81 81 81 81 81 81 81 81 66 66 79 79 79 79 66 66 66 79 79 79 66 66 66 79 79 79 66 66 66 79 79 79 79 79 79 79 79 79 79 66 66 66 66 66 66 66 66 66 66 66 66 66 66 66 66 66 66 66 66 66 66 -9999 -9999 79 79 66 66 66 66 66 66 66 81 81 81 81 81 81 81 81 81 81 81 81 81 81 81 81 81 -9999 79 79 -9999 79 79 67 -9999 -9999 -9999 -9999 -9999 79 79 66 -9999 -9999 -9999 -9999 -9999 66 81 81 81 81 81 81 81 81 81 81 81 81 81 81 81 81 81 79 79 79 79 79 79 79 66 66 66 79 66 66 66 66 66 83 83 83 83 83 83 83 83 83 83 83 89 83 83 66 66 66 66 66 66 66 81 81 81 81 81 81 81 81 81 81 81 81 81 81 81 81 81 81 81 81 81 81 81 81 81 81 81 81 81 81 81 81 81 81 81 81 81 81 81 81 81 81 81 81 81 81 81 81 81 81 81 -9999 -9999 79 79 79 79 79 79 79 79 79 -9999 79 79 -9999 -9999 -9999 -9999 -9999 81 81 81 81 81 81 81 81 81 81 81 79 66 81 81 81 81 81 81 81 81 81 81 81 81 81 81 81 81 81
